;FLAVOR:Marlin
;TIME:7921
;Filament used: 29.3773m
;Layer height: 0.48
;MINX:125.508
;MINY:100.977
;MINZ:0.3
;MAXX:223.617
;MAXY:279.358
;MAXZ:28.34
;Generated with Cura_SteamEngine 5.3.1
M82 ;absolute extrusion mode
; X5SA Start Code
G21 ; Set units to millimeters
G90 ; Set all axis to Absolute
M82 ; Set extrusion to Absolute
M107 ; Disable all fans
M190 S60 ; Set bed temperature and wait
G28 ; Home all axis
; Uncomment the line below to enable ABL Mesh probing
;G29 ; Probe bed mesh for ABL
; For best results do not run nozzle heater while performing ABL
G1 Z5.0 ; Raise nozzle to prevent scratching of heat bed
G1 X0 Y0 ; Move nozzle to Home before heating
M109 S230.0 T0 ; Set nozzle temp and wait
G92 E0 ; Set Extruder position to zero
; Uncomment the following lines to enable nozzle purge line along left edge of bed
;G1 Z2.0 F3000 ; Raise Z axis
;G1 X1.1 Y20 Z0.2 F3600.0 ; Move to purge line start position
;G1 Y290 F1500.0 E15 ; Draw first purge line
;G1 X1.4 F3600.0 ; Move to side
;G1 Y20 F1500.0 E30 ; Draw second purge line
;G92 E0 ; Reset Extruder
;G1 Z2.0 F3000 ; Move Z Axis up little to prevent scratching of Heat Bed
;G1 X5 Y20 Z0.2 F3600.0 ; Move over to finish nozzle wipe
;G92 E0

G92 E0
G92 E0
G1 F2700 E-10
;LAYER_COUNT:59
;LAYER:0
M107
G1 F300 Z0.5
G0 F2700 X137.57 Y127.616 Z0.5
;TYPE:SKIRT
G1 F300 Z0.3
G1 F2700 E0
G1 F1800 X136.945 Y128.304 E0.14802
G1 X135.724 Y129.704 E0.44385
G1 X135.367 Y130.137 E0.53322
G1 X134.644 Y131.067 E0.72081
G1 X133.692 Y132.346 E0.97472
G1 X133.388 Y132.773 E1.05819
G1 X132.733 Y133.767 E1.24777
G1 X131.866 Y135.136 E1.50582
G1 X131.571 Y135.63 E1.59745
G1 X131.102 Y136.468 E1.75038
G1 X130.122 Y138.313 E2.08307
G1 X129.878 Y138.817 E2.17224
G1 X129.566 Y139.499 E2.29168
G1 X128.742 Y141.382 E2.619
G1 X128.546 Y141.885 E2.70497
G1 X128.226 Y142.756 E2.85274
G1 X127.698 Y144.258 E3.10628
G1 X127.521 Y144.808 E3.19829
G1 X127.2 Y145.917 E3.38215
G1 X126.796 Y147.42 E3.63
G1 X126.671 Y147.926 E3.713
G1 X126.443 Y149.008 E3.88909
G1 X126.174 Y150.413 E4.1169
G1 X126.052 Y151.116 E4.23053
G1 X125.987 Y151.549 E4.30025
G1 X125.901 Y152.217 E4.40751
G1 X125.698 Y154.01 E4.69487
G1 X125.648 Y154.591 E4.78774
G1 X125.593 Y155.553 E4.94118
G1 X125.544 Y156.856 E5.14883
G1 X125.51 Y158.674 E5.4384
G1 X125.508 Y267.052 E22.69754
G1 X125.52 Y267.791 E22.81525
G1 X125.562 Y268.563 E22.93837
G1 X125.686 Y269.476 E23.0851
G1 X125.766 Y269.92 E23.15694
G1 X125.928 Y270.663 E23.27805
G1 X126.194 Y271.545 E23.42475
G1 X126.536 Y272.4 E23.5714
G1 X126.951 Y273.221 E23.7179
G1 X127.16 Y273.594 E23.78599
G1 X127.425 Y274.043 E23.86901
G1 X127.948 Y274.801 E24.01567
G1 X128.534 Y275.511 E24.16227
G1 X129.245 Y276.234 E24.32376
G1 X129.832 Y276.747 E24.4479
G1 X130.567 Y277.301 E24.59448
G1 X131.348 Y277.789 E24.74114
G1 X132.168 Y278.207 E24.88771
G1 X132.569 Y278.39 E24.9579
G1 X133.219 Y278.661 E25.07005
G1 X134.094 Y278.949 E25.21675
G1 X134.99 Y279.16 E25.36334
G1 X135.901 Y279.293 E25.50995
G1 X136.82 Y279.346 E25.65655
G1 X137.667 Y279.358 E25.79144
G1 X156.116 Y279.358 E28.72944
G1 X156.801 Y279.34 E28.83856
G1 X157.548 Y279.287 E28.95782
G1 X158.458 Y279.15 E29.10437
G1 X159.353 Y278.935 E29.25095
G1 X160.226 Y278.642 E29.3976
G1 X161.07 Y278.275 E29.54416
G1 X161.88 Y277.836 E29.69088
G1 X163.287 Y276.992 E29.95217
G1 X165.464 Y275.736 E30.35242
G1 X167.716 Y274.52 E30.75999
G1 X169.979 Y273.381 E31.16344
G1 X172.255 Y272.313 E31.56381
G1 X174.554 Y271.313 E31.96306
G1 X176.951 Y270.351 E32.37438
G1 X179.268 Y269.496 E32.76768
G1 X181.693 Y268.678 E33.17524
G1 X184.127 Y267.933 E33.5806
G1 X186.529 Y267.272 E33.97734
G1 X189.045 Y266.654 E34.38992
G1 X191.443 Y266.139 E34.78051
G1 X193.994 Y265.665 E35.19371
G1 X196.456 Y265.278 E35.5906
G1 X198.964 Y264.957 E35.99325
G1 X201.488 Y264.707 E36.39716
G1 X204.005 Y264.529 E36.799
G1 X206.513 Y264.422 E37.19876
G1 X209.138 Y264.385 E37.61683
G1 X211.213 Y264.383 E37.94727
G1 X212.417 Y264.358 E38.13905
G1 X213.459 Y264.285 E38.30539
G1 X214.367 Y264.135 E38.45195
G1 X215.259 Y263.908 E38.59853
G1 X216.128 Y263.604 E38.74514
G1 X216.968 Y263.226 E38.89183
G1 X217.343 Y263.037 E38.95871
G1 X217.843 Y262.767 E39.0492
G1 X218.621 Y262.275 E39.19579
G1 X219.354 Y261.718 E39.3424
G1 X220.035 Y261.098 E39.48906
G1 X220.66 Y260.422 E39.63567
G1 X220.937 Y260.095 E39.70392
G1 X221.612 Y259.208 E39.88142
G1 X222.096 Y258.425 E40.02802
G1 X222.511 Y257.604 E40.17451
G1 X222.853 Y256.749 E40.32116
G1 X223.011 Y256.298 E40.39726
G1 X223.21 Y255.667 E40.50263
G1 X223.421 Y254.771 E40.64922
G1 X223.553 Y253.86 E40.79581
G1 X223.606 Y252.941 E40.9424
G1 X223.616 Y252.225 E41.05644
G1 X223.617 Y143.898 E58.30746
G1 X223.575 Y141.663 E58.66345
G1 X223.519 Y140.236 E58.89087
G1 X223.481 Y139.661 E58.98264
G1 X223.396 Y138.756 E59.12739
G1 X223.147 Y136.622 E59.46954
G1 X223.062 Y136.077 E59.55738
G1 X222.907 Y135.205 E59.69842
G1 X222.605 Y133.642 E59.95193
G1 X222.49 Y133.111 E60.03845
G1 X222.244 Y132.127 E60.19998
G1 X221.792 Y130.455 E60.4758
G1 X221.63 Y129.916 E60.56543
G1 X221.247 Y128.761 E60.75921
G1 X220.702 Y127.23 E61.01801
G1 X220.508 Y126.725 E61.10416
G1 X220.168 Y125.905 E61.24552
G1 X219.414 Y124.196 E61.54299
G1 X219.172 Y123.686 E61.63289
G1 X218.736 Y122.828 E61.78616
G1 X218.017 Y121.477 E62.02987
G1 X217.693 Y120.892 E62.13637
G1 X217.449 Y120.476 E62.21317
G1 X217.038 Y119.811 E62.33767
G1 X216.118 Y118.368 E62.61019
G1 X215.823 Y117.93 E62.69429
G1 X215.142 Y116.977 E62.88082
G1 X214.179 Y115.691 E63.13667
G1 X213.828 Y115.248 E63.22668
G1 X213.213 Y114.512 E63.37942
G1 X211.991 Y113.111 E63.67547
G1 X211.613 Y112.701 E63.76428
G1 X210.811 Y111.88 E63.94705
G1 X209.637 Y110.729 E64.20888
G1 X209.231 Y110.351 E64.29722
G1 X208.549 Y109.749 E64.44208
G1 X206.899 Y108.36 E64.78555
G1 X206.443 Y108.004 E64.87768
G1 X205.872 Y107.578 E64.99113
G1 X204.424 Y106.532 E65.2756
G1 X203.974 Y106.225 E65.36235
G1 X203.018 Y105.611 E65.54328
G1 X201.614 Y104.752 E65.8054
G1 X201.149 Y104.484 E65.89087
G1 X200.165 Y103.951 E66.06908
G1 X198.774 Y103.235 E66.31822
G1 X198.17 Y102.941 E66.4252
G1 X197.053 Y102.444 E66.61989
G1 X195.982 Y101.991 E66.80508
G1 X195.365 Y101.742 E66.91103
G1 X194.431 Y101.415 E67.06863
G1 X193.538 Y101.19 E67.21528
G1 X192.629 Y101.044 E67.36189
G1 X191.711 Y100.977 E67.50847
G1 X190.791 Y100.989 E67.65499
G1 X189.875 Y101.082 E67.80162
G1 X188.97 Y101.254 E67.94832
G1 X188.613 Y101.338 E68.00672
G1 X187.933 Y101.518 E68.11874
G1 X187.197 Y101.75 E68.24163
G1 X186.813 Y101.887 E68.30656
G1 X185.796 Y102.311 E68.48203
G1 X185.343 Y102.528 E68.56202
G1 X184.898 Y102.754 E68.6415
G1 X184.107 Y103.226 E68.78819
G1 X182.731 Y104.129 E69.05029
G1 X180.687 Y105.438 E69.43682
G1 X178.515 Y106.747 E69.84067
G1 X176.303 Y107.996 E70.24521
G1 X174.062 Y109.18 E70.64883
G1 X171.782 Y110.302 E71.05351
G1 X169.524 Y111.335 E71.44893
G1 X167.158 Y112.337 E71.85811
G1 X164.826 Y113.249 E72.25687
G1 X162.436 Y114.106 E72.66121
G1 X160.044 Y114.889 E73.06202
G1 X157.592 Y115.614 E73.46921
G1 X154.986 Y116.307 E73.89864
G1 X153.708 Y116.735 E74.11327
G1 X153.085 Y116.989 E74.22041
G1 X151.336 Y117.737 E74.52334
G1 X150.805 Y117.988 E74.61688
G1 X150.173 Y118.303 E74.72933
G1 X148.566 Y119.131 E75.01722
G1 X148.054 Y119.413 E75.1103
G1 X147.075 Y119.991 E75.29135
G1 X145.417 Y121.019 E75.60202
G1 X144.944 Y121.338 E75.69288
G1 X144.3 Y121.792 E75.81836
G1 X142.725 Y122.943 E76.12901
G1 X142.29 Y123.285 E76.21713
G1 X141.706 Y123.765 E76.33752
G1 X140.582 Y124.715 E76.57188
G1 X140.043 Y125.19 E76.68629
G1 X139.204 Y125.981 E76.86992
G1 X138.547 Y126.63 E77.01699
G0 F1620 X137.965 Y127.204
G0 X137.57 Y127.616
G1 F2700 E67.01699
G1 F300 Z0.5
;MESH:Side Skirt L.stl(1)
G0 F2700 X159.142 Y132.611 Z0.5
;TYPE:WALL-INNER
G1 F300 Z0.3
G1 F2700 E77.01699
G1 F1800 X159.142 Y132.611
G1 X159.096 Y131.952 E77.12219
G1 X158.974 Y131.377 E77.21579
G1 X158.796 Y130.9 E77.29687
G1 X158.545 Y130.453 E77.37851
G1 X158.252 Y130.09 E77.4528
G1 X157.844 Y129.743 E77.5381
G1 X156.803 Y130.183 E77.71807
G1 X154.709 Y131.264 E78.09336
G1 X152.725 Y132.483 E78.46418
G1 X150.855 Y133.839 E78.83203
G1 X148.937 Y135.467 E79.23267
G1 X147.443 Y136.956 E79.56857
G1 X145.915 Y138.705 E79.93842
G1 X144.53 Y140.558 E80.30683
G1 X143.299 Y142.5 E80.67299
G1 X142.2 Y144.555 E81.04411
G1 X141.272 Y146.659 E81.41031
G1 X140.496 Y148.854 E81.78107
G1 X139.892 Y151.087 E82.14945
G1 X139.457 Y153.36 E82.51799
G1 X139.197 Y155.645 E82.88422
G1 X139.108 Y158.023 E83.26319
G1 X139.108 Y265.759 E100.42009
G1 X153.428 Y265.758 E102.70055
G1 X153.43 Y157.856 E119.88389
G1 X153.546 Y155.971 E120.18464
G1 X153.894 Y154.074 E120.49178
G1 X154.482 Y152.173 E120.80866
G1 X155.263 Y150.435 E121.1121
G1 X156.234 Y148.811 E121.41342
G1 X156.4 Y148.575 E121.45937
G1 X157.51 Y147.155 E121.7464
G1 X158.755 Y145.902 E122.02769
G1 X159.142 Y145.554 E122.11057
G1 X159.142 Y133.999 E123.9507
G0 F1620 X159.142 Y132.611
G1 F2700 E113.9507
G0 X154.894 Y156.168
G0 X137.908 Y266.959
G1 F2700 E123.9507
G1 F1800 X154.628 Y266.958 E126.61335
G1 X154.631 Y157.859 E143.98732
G1 X154.737 Y156.146 E144.26063
G1 X155.059 Y154.365 E144.54885
G1 X155.605 Y152.6 E144.84307
G1 X156.353 Y150.948 E145.13186
G1 X157.289 Y149.391 E145.42117
G1 X158.376 Y147.993 E145.70318
G1 X159.684 Y146.669 E145.99956
G1 X160.342 Y146.149 E146.13312
G1 X160.342 Y132.569 E148.29573
G1 X160.288 Y131.784 E148.42104
G1 X160.129 Y131.041 E148.54204
G1 X159.888 Y130.395 E148.65184
G1 X159.543 Y129.779 E148.76427
G1 X159.12 Y129.253 E148.87176
G1 X158.593 Y128.797 E148.98275
G1 X158.375 Y128.658 E149.02392
G1 X157.894 Y128.418 E149.10952
G1 X156.294 Y129.096 E149.38625
G1 X154.119 Y130.218 E149.77599
G1 X152.058 Y131.485 E150.16127
G1 X150.113 Y132.895 E150.54383
G1 X148.163 Y134.554 E150.95155
G1 X148.154 Y134.553 E150.95299
G1 X146.566 Y136.135 E151.30995
G1 X144.981 Y137.95 E151.69369
G1 X143.542 Y139.877 E152.07669
G1 X142.261 Y141.894 E152.4572
G1 X141.12 Y144.029 E152.8427
G1 X140.156 Y146.216 E153.22332
G1 X139.349 Y148.496 E153.60848
G1 X138.722 Y150.817 E153.99135
G1 X138.27 Y153.18 E154.37447
G1 X138 Y155.555 E154.75513
G1 X137.908 Y158.001 E155.14493
G1 X137.908 Y265.571 E172.2754
G0 F1620 X137.908 Y266.959
G1 F2700 E162.2754
G0 X154.064 Y130.132
G0 X153.529 Y129.172
;TYPE:WALL-OUTER
G1 F2700 E172.2754
G1 F1800 X151.39 Y130.487 E172.67526
G1 X149.371 Y131.951 E173.07241
G1 X147.385 Y133.64 E173.48759
G1 X147.372 Y133.638 E173.48969
G1 X145.69 Y135.315 E173.86793
G1 X144.047 Y137.195 E174.26554
G1 X142.553 Y139.195 E174.66309
G1 X141.224 Y141.289 E175.05805
G1 X140.04 Y143.503 E175.45788
G1 X139.04 Y145.773 E175.8529
G1 X138.203 Y148.139 E176.25257
G1 X137.552 Y150.547 E176.64981
G1 X137.082 Y152.999 E177.04739
G1 X136.802 Y155.465 E177.44263
G1 X136.708 Y157.979 E177.84326
G1 X136.708 Y267.551 E195.29255
G1 X136.753 Y267.822 E195.3363
G1 X136.88 Y268.043 E195.37689
G1 X137.092 Y268.159 E195.41537
G1 X155.828 Y268.158 E198.39907
G1 X155.829 Y157.931 E215.95267
G1 X155.929 Y156.29 E216.21448
G1 X156.224 Y154.664 E216.47765
G1 X156.722 Y153.049 E216.74679
G1 X157.411 Y151.514 E217.01473
G1 X158.261 Y150.097 E217.27787
G1 X159.294 Y148.767 E217.54606
G1 X160.51 Y147.546 E217.82048
G1 X161.542 Y146.729 E218.03009
G1 X161.542 Y132.527 E220.29175
G1 X161.479 Y131.616 E220.43717
G1 X161.284 Y130.704 E220.58569
G1 X160.98 Y129.889 E220.72422
G1 X160.541 Y129.105 E220.86731
G1 X159.987 Y128.416 E221.0081
G1 X159.313 Y127.833 E221.15002
G1 X158.967 Y127.612 E221.2154
G1 X158.576 Y127.417 E221.28498
G1 X158.175 Y127.266 E221.35322
G1 X157.773 Y127.166 E221.41919
G1 X155.784 Y128.009 E221.76321
G1 X154.762 Y128.536 E221.94632
G0 F1620 X153.529 Y129.172
G0 F2700 X154.064 Y130.132
G0 X154.013 Y151.999
;TYPE:SKIN
G1 F1200 X153.4 Y153.993 E222.27854
G1 X153.039 Y155.995 E222.60249
G1 X152.93 Y157.827 E222.89476
G1 X152.928 Y265.258 E240.00309
G1 X139.608 Y265.258 E242.12429
G1 X139.609 Y158.037 E259.19919
G1 X139.696 Y155.677 E259.57527
G1 X139.95 Y153.444 E259.93317
G1 X140.379 Y151.207 E260.2959
G1 X140.972 Y149.01 E260.65829
G1 X141.742 Y146.838 E261.02528
G1 X142.648 Y144.781 E261.38322
G1 X143.735 Y142.746 E261.75063
G1 X144.938 Y140.848 E262.10848
G1 X146.301 Y139.025 E262.47097
G1 X147.813 Y137.293 E262.8371
G1 X149.256 Y135.855 E263.16152
G1 X151.159 Y134.238 E263.5592
G1 X152.998 Y132.905 E263.9209
G1 X154.963 Y131.696 E264.28832
G1 X157.024 Y130.633 E264.65761
G1 X157.786 Y130.31 E264.78941
G1 X158.131 Y130.738 E264.87696
G1 X158.341 Y131.111 E264.94513
G1 X158.491 Y131.515 E265.01375
G1 X158.599 Y132.02 E265.09599
G1 X158.642 Y132.623 E265.19226
G1 X158.642 Y145.333 E267.21633
G1 X158.419 Y145.531 E267.26382
G1 X157.13 Y146.83 E267.55524
G1 X155.862 Y148.458 E267.88386
G1 X154.805 Y150.235 E268.21313
G1 X154.581 Y150.733 E268.30009
G0 F1080 X154.013 Y151.999
G0 F2700 X157.325 Y131.827
G1 F1200 X156.178 Y132.419 E268.50564
G1 X157.441 Y133.682 E268.79008
G1 X157.441 Y135.379 E269.06033
G1 X155.089 Y133.027 E269.59003
G1 X154.038 Y133.673 E269.78649
G1 X157.441 Y137.076 E270.55289
G1 X157.441 Y138.773 E270.82314
G1 X153.031 Y134.363 E271.81633
G1 X152.047 Y135.077 E272.00993
G1 X157.441 Y140.471 E273.22473
G1 X157.441 Y142.168 E273.49498
G1 X151.12 Y135.846 E274.91866
G1 X150.202 Y136.625 E275.11039
G1 X157.441 Y143.865 E276.74082
G1 X157.44 Y144.816 E276.89227
G1 X157.068 Y145.189 E276.97616
G1 X149.342 Y137.462 E278.71627
G1 X148.695 Y138.107 E278.86176
G1 X148.505 Y138.323 E278.90757
G1 X156.223 Y146.04 E280.64565
G1 X155.479 Y146.994 E280.83831
G1 X147.714 Y139.229 E282.58709
G1 X147.234 Y139.78 E282.70346
G1 X146.948 Y140.16 E282.7792
G1 X154.756 Y147.968 E284.53766
G1 X154.122 Y149.031 E284.73477
G1 X146.222 Y141.131 E286.51395
G1 X145.924 Y141.53 E286.59325
G1 X145.536 Y142.142 E286.70865
G1 X153.534 Y150.14 E288.5099
G1 X153.008 Y151.311 E288.71433
G1 X144.868 Y143.171 E290.54757
G1 X144.277 Y144.277 E290.74726
G1 X152.578 Y152.578 E292.61676
G1 X152.245 Y153.652 E292.79582
G1 X152.201 Y153.898 E292.83562
G1 X143.691 Y145.388 E294.75218
G1 X143.172 Y146.566 E294.95718
G1 X151.936 Y155.33 E296.93094
G1 X151.846 Y155.818 E297.00997
G1 X151.784 Y156.875 E297.17858
G1 X142.682 Y147.774 E299.22836
G1 X142.238 Y149.026 E299.4399
G1 X151.73 Y158.519 E301.57774
G1 X151.73 Y160.216 E301.84798
G1 X141.854 Y150.34 E304.07219
G1 X141.495 Y151.677 E304.29264
G1 X151.73 Y161.913 E306.59781
G1 X151.73 Y163.61 E306.86806
G1 X141.234 Y153.114 E309.23189
G1 X141.137 Y153.622 E309.31425
G1 X141.026 Y154.602 E309.47131
G1 X151.73 Y165.307 E311.8821
G1 X151.73 Y167.004 E312.15235
G1 X140.879 Y156.153 E314.59613
G1 X140.818 Y157.789 E314.85685
G1 X151.73 Y168.701 E317.31437
G1 X151.73 Y170.398 E317.58462
G1 X140.808 Y159.475 E320.0445
G1 X140.808 Y161.172 E320.31475
G1 X151.73 Y172.095 E322.77464
G1 X151.73 Y173.792 E323.04488
G1 X140.808 Y162.87 E325.50466
G1 X140.808 Y164.567 E325.77491
G1 X151.73 Y175.489 E328.23468
G1 X151.73 Y177.186 E328.50493
G1 X140.808 Y166.264 E330.9647
G1 X140.808 Y167.961 E331.23495
G1 X151.73 Y178.883 E333.69472
G1 X151.73 Y180.58 E333.96497
G1 X140.808 Y169.658 E336.42474
G1 X140.808 Y171.355 E336.69499
G1 X151.73 Y182.277 E339.15476
G1 X151.73 Y183.975 E339.42517
G1 X140.808 Y173.052 E341.88506
G1 X140.808 Y174.749 E342.1553
G1 X151.73 Y185.671 E344.61508
G1 X151.73 Y187.368 E344.88533
G1 X140.808 Y176.446 E347.3451
G1 X140.808 Y178.143 E347.61535
G1 X151.73 Y189.065 E350.07512
G1 X151.73 Y190.762 E350.34537
G1 X140.808 Y179.84 E352.80514
G1 X140.808 Y181.537 E353.07539
G1 X151.73 Y192.459 E355.53516
G1 X151.73 Y194.156 E355.80541
G1 X140.808 Y183.234 E358.26518
G1 X140.808 Y184.931 E358.53543
G1 X151.73 Y195.853 E360.99521
G1 X151.73 Y197.55 E361.26545
G1 X140.808 Y186.628 E363.72523
G1 X140.808 Y188.325 E363.99547
G1 X151.73 Y199.247 E366.45525
G1 X151.73 Y200.944 E366.72549
G1 X140.808 Y190.022 E369.18527
G1 X140.808 Y191.719 E369.45551
G1 X151.73 Y202.641 E371.91529
G1 X151.73 Y204.339 E372.1857
G1 X140.808 Y193.417 E374.64547
G1 X140.808 Y195.114 E374.91572
G1 X151.73 Y206.036 E377.37549
