;FLAVOR:Marlin
;TIME:2314
;Filament used: 6.06956m
;Layer height: 0.4
;MINX:12.076
;MINY:48.154
;MINZ:0.4
;MAXX:214.104
;MAXY:185.258
;MAXZ:3.2
;Generated with Cura_SteamEngine 5.3.1
M82 ;absolute extrusion mode
; START G-CODE BEGIN

M104 S230.0 ﻿T0
M140 S60.0

G28 ; Home all axes
G92 E0 ; Reset Extruder
M420 S1 ; Load Mesh

M109 S230.0 ﻿T0
M190 S60.0

G92 E0 ; Reset Extruder

G1 X0.6 Y20 Z0.3 F5000.0 ; Move to start position
G1 X0.6 Y200.0 Z0.3 F1500.0 E15 ; Draw the first line
G1 X0.9 Y200.0 Z0.3 F5000.0 ; Move to side a little
G1 X0.9 Y20 Z0.3 F1500.0 E30 ; Draw the second line
G92 E0 ; Reset Extruder
G1 Z2.0 F3000 ; Move Z Axis up little to prevent scratching of Heat Bed
G1 X5 Y20 Z0.3 F5000.0 ; Move over to prevent blob squish

; START G-CODE END
G92 E0
G92 E0
G1 F2100 E-6
;LAYER_COUNT:8
;LAYER:0
M107
;MESH:Cover Trim.STL
G0 F6000 X23.031 Y50.031 Z0.4
;TYPE:WALL-INNER
G1 F2100 E0
G1 F776.7 X22.909 Y50.228 E0.07859
G1 F836.7 X22.782 Y50.889 E0.29049
G1 F897.2 X22.732 Y51.217 E0.38791
G1 F954.9 X22.685 Y51.654 E0.50915
G1 F1001.4 X22.663 Y51.993 E0.59852
G1 F1022.7 X22.653 Y52.493 E0.72732
G1 F1003.5 X22.689 Y53.175 E0.9066
G0 F6000 X24.069 Y57.409
G1 F835.3 X23.963 Y58.074 E1.11897
G1 F908.5 X23.929 Y58.74 E1.31233
G1 F929 X23.929 Y76.013 E6.20996
G1 F933.9 X23.917 Y76.293 E6.28902
G1 F936.9 X23.846 Y77.328 E6.5807
G1 F934.5 X23.6 Y78.565 E6.93624
G1 F933.9 X23.199 Y79.743 E7.28725
G1 F936.3 X22.743 Y80.675 E7.57917
G1 F935.1 X22.608 Y80.936 E7.66195
G1 F930.8 X15.32 Y93.557 E11.78634
G1 F932 X15.078 Y94.024 E11.93499
G1 F934.5 X14.915 Y94.55 E12.09022
G1 F935.1 X14.846 Y95.011 E12.22154
G1 X14.846 Y95.494 E12.35761
G1 X14.915 Y95.954 E12.48865
G1 F933.9 X15.075 Y96.472 E12.64158
G1 F930.8 X15.32 Y96.947 E12.79282
G1 F929 X28.335 Y119.49 E20.17353
G1 F935.7 X28.497 Y119.804 E20.273
G1 F938.1 X29.025 Y120.924 E20.62069
G1 F939.9 X29.135 Y121.258 E20.71924
G1 F938.1 X29.445 Y122.346 E21.03691
G1 F940.6 X29.521 Y122.781 E21.16058
G1 F938.7 X29.64 Y123.815 E21.45265
G1 F939.9 X29.651 Y124.354 E21.60374
G1 F938.1 X29.607 Y125.292 E21.86742
G1 F938.7 X29.519 Y125.926 E22.04704
G1 F938.1 X29.345 Y126.747 E22.28269
G1 F938.7 X29.129 Y127.457 E22.49094
G1 F939.3 X28.861 Y128.148 E22.69879
G1 F938.7 X28.497 Y128.89 E22.93071
G1 F938.1 X28.167 Y129.454 E23.1142
G1 F936.3 X27.626 Y130.214 E23.37666
G1 F938.1 X27.28 Y130.638 E23.53033
G1 F937.5 X26.557 Y131.369 E23.81922
G1 F940.6 X26.244 Y131.653 E23.93759
G1 F913.7 X25.933 Y131.917 E24.0552
G1 F855.1 X25.505 Y132.335 E24.2395
G0 F6000 X26.581 Y135.024
G1 F1053.4 X26.499 Y134.745 E24.31222
G1 F1132.1 X26.463 Y134.345 E24.40567
G1 F1193 X26.458 Y134.035 E24.47412
G1 F1200 X26.506 Y133.7 E24.54841
G1 X26.603 Y133.409 E24.61575
G1 X26.724 Y133.176 E24.67338
G1 X26.95 Y132.882 E24.75478
G1 X28.317 Y131.551 E25.17361
G1 X29.336 Y130.197 E25.5456
G1 X30.13 Y128.7 E25.91758
G1 X30.685 Y127.096 E26.29017
G1 X30.984 Y125.428 E26.66216
G1 X31.019 Y123.737 E27.03344
G1 X30.792 Y122.057 E27.40558
G1 X30.308 Y120.43 E27.7782
G1 X29.552 Y118.849 E28.1629
G1 X16.399 Y96.07 E33.937
G1 X16.287 Y95.786 E34.00402
G1 X16.226 Y95.521 E34.06371
G1 X16.207 Y95.252 E34.12291
G1 X16.226 Y94.984 E34.18189
G1 X16.302 Y94.653 E34.25644
G1 X16.447 Y94.351 E34.32998
G1 X23.82 Y81.583 E37.56651
G1 X24.468 Y80.269 E37.88813
G1 X24.927 Y78.921 E38.20072
G1 X25.207 Y77.507 E38.51714
G1 X25.304 Y76.058 E38.83593
G1 X25.304 Y58.74 E42.63753
G1 X25.342 Y58.366 E42.72005
G1 X25.455 Y58.017 E42.80058
G1 X25.58 Y57.781 E42.8592
G1 X25.756 Y57.546 E42.92365
G1 X25.97 Y57.34 E42.98886
G1 X26.27 Y57.144 E43.06752
G1 X26.557 Y57.024 E43.13581
G1 X26.941 Y56.946 E43.22182
G1 X26.94 Y56.734 E43.26836
G1 X26.52 Y56.699 E43.36088
G1 X26.214 Y56.646 E43.42905
G1 X25.797 Y56.538 E43.52361
G1 X25.517 Y56.439 E43.5888
G1 X24.945 Y56.176 E43.727
G1 X24.492 Y55.868 E43.84725
G1 X24.252 Y55.674 E43.915
G1 X23.936 Y55.369 E44.0114
G1 X23.742 Y55.148 E44.07596
G1 X23.486 Y54.805 E44.16991
G1 X23.323 Y54.54 E44.23821
G1 X23.128 Y54.153 E44.33333
G1 F1195 X23.009 Y53.872 E44.4006
G1 F1122.4 X22.812 Y53.48 E44.50357
G1 F1019.1 X22.689 Y53.175 E44.58857
G1 F1024.9 X22.625 Y53.557 E44.68812
G1 F1129.4 X22.56 Y53.939 E44.7785
G1 F1195 X22.554 Y54.289 E44.85566
G1 F1200 X22.552 Y76.205 E49.66659
G1 X22.487 Y77.156 E49.87584
G1 X22.277 Y78.207 E50.11112
G1 X21.933 Y79.217 E50.34533
G1 X21.516 Y80.073 E50.55435
G1 X14.104 Y92.916 E53.80943
G1 X13.779 Y93.594 E53.97448
G1 X13.576 Y94.244 E54.12396
G1 X13.476 Y94.909 E54.27158
G1 X13.476 Y95.596 E54.42239
G1 X13.576 Y96.26 E54.56979
G1 X13.778 Y96.912 E54.71963
G1 X14.104 Y97.589 E54.88457
G1 X27.266 Y120.393 E60.66442
G1 X27.803 Y121.545 E60.94343
G1 X28.167 Y122.882 E61.2476
G1 X28.3 Y124.261 E61.55172
G1 X28.198 Y125.634 E61.85395
G1 X27.839 Y127.053 E62.17526
G1 X27.277 Y128.306 E62.47671
G1 X26.504 Y129.453 E62.78034
G1 X25.55 Y130.459 E63.08468
G1 X24.489 Y131.245 E63.37454
G1 F1196 X21.818 Y132.903 E64.06694
G1 F1077.8 X21.235 Y133.413 E64.25625
G1 F1034.5 X21.666 Y133.339 E64.36761
G1 F1139.2 X21.974 Y133.315 E64.43904
G1 F1196 X22.397 Y133.246 E64.53344
G1 F1200 X22.704 Y133.221 E64.60105
G1 X23.141 Y133.221 E64.69698
G1 X23.45 Y133.247 E64.76505
G1 X23.87 Y133.32 E64.85863
G1 X24.153 Y133.393 E64.92279
G1 X24.729 Y133.596 E65.05685
G1 X25.393 Y133.975 E65.22468
G1 X25.821 Y134.321 E65.3455
G1 F1139.2 X26.377 Y134.817 E65.51778
G1 F1053.4 X26.581 Y135.024 E65.59045
G1 F1035.2 X26.865 Y135.519 E65.73567
G1 F1038.2 X26.996 Y135.787 E65.81136
G1 X27.152 Y136.209 E65.92551
G1 X27.233 Y136.478 E65.99679
G1 X27.319 Y136.926 E66.11253
G1 X27.351 Y137.18 E66.17749
G1 F1030.8 X27.368 Y137.814 E66.33957
G1 F1033 X27.262 Y138.558 E66.53121
G1 F1040.5 X27.087 Y139.11 E66.67782
G1 F1033 X26.956 Y139.448 E66.77026
G0 F6000 X26.368 Y142.174
G1 F912 X26.833 Y142.567 E66.94611
G1 F929 X38.32 Y151.381 E71.05149
G1 F913.7 X38.772 Y151.7 E71.21099
G1 F2100 E65.21099
G0 F6000 X46.647 Y152.262
G0 X47.67 Y152.515
G0 X48.639 Y152.932
G0 X49.527 Y153.505
G0 X50.308 Y154.212
G0 X50.963 Y155.041
G0 X54.643 Y161.963
G0 X69.379 Y173.267
G0 X70.515 Y172.315
G0 X77.636 Y173.938
G1 F2100 E71.21099
G1 F1084.3 X77.148 Y173.335 E71.39944
G1 F1196 X75.757 Y172.07 E71.81355
G1 F1200 X75.562 Y171.863 E71.87597
G1 X73.733 Y169.583 E72.51761
G1 X73.572 Y169.345 E72.58069
G1 X72.052 Y166.666 E73.25684
G1 X70.933 Y163.657 E73.96156
G1 X70.306 Y160.511 E74.66574
G1 X70.194 Y157.4 E75.3491
G1 X70.207 Y157.147 E75.40471
G1 X70.573 Y154.215 E76.05333
G1 X70.626 Y153.964 E76.10964
G1 X71.482 Y151.026 E76.7814
G1 X72.837 Y148.17 E77.47532
G1 X102.048 Y97.574 E90.30014
G1 X102.368 Y96.909 E90.46214
G1 X102.568 Y96.262 E90.6108
G1 X102.67 Y95.594 E90.75914
G1 X102.67 Y94.911 E90.90907
G1 X102.569 Y94.242 E91.05759
G1 X102.369 Y93.594 E91.20646
G1 X102.043 Y92.916 E91.3716
G1 X94.63 Y80.073 E94.62678
G1 X94.211 Y79.21 E94.83738
G1 X93.87 Y78.206 E95.07014
G1 X93.663 Y77.201 E95.29538
G1 X93.595 Y76.205 E95.51453
G1 X93.592 Y54.287 E100.3259
G1 F1178.4 X93.57 Y53.936 E100.40452
G1 F1105.1 X93.455 Y53.288 E100.56139
G1 X93.154 Y53.874 E100.71841
G1 F1178.4 X92.819 Y54.544 E100.88587
G1 F1200 X92.661 Y54.799 E100.95172
G1 X92.409 Y55.142 E101.04515
G1 X92.209 Y55.371 E101.11189
G1 X91.891 Y55.675 E101.20846
G1 X91.654 Y55.868 E101.27556
G1 X91.154 Y56.198 E101.40706
G1 X90.537 Y56.481 E101.55607
G1 X89.933 Y56.647 E101.69358
G1 X89.626 Y56.7 E101.76197
G1 X89.206 Y56.734 E101.85447
G1 X89.205 Y56.944 E101.90056
G1 X89.589 Y57.023 E101.98662
G1 X89.876 Y57.143 E102.05491
G1 X90.176 Y57.34 E102.1337
G1 X90.39 Y57.546 E102.1989
G1 X90.566 Y57.781 E102.26335
G1 X90.69 Y58.017 E102.32187
G1 X90.804 Y58.366 E102.40247
G1 X90.842 Y58.74 E102.48499
G1 X90.842 Y76.058 E106.28658
G1 X90.938 Y77.507 E106.60536
G1 X91.219 Y78.921 E106.92183
G1 X91.674 Y80.257 E107.23164
G1 X92.338 Y81.604 E107.56131
G1 X99.762 Y94.471 E110.82226
G1 X99.86 Y94.72 E110.881
G1 X99.92 Y94.982 E110.94001
G1 X99.94 Y95.252 E110.99944
G1 X99.922 Y95.522 E111.05884
G1 X99.861 Y95.786 E111.11832
G1 X99.764 Y96.032 E111.17637
G1 X70.525 Y146.684 E124.0149
G1 X68.974 Y149.917 E124.80204
G1 X67.963 Y153.288 E125.5746
G1 X67.475 Y156.777 E126.34795
G1 X67.531 Y160.296 E127.12053
G1 X68.125 Y163.755 E127.89095
G1 X69.254 Y167.111 E128.66822
G1 X70.441 Y169.4 E129.23424
G1 F1201 X70.519 Y169.672 E129.2963
G1 X70.563 Y170.11 E129.39285
G1 F1200 X70.535 Y170.396 E129.45593
G1 X70.414 Y170.794 E129.54725
G1 X70.257 Y171.082 E129.61925
G1 X70.024 Y171.369 E129.7004
G1 X69.456 Y171.843 E129.8628
G1 X69.151 Y172.034 E129.9418
G1 X68.919 Y172.13 E129.99691
G1 X68.535 Y172.212 E130.08311
G1 X68.107 Y172.205 E130.17708
G1 X67.596 Y172.067 E130.29327
G1 X67.255 Y171.85 E130.38199
G1 X55.315 Y162.689 E133.68561
G1 X55.032 Y162.419 E133.77148
G1 X54.819 Y162.102 E133.85531
G1 X54.682 Y161.764 E133.93537
G1 X54.616 Y161.388 E134.01917
G1 F1201 X54.631 Y160.992 E134.10609
G1 X54.904 Y159.304 E134.48114
G1 F1200 X54.896 Y157.766 E134.81876
G1 X54.635 Y156.252 E135.15601
G1 X54.127 Y154.802 E135.49328
G1 X53.38 Y153.443 E135.8337
G1 X52.432 Y152.24 E136.16992
G1 X51.294 Y151.208 E136.50715
G1 X49.996 Y150.373 E136.84595
G1 X48.578 Y149.764 E137.18472
G1 X47.09 Y149.398 E137.5211
G1 X45.559 Y149.282 E137.85814
G1 X44.015 Y149.423 E138.19848
G1 X42.534 Y149.811 E138.53456
G1 X40.969 Y150.517 E138.91144
G1 X40.599 Y150.629 E138.9963
G1 X40.213 Y150.662 E139.08135
G1 X39.85 Y150.617 E139.16164
G1 F1201 X39.454 Y150.479 E139.25362
G1 X39.157 Y150.291 E139.33072
G1 F1200 X27.67 Y141.477 E142.50907
G1 X27.418 Y141.243 E142.58456
G1 X27.25 Y141.02 E142.64585
G1 X27.11 Y140.755 E142.71164
G1 X27.016 Y140.475 E142.77648
G1 F1188.1 X26.954 Y140.113 E142.85791
G1 F1133.9 X26.925 Y139.795 E142.93209
G1 F1055.7 X26.956 Y139.448 E143.01902
G1 X26.754 Y139.742 E143.10802
G1 F1133.9 X26.55 Y139.986 E143.18191
G1 F1188.1 X26.185 Y140.445 E143.31193
G1 F1200 X25.662 Y140.959 E143.4729
G1 X25.016 Y141.387 E143.64301
G1 X24.486 Y141.625 E143.77055
G1 X24.232 Y141.712 E143.82949
G1 F1199 X23.809 Y141.823 E143.92557
G1 F1150.2 X23.527 Y141.923 E143.99409
G1 F1077.8 X23.107 Y142.024 E144.09966
G1 X23.504 Y142.171 E144.20313
G1 F1150.2 X23.803 Y142.31 E144.27864
G1 F1199 X24.125 Y142.423 E144.35362
G1 F1200 X24.474 Y142.581 E144.43771
G1 X24.712 Y142.713 E144.49746
G1 X25.126 Y142.989 E144.60668
G1 X39.851 Y154.287 E148.6809
G1 X40.18 Y154.399 E148.75719
G1 X40.489 Y154.344 E148.82608
G1 X40.69 Y154.235 E148.87628
G1 X41.578 Y153.413 E149.1419
G1 X42.352 Y152.904 E149.34526
G1 X42.614 Y152.762 E149.41068
G1 X43.508 Y152.373 E149.6247
G1 X44.548 Y152.11 E149.86018
G1 X45.59 Y152.018 E150.08981
G1 X46.717 Y152.111 E150.33804
G1 X47.712 Y152.363 E150.56336
G1 X48.578 Y152.729 E150.76974
G1 X48.84 Y152.869 E150.83495
G1 X49.625 Y153.381 E151.04069
G1 X50.397 Y154.073 E151.26827
G1 X51.009 Y154.838 E151.48332
G1 X51.173 Y155.086 E151.54859
G1 X51.62 Y155.913 E151.75495
G1 X51.968 Y156.887 E151.982
G1 X52.162 Y157.944 E152.21791
G1 X52.179 Y159.026 E152.45545
G1 X52.035 Y159.997 E152.67093
G1 X51.953 Y160.313 E152.7426
G1 X51.664 Y161.162 E152.93947
G1 X51.11 Y162.222 E153.20202
G1 X51.054 Y162.576 E153.2807
G1 X51.116 Y162.813 E153.33447
G1 X51.28 Y163.055 E153.39865
G1 X69.455 Y177.004 E158.42796
G1 X69.945 Y177.436 E158.57135
G1 X70.352 Y177.937 E158.71305
G1 F1119.8 X70.703 Y178.352 E158.84091
G1 F1014.1 X70.869 Y178.574 E158.91292
G1 F1040.5 X70.889 Y178.075 E159.03936
G1 F1152 X70.924 Y177.766 E159.11046
G1 F1200 X70.951 Y177.167 E159.24209
G1 X71.12 Y176.422 E159.40978
G1 X71.326 Y175.914 E159.53012
G1 X71.46 Y175.648 E159.5955
G1 X71.769 Y175.144 E159.72527
G1 X72.26 Y174.587 E159.88827
G1 X72.802 Y174.149 E160.04124
G1 X73.354 Y173.834 E160.18076
G1 X73.626 Y173.713 E160.24611
G1 X74.033 Y173.569 E160.34088
G1 X74.324 Y173.492 E160.40695
G1 X74.905 Y173.391 E160.53641
G1 X75.491 Y173.392 E160.66504
G1 X75.8 Y173.417 E160.7331
G1 X76.226 Y173.491 E160.82801
G1 X76.517 Y173.568 E160.89409
G1 F1196 X76.925 Y173.708 E160.98909
G1 F1142.9 X77.223 Y173.786 E161.06009
G1 F1043.5 X77.636 Y173.938 E161.17119
G1 F1011.2 X77.898 Y174.143 E161.25785
G1 F1037.5 X78.31 Y174.494 E161.39527
G1 F1038.2 X78.542 Y174.724 E161.47816
G1 F1039.7 X78.819 Y175.06 E161.58849
G1 F1039 X79.005 Y175.32 E161.66954
G1 F1038.2 X79.221 Y175.698 E161.78001
G1 X79.358 Y175.981 E161.85978
G1 X79.507 Y176.391 E161.97046
G1 F1039 X79.597 Y176.703 E162.0528
G1 F1039.7 X79.676 Y177.134 E162.16381
G1 F1041.2 X79.71 Y177.448 E162.24372
G1 F1042 X79.714 Y177.876 E162.35192
G1 F1040.5 X79.694 Y178.207 E162.43588
G1 X79.625 Y178.635 E162.54564
G1 X79.548 Y178.956 E162.62921
G1 F1039.7 X79.411 Y179.356 E162.73633
G1 X79.287 Y179.649 E162.81694
G1 X79.078 Y180.03 E162.92704
G1 X78.902 Y180.303 E163.00934
G1 F1040.5 X78.631 Y180.644 E163.11961
G1 X78.405 Y180.889 E163.204
G1 F1039.7 X78.09 Y181.171 E163.31112
G1 X77.829 Y181.372 E163.39458
G1 X77.475 Y181.594 E163.50045
G1 X77.181 Y181.75 E163.58477
G1 X76.788 Y181.911 E163.69237
G1 F1039 X76.466 Y182.017 E163.77832
G1 X76.055 Y182.108 E163.88505
G1 F1039.7 X75.729 Y182.156 E163.96854
G1 F1038.2 X75.309 Y182.176 E164.07522
G1 F1037.5 X74.968 Y182.169 E164.16183
G1 F1036.7 X74.554 Y182.118 E164.26781
G1 F1037.5 X74.228 Y182.054 E164.35217
G1 F1039 X73.822 Y181.932 E164.45965
G1 F1039.7 X73.501 Y181.809 E164.54675
G1 F1039 X73.131 Y181.625 E164.65152
G1 F1038.2 X72.84 Y181.453 E164.73729
G1 X72.506 Y181.208 E164.84238
G1 X72.245 Y180.985 E164.92949
G1 F1037.5 X71.961 Y180.691 E165.03328
G1 F1036 X71.737 Y180.424 E165.12189
G1 F1036.7 X71.505 Y180.084 E165.22648
G1 F1038.2 X71.337 Y179.794 E165.31152
G1 F1039 X71.164 Y179.412 E165.41784
G1 F1030 X70.953 Y178.836 E165.57472
G1 F996.5 X70.869 Y178.574 E165.64744
G0 F6000 X69.91 Y175.546
G1 F862.3 X70.302 Y174.768 E165.91358
G1 F883.4 X70.498 Y174.549 E166.00122
G1 F938.7 X70.881 Y174.163 E166.15381
G1 F1012.7 X71.265 Y173.777 E166.29544
G1 F1058.8 X71.531 Y173.535 E166.38491
G1 F1044.2 X72.116 Y173.045 E166.57741
G1 F963.9 X72.68 Y172.616 E166.77107
G1 F881.3 X72.862 Y172.468 E166.84119
G1 F855.1 X73.145 Y172.353 E166.93529
G1 X73.552 Y172.21 E167.06818
G1 X73.916 Y172.114 E167.18415
G1 X72.609 Y170.486 E167.82729
G1 X72.459 Y170.283 E167.90504
G1 X72.318 Y170.057 E167.9871
G1 F868.5 X71.941 Y169.34 E168.2328
G1 F895 X71.774 Y169 E168.34429
G1 X71.901 Y169.354 E168.45499
G1 F868.5 X72.005 Y170.136 E168.69426
G1 F855.1 X71.988 Y170.402 E168.77637
G1 X71.953 Y170.652 E168.85413
G1 F883.4 X71.728 Y171.396 E169.0859
G1 F946.1 X71.364 Y171.827 E169.24297
G1 F1015.5 X70.986 Y172.215 E169.38348
G1 F1049.6 X70.247 Y172.86 E169.62966
G1 F1026.4 X69.971 Y173.083 E169.72073
G1 F966.4 X69.395 Y173.486 E169.91234
G1 F894.4 X68.682 Y173.64 E170.12718
G1 F862.3 X67.912 Y173.627 E170.36244
G1 F873.3 X67.126 Y173.394 E170.60974
G1 F891.1 X66.869 Y173.26 E170.69542
G1 F879.7 X67.79 Y173.922 E171.03507
G1 F862.3 X69.91 Y175.546 E171.85091
G0 F6000 X66.869 Y173.26
G1 F913.1 X66.418 Y172.941 E172.01027
G1 F929 X54.478 Y163.779 E176.27762
G1 F906.2 X53.95 Y163.328 E176.47946
G1 F950.5 X53.86 Y162.993 E176.5756
G1 F1117.1 X53.769 Y162.658 E176.65745
G1 F1240.3 X53.545 Y162.014 E176.80226
G1 F1260.9 X53.448 Y161.471 E176.91749
G1 F1154.8 X53.264 Y160.744 E177.08856
G1 X52.826 Y161.392 E177.26698
G1 F1277.7 X52.626 Y161.83 E177.36625
G1 F1292.6 X52.326 Y162.399 E177.49733
G1 X52.698 Y162.684 E177.59283
G1 F1257.6 X53.264 Y163.084 E177.738
G1 F1117.1 X53.607 Y163.206 E177.82384
G1 F950.5 X53.95 Y163.328 E177.92474
G0 F6000 X53.266 Y160.751
G1 F932 X53.378 Y160.214 E178.07977
G1 F941.2 X53.534 Y159.198 E178.36747
G1 F939.3 X53.54 Y158.916 E178.44657
G1 X53.527 Y157.886 E178.73544
G1 X53.487 Y157.614 E178.81253
G1 X53.304 Y156.596 E179.10259
G1 F938.7 X53.216 Y156.326 E179.18228
G1 F939.3 X52.873 Y155.362 E179.46922
G1 X52.743 Y155.114 E179.54774
G1 X52.235 Y154.201 E179.84074
G1 F939.9 X52.078 Y153.993 E179.91378
G1 X51.428 Y153.177 E180.20614
G1 X51.227 Y152.987 E180.28366
G1 F940.6 X50.459 Y152.297 E180.57281
G1 X49.577 Y151.723 E180.86753
