;FLAVOR:Marlin
;TIME:18556
;Filament used: 36.6826m
;Layer height: 0.4
;MINX:35.418
;MINY:65.914
;MINZ:0.4
;MAXX:207.79
;MAXY:168.965
;MAXZ:28.8
;Generated with Cura_SteamEngine 5.3.1
M82 ;absolute extrusion mode
; START G-CODE BEGIN

M104 S230.0 ﻿T0
M140 S60.0

G28 ; Home all axes
G92 E0 ; Reset Extruder
M420 S1 ; Load Mesh

M109 S230.0 ﻿T0
M190 S60.0

G92 E0 ; Reset Extruder

G1 X0.6 Y20 Z0.3 F5000.0 ; Move to start position
G1 X0.6 Y200.0 Z0.3 F1500.0 E15 ; Draw the first line
G1 X0.9 Y200.0 Z0.3 F5000.0 ; Move to side a little
G1 X0.9 Y20 Z0.3 F1500.0 E30 ; Draw the second line
G92 E0 ; Reset Extruder
G1 Z2.0 F3000 ; Move Z Axis up little to prevent scratching of Heat Bed
G1 X5 Y20 Z0.3 F5000.0 ; Move over to prevent blob squish

; START G-CODE END
G92 E0
G92 E0
G1 F2400 E-10
;LAYER_COUNT:73
;LAYER:0
M107
G0 F6000 X85.538 Y108.877 Z0.4
;TYPE:SUPPORT
G1 F2400 E0
G1 F1800 X92.107 Y108.878 E0.96134
G1 X91.569 Y109.645 E1.09844
G1 X91.01 Y110.941 E1.305
G1 X90.751 Y112.072 E1.4748
G1 X90.669 Y112.754 E1.57532
G1 X90.638 Y113.366 E1.665
G1 X90.638 Y118.683 E2.44312
G1 X89.764 Y118.828 E2.57277
G1 X88.454 Y119.317 E2.7774
G1 X87.264 Y120.026 E2.98012
G1 X86.159 Y121.016 E3.19724
G1 X85.529 Y121.914 E3.35777
G1 X85.529 Y116.365 E4.16984
G1 X85.425 Y115.472 E4.30141
G1 X85.249 Y114.591 E4.43288
G1 X86.761 Y114.271 E4.65906
G1 X86.905 Y114.177 E4.68422
G1 X87.012 Y113.967 E4.71872
G1 X87.012 Y113.796 E4.74374
G1 X85.376 Y110.164 E5.3267
G1 X85.427 Y109.934 E5.36117
G1 X85.538 Y108.877 E5.51671
G0 F6000 X86.163 Y109.81
G1 F1200 X86.465 Y110.166 E5.61919
G1 X87.103 Y110.768 E5.81175
G1 X87.621 Y111.37 E5.98608
G1 X87.892 Y111.972 E6.13101
G1 X87.972 Y112.574 E6.26432
G1 X87.919 Y113.176 E6.39698
G1 X87.745 Y113.778 E6.53453
G1 X87.726 Y113.814 E6.54347
G1 X87.726 Y114.089 E6.60384
G1 X87.624 Y114.396 E6.67485
G1 X87.418 Y114.692 E6.75402
G1 X86.989 Y114.964 E6.86552
G1 X86.914 Y114.98 E6.88236
G1 X86.274 Y115.584 E7.07553
G1 X86.176 Y115.698 E7.10853
G1 F2400 E-2.89147
G0 F6000 X84.464 Y116.41
G0 X84.473 Y124.116
G0 X86.039 Y140.718
G0 X85.529 Y141.9
G1 F2400 E7.10853
G1 F1800 X85.846 Y142.398 E7.19493
G1 X86.853 Y143.453 E7.40836
G1 X88.096 Y144.293 E7.62791
G1 X89.363 Y144.83 E7.8293
G1 X90.466 Y145.092 E7.9952
G1 X91.191 Y145.177 E8.10203
G1 X91.765 Y145.206 E8.18614
G1 X96.736 Y145.206 E8.91362
G1 X96.949 Y146.273 E9.07285
G1 X97.455 Y147.553 E9.27428
G1 X98.216 Y148.749 E9.48173
G1 X99.223 Y149.804 E9.69517
G1 X100.463 Y150.642 E9.91419
G1 X101.733 Y151.181 E10.11609
G1 X102.836 Y151.443 E10.282
G1 X103.561 Y151.528 E10.38883
G1 X104.135 Y151.557 E10.47294
G1 X120.254 Y151.557 E12.83187
G1 X120.254 Y156.421 E13.54369
G1 X88.218 Y156.421 E18.23198
G1 X88.052 Y156.081 E18.28735
G1 X87.471 Y155.178 E18.44449
G1 X86.69 Y154.306 E18.61581
G1 X85.852 Y153.604 E18.77579
G1 X85.44 Y153.34 E18.8474
G1 X85.528 Y152.168 E19.0194
G1 X85.529 Y141.9 E20.52206
G1 F2400 E10.52206
G0 F6000 X84.463 Y141.9
G0 X84.235 Y153.83
G0 X85.204 Y154.45
G0 X86.89 Y153.531
G1 F2400 E20.52206
G1 F1200 X87.423 Y152.908 E20.70204
G1 X87.745 Y152.306 E20.85191
G1 X87.919 Y151.704 E20.98947
G1 X87.972 Y151.102 E21.12213
G1 X87.892 Y150.5 E21.25544
G1 X87.621 Y149.898 E21.40036
G1 X87.103 Y149.296 E21.5747
G1 X86.465 Y148.694 E21.76725
G1 X86.248 Y148.438 E21.84092
G1 X86.249 Y144.509 E22.7034
G1 X86.613 Y144.16 E22.8141
G1 X87.756 Y144.931 E23.11675
G1 X89.103 Y145.508 E23.43843
G1 X90.369 Y145.805 E23.72388
G1 X90.686 Y145.842 E23.79394
G1 X90.448 Y146.286 E23.90453
G1 X90.274 Y146.888 E24.04209
G1 X90.221 Y147.49 E24.17475
G1 X90.301 Y148.092 E24.30806
G1 X90.572 Y148.694 E24.45298
G1 X91.09 Y149.296 E24.62732
G1 X91.728 Y149.898 E24.81987
G1 X92.239 Y150.5 E24.99321
G1 X92.561 Y151.102 E25.14308
G1 X92.735 Y151.704 E25.28063
G1 X92.788 Y152.306 E25.41329
G1 X92.708 Y152.908 E25.54661
G1 X92.437 Y153.51 E25.69153
G1 X91.919 Y154.112 E25.86586
G1 X91.281 Y154.714 E26.05842
G1 X90.77 Y155.316 E26.23176
G1 X90.564 Y155.701 E26.32761
G1 X95.066 Y155.701 E27.31588
G1 X95.117 Y155.316 E27.40113
G1 X95.388 Y154.714 E27.54605
G1 X95.906 Y154.112 E27.72039
G1 X96.544 Y153.51 E27.91294
G1 X97.055 Y152.908 E28.08628
G1 X97.377 Y152.306 E28.23615
G1 X97.551 Y151.704 E28.37371
G1 X97.604 Y151.102 E28.50637
G1 X97.524 Y150.5 E28.63968
G1 X97.253 Y149.898 E28.7846
G1 X96.735 Y149.296 E28.95894
G1 X96.097 Y148.694 E29.15149
G1 X95.586 Y148.092 E29.32483
G1 X95.264 Y147.49 E29.4747
G1 X95.09 Y146.888 E29.61225
G1 X95.037 Y146.286 E29.74491
G1 X95.085 Y145.926 E29.82464
G1 X96.146 Y145.926 E30.05755
G1 X96.257 Y146.483 E30.18222
G1 X96.808 Y147.879 E30.51167
G1 X97.648 Y149.195 E30.85439
G1 X98.755 Y150.357 E31.20669
G1 X100.122 Y151.281 E31.56889
G1 X101.473 Y151.859 E31.89146
G1 X102.4 Y152.076 E32.10046
G1 X102.42 Y152.306 E32.15114
G1 X102.34 Y152.908 E32.28445
G1 X102.069 Y153.51 E32.42937
G1 X101.551 Y154.112 E32.60371
G1 X100.913 Y154.714 E32.79626
G1 X100.402 Y155.316 E32.9696
G1 X100.196 Y155.701 E33.06545
G1 X104.698 Y155.701 E34.05372
G1 X104.749 Y155.316 E34.13897
G1 X105.02 Y154.714 E34.28389
G1 X105.538 Y154.112 E34.45823
G1 X106.176 Y153.51 E34.65078
G1 X106.687 Y152.908 E34.82412
G1 X107.025 Y152.277 E34.98126
G1 X112.056 Y152.277 E36.08565
G1 X111.972 Y152.908 E36.22538
G1 X111.701 Y153.51 E36.37031
G1 X111.183 Y154.112 E36.54464
G1 X110.545 Y154.714 E36.7372
G1 X110.034 Y155.316 E36.91054
G1 X109.828 Y155.701 E37.00639
G1 X114.33 Y155.701 E37.99465
G1 X114.381 Y155.316 E38.07991
G1 X114.652 Y154.714 E38.22483
G1 X115.17 Y154.112 E38.39917
G1 X115.808 Y153.51 E38.59172
G1 X116.319 Y152.908 E38.76506
G1 X116.641 Y152.306 E38.91493
G1 X116.649 Y152.277 E38.92153
G1 F2400 E28.92153
G0 F6000 X116.649 Y150.492
G0 X158.298 Y126.438
G0 X159.362 Y126.123
G1 F2400 E38.92153
G1 F1800 X159.263 Y125.216 E39.05505
G1 X159.087 Y124.366 E39.18208
G1 X160.638 Y124.071 E39.41313
G1 X160.802 Y123.999 E39.43935
G1 X160.907 Y123.883 E39.46224
G1 X160.964 Y123.665 E39.49522
G1 X160.931 Y123.518 E39.51727
G1 X159.201 Y119.803 E40.117
G1 X159.311 Y119.269 E40.19679
G1 X159.362 Y118.276 E40.3423
G1 X159.363 Y113.101 E41.09963
G1 X159.68 Y113.599 E41.18602
G1 X160.687 Y114.654 E41.39946
G1 X161.929 Y115.493 E41.6188
G1 X163.163 Y116.022 E41.81529
G1 X164.472 Y116.334 E42.01222
G1 X164.472 Y121.726 E42.80131
G1 X164.529 Y122.658 E42.93796
G1 X164.768 Y123.841 E43.11458
G1 X165.295 Y125.17 E43.32381
G1 X165.918 Y126.122 E43.49031
G1 X159.362 Y126.123 E44.44974
G1 F2400 E34.44974
G0 F6000 X163.17 Y125.402
G1 F2400 E44.44974
G1 F1200 X163.33 Y125.216 E44.5036
G1 X163.968 Y124.614 E44.69616
G1 X164.194 Y124.348 E44.77278
G1 X164.075 Y124.048 E44.84362
G1 X163.815 Y122.778 E45.12819
G1 X163.753 Y121.768 E45.35032
G1 X163.753 Y120.017 E45.7347
G1 X163.521 Y119.798 E45.80473
G1 X163.01 Y119.196 E45.97807
G1 X162.688 Y118.594 E46.12793
G1 X162.514 Y117.992 E46.26549
G1 X162.461 Y117.39 E46.39815
G1 X162.541 Y116.788 E46.53146
G1 X162.635 Y116.58 E46.58157
G1 F2400 E36.58157
G0 F6000 X163.337 Y114.938
G0 X159.985 Y94.081
G0 X159.364 Y93.113
G1 F2400 E46.58157
G1 F1800 X159.363 Y84.336 E47.86604
G1 X159.731 Y83.968 E47.9422
G1 X159.836 Y83.787 E47.97282
G1 X159.847 Y83.625 E47.99658
G1 X159.301 Y81.655 E48.29575
G1 X159.558 Y81.493 E48.34021
G1 X160.288 Y80.921 E48.47593
G1 X161.055 Y80.138 E48.63633
G1 X161.682 Y79.27 E48.79304
G1 X162.063 Y78.579 E48.90851
G1 X194.089 Y78.579 E53.59535
G1 X194.089 Y83.444 E54.30731
G1 X177.829 Y83.444 E56.68688
G1 X177.167 Y83.483 E56.78392
G1 X175.971 Y83.678 E56.96126
G1 X174.658 Y84.168 E57.16636
G1 X173.474 Y84.873 E57.36802
G1 X172.359 Y85.872 E57.58711
G1 X171.437 Y87.186 E57.82202
G1 X170.863 Y88.507 E58.0328
G1 X170.562 Y89.794 E58.22623
G1 X165.459 Y89.794 E58.97303
G1 X164.777 Y89.835 E59.07302
G1 X163.596 Y90.029 E59.24817
G1 X162.288 Y90.518 E59.45252
G1 X161.101 Y91.225 E59.65471
G1 X159.991 Y92.219 E59.87277
G1 X159.364 Y93.113 E60.03257
G1 F2400 E50.03257
G0 F6000 X158.298 Y93.113
G0 X158.298 Y85.593
G0 X160.083 Y85.593
G1 F2400 E60.03257
G1 F1200 X160.132 Y85.484 E60.0588
G1 X160.212 Y84.882 E60.19212
G1 X160.182 Y84.536 E60.26835
G1 X160.26 Y84.458 E60.29257
G1 X160.45 Y84.193 E60.36415
G1 X160.538 Y83.959 E60.41903
G1 X160.573 Y83.554 E60.50826
G1 X160.132 Y81.957 E60.87195
G1 X160.75 Y81.478 E61.04359
G1 X161.575 Y80.641 E61.30158
G1 X162.248 Y79.72 E61.55198
G1 X162.497 Y79.278 E61.66334
G1 X162.514 Y79.464 E61.70434
G1 X162.688 Y80.066 E61.8419
G1 X163.01 Y80.668 E61.99176
G1 X163.521 Y81.27 E62.1651
G1 X164.159 Y81.872 E62.35766
G1 X164.677 Y82.474 E62.532
G1 X164.948 Y83.076 E62.67692
G1 X165.028 Y83.678 E62.81023
G1 X164.975 Y84.28 E62.94289
G1 X164.801 Y84.882 E63.08045
G1 X164.479 Y85.484 E63.23031
G1 X163.968 Y86.086 E63.40365
G1 X163.33 Y86.688 E63.59621
G1 X162.812 Y87.29 E63.77054
G1 X162.541 Y87.892 E63.91547
G1 X162.461 Y88.494 E64.04878
G1 X162.514 Y89.096 E64.18144
G1 X162.662 Y89.609 E64.29864
G1 X163.41 Y89.329 E64.47397
G1 X164.689 Y89.12 E64.75845
G1 X165.434 Y89.075 E64.92229
G1 X167.336 Y89.074 E65.33981
G1 X167.504 Y88.494 E65.47237
G1 X167.826 Y87.892 E65.62223
G1 X168.337 Y87.29 E65.79557
G1 X168.975 Y86.688 E65.98813
G1 X169.493 Y86.086 E66.16246
G1 X169.764 Y85.484 E66.30739
G1 X169.844 Y84.882 E66.4407
G1 X169.791 Y84.28 E66.57336
G1 X169.617 Y83.678 E66.71092
G1 X169.295 Y83.076 E66.86078
G1 X168.784 Y82.474 E67.03412
G1 X168.146 Y81.872 E67.22668
G1 X167.628 Y81.27 E67.40101
G1 X167.357 Y80.668 E67.54593
G1 X167.277 Y80.066 E67.67925
G1 X167.33 Y79.464 E67.81191
G1 X167.378 Y79.299 E67.84963
G1 X172.131 Y79.299 E68.89299
G1 X172.146 Y79.464 E68.92936
G1 X172.32 Y80.066 E69.06692
G1 X172.642 Y80.668 E69.21678
G1 X173.153 Y81.27 E69.39012
G1 X173.791 Y81.872 E69.58268
G1 X174.309 Y82.474 E69.75702
G1 X174.58 Y83.076 E69.90194
G1 X174.625 Y83.412 E69.97635
G1 X175.782 Y82.98 E70.24746
G1 X177.026 Y82.774 E70.52426
G1 X177.788 Y82.725 E70.69188
G1 X178.629 Y82.725 E70.87649
G1 X178.416 Y82.474 E70.94876
G1 X177.778 Y81.872 E71.14131
G1 X177.26 Y81.27 E71.31565
G1 X176.989 Y80.668 E71.46057
G1 X176.909 Y80.066 E71.59388
G1 X176.962 Y79.464 E71.72654
G1 X177.01 Y79.299 E71.76426
G1 X181.763 Y79.299 E72.80763
G1 X181.778 Y79.464 E72.844
G1 X181.952 Y80.066 E72.98155
G1 X182.274 Y80.668 E73.13142
G1 X182.785 Y81.27 E73.30476
G1 X183.423 Y81.872 E73.49732
G1 X183.941 Y82.474 E73.67165
G1 X184.054 Y82.725 E73.73208
G1 X188.26 Y82.724 E74.65536
G1 X188.048 Y82.474 E74.72732
G1 X187.41 Y81.872 E74.91988
G1 X186.892 Y81.27 E75.09421
G1 X186.621 Y80.668 E75.23913
G1 X186.541 Y80.066 E75.37245
G1 X186.594 Y79.464 E75.50511
G1 X186.642 Y79.299 E75.54283
G1 X191.395 Y79.299 E76.58619
G1 X191.41 Y79.464 E76.62256
G1 X191.584 Y80.066 E76.76012
G1 X191.906 Y80.668 E76.90999
G1 X192.417 Y81.27 E77.08332
G1 X193.055 Y81.872 E77.27588
G1 X193.369 Y82.237 E77.38157
G1 F2400 E67.38157
G0 F6000 X193.369 Y84.509
G0 X195.142 Y84.497
G0 X195.142 Y77.526
G0 X161.373 Y77.521
G0 X133.168 Y81.049
G0 X132.103 Y81.049
;TYPE:SUPPORT-INTERFACE
G1 F2400 E77.38157
G1 F1200 X123.048 Y81.05 E79.3693
G1 X123.048 Y77.196 E80.21532
G1 X123.066 Y76.88 E80.2848
G1 X123.097 Y76.707 E80.32338
G1 X123.097 Y76.599 E80.34708
G1 X123.164 Y76.135 E80.45
G1 X123.281 Y75.772 E80.53372
G1 X123.496 Y75.348 E80.63808
G1 X123.591 Y75.247 E80.66851
G1 X123.663 Y75.124 E80.6998
G1 X124.058 Y74.774 E80.81565
G1 X124.551 Y74.602 E80.93027
G1 X132.103 Y74.601 E82.58806
G1 X132.103 Y81.049 E84.00351
G1 F2400 E74.00351
G0 F6000 X132.356 Y82.102
G0 X133.156 Y82.102
G0 X133.156 Y73.548
G0 X124.37 Y73.538
G0 X123.512 Y73.838
G0 X122.961 Y74.326
G0 X117.293 Y81.05
G0 X116.228 Y81.05
G1 F2400 E84.00351
G1 F1200 X97.648 Y81.05 E88.08213
G1 X97.648 Y77.196 E88.92815
G1 X97.666 Y76.88 E88.99763
G1 X97.697 Y76.707 E89.03621
G1 X97.697 Y76.599 E89.05992
G1 X97.764 Y76.135 E89.16283
G1 X97.881 Y75.772 E89.24655
G1 X98.096 Y75.348 E89.35091
G1 X98.191 Y75.247 E89.38135
G1 X98.263 Y75.124 E89.41263
G1 X98.658 Y74.774 E89.52848
G1 X99.151 Y74.602 E89.6431
G1 X114.593 Y74.601 E93.03288
G1 X114.98 Y74.669 E93.11914
G1 X115.229 Y74.784 E93.17934
G1 X115.622 Y75.133 E93.29472
G1 X115.693 Y75.254 E93.32552
G1 X115.791 Y75.359 E93.35705
G1 X115.996 Y75.775 E93.45885
G1 X116.112 Y76.141 E93.54313
G1 X116.179 Y76.601 E93.64518
G1 X116.179 Y76.714 E93.66998
G1 X116.209 Y76.878 E93.70658
G1 X116.228 Y77.196 E93.77651
G1 X116.228 Y81.05 E94.62253
G1 F2400 E84.62253
G0 F6000 X116.481 Y82.103
G0 X117.281 Y82.103
G0 X117.268 Y76.753
G0 X117.153 Y75.905
G0 X116.985 Y75.374
G0 X116.675 Y74.747
G0 X116.453 Y74.448
G0 X115.818 Y73.884
G0 X115.299 Y73.645
G0 X114.686 Y73.537
G0 X98.97 Y73.538
G0 X98.112 Y73.838
G0 X97.561 Y74.326
G0 X91.893 Y81.05
G0 X90.828 Y81.05
G1 F2400 E94.62253
G1 F1200 X81.449 Y81.05 E96.68138
G1 X81.138 Y81.489 E96.79948
G1 X81.138 Y75.794 E98.04963
G1 X81.242 Y75.647 E98.08916
G1 X81.242 Y75.531 E98.11462
G1 X81.39 Y75.234 E98.18746
G1 X82.004 Y74.602 E98.38089
G1 X89.193 Y74.601 E99.959
G1 X89.58 Y74.669 E100.04525
G1 X89.829 Y74.784 E100.10546
G1 X90.222 Y75.133 E100.22083
G1 X90.293 Y75.254 E100.25163
G1 X90.391 Y75.359 E100.28316
G1 X90.595 Y75.773 E100.38447
G1 X90.714 Y76.144 E100.47
G1 X90.778 Y76.601 E100.5713
G1 X90.778 Y76.709 E100.59501
G1 X90.81 Y76.886 E100.63449
G1 X90.828 Y77.196 E100.70266
G1 X90.828 Y81.05 E101.54868
G1 F2400 E91.54868
G0 F6000 X91.081 Y82.103
G0 X91.881 Y82.103
G0 X91.868 Y76.754
G0 X91.755 Y75.906
G0 X91.585 Y75.373
G0 X91.275 Y74.747
G0 X91.053 Y74.448
G0 X90.418 Y73.884
G0 X89.899 Y73.645
G0 X89.552 Y73.585
G0 X56.537 Y71.976
G0 X55.608 Y71.275
G1 F2400 E101.54868
G1 F1200 X55.229 Y71.561 E101.6529
G1 X54.963 Y71.858 E101.74042
G1 X54.812 Y72.148 E101.8122
G1 X54.761 Y72.449 E101.87921
G1 X54.761 Y162.551 E121.65812
G1 X54.812 Y162.852 E121.72514
G1 X54.963 Y163.142 E121.79691
G1 X55.232 Y163.443 E121.88553
G1 X55.606 Y163.725 E121.98835
G1 X55.293 Y163.725 E122.05706
G1 X54.464 Y163.697 E122.23914
G1 X53.519 Y163.606 E122.44755
G1 X52.969 Y163.528 E122.56949
G1 X52.669 Y163.478 E122.63625
G1 X52.432 Y163.421 E122.68976
G1 X51.67 Y163.275 E122.86008
G1 X51.406 Y163.203 E122.92015
G1 X51.162 Y163.149 E122.975
G1 X51.064 Y163.078 E123.00157
G1 X50.843 Y162.802 E123.07918
G1 X50.778 Y162.535 E123.13951
G1 X50.778 Y72.465 E142.91139
G1 X50.843 Y72.198 E142.97172
G1 X51.062 Y71.924 E143.04872
G1 X51.161 Y71.853 E143.07546
G1 X51.436 Y71.788 E143.13749
G1 X51.673 Y71.723 E143.19144
G1 X52.423 Y71.578 E143.35912
G1 X52.654 Y71.525 E143.41115
G1 X53.522 Y71.392 E143.60391
G1 X54.458 Y71.304 E143.81029
G1 X55.295 Y71.275 E143.99413
G1 X55.608 Y71.275 E144.06284
G1 F2400 E134.06284
G0 F6000 X56.211 Y72.154
G0 X80.077 Y102.846
G0 X81.569 Y104.338
G0 X89.509 Y104.332
G0 X154.45 Y152.448
G0 X154.972 Y153.513
G1 F2400 E144.06284
G1 F1200 X155.28 Y153.951 E144.18038
G1 X164.662 Y153.95 E146.23989
G1 X164.662 Y157.804 E147.08591
G1 X164.644 Y158.12 E147.15539
G1 X164.613 Y158.293 E147.19397
G1 X164.613 Y158.401 E147.21768
G1 X164.546 Y158.865 E147.32059
G1 X164.429 Y159.228 E147.40431
G1 X164.214 Y159.652 E147.50867
G1 X164.119 Y159.753 E147.53911
G1 X164.047 Y159.876 E147.57039
G1 X163.652 Y160.226 E147.68624
G1 X163.159 Y160.398 E147.80086
G1 X155.837 Y160.399 E149.40816
G1 X155.216 Y159.758 E149.60408
G1 X155.078 Y159.486 E149.67103
G1 X155.078 Y159.356 E149.69957
G1 X154.972 Y159.206 E149.73989
G1 X154.972 Y153.513 E150.9896
G1 F2400 E140.9896
G0 F6000 X155.149 Y152.111
G0 X153.914 Y152.716
G0 X153.909 Y159.544
G0 X154.338 Y160.381
G0 X155.388 Y161.46
G0 X163.34 Y161.462
G0 X164.198 Y161.162
G0 X164.749 Y160.674
G0 X170.417 Y153.95
G0 X171.482 Y153.95
G1 F2400 E150.9896
G1 F1200 X190.062 Y153.95 E155.06822
G1 X190.062 Y157.804 E155.91424
G1 X190.044 Y158.12 E155.98372
G1 X190.013 Y158.293 E156.0223
G1 X190.013 Y158.401 E156.04601
G1 X189.946 Y158.865 E156.14892
G1 X189.829 Y159.228 E156.23264
G1 X189.614 Y159.652 E156.337
G1 X189.519 Y159.753 E156.36744
G1 X189.447 Y159.876 E156.39873
G1 X189.052 Y160.226 E156.51458
G1 X188.559 Y160.398 E156.6292
G1 X173.117 Y160.399 E160.01898
G1 X172.73 Y160.331 E160.10523
