;FLAVOR:Marlin
;TIME:17466
;Filament used: 40.157m
;Layer height: 0.48
;MINX:84.397
;MINY:58.304
;MINZ:0.32
;MAXX:215.79
;MAXY:226.583
;MAXZ:29.12
;Generated with Cura_SteamEngine 5.3.1
M140 S60
M105
M190 S60
M104 S230
M105
M109 S230
M82 ;absolute extrusion mode
G28 ; home all axes
G92 X-5.0 Y-10.0 ; set home offsets
M92 E136.8 ; Set E Steps to 136.8
G1 X0 Y0 Z0.2 F3000 ; get ready to prime
G92 E0 ; reset extrusion distance
G92 E0
G92 E0
G1 F1500 E-6.5
;LAYER_COUNT:61
;LAYER:0
M107
G0 F6000 X90.546 Y64.854 Z0.32
;TYPE:SKIRT
G1 F1500 E0
G1 F1200 X91.138 Y64.149 E0.15432
G1 X91.789 Y63.498 E0.30865
G1 X92.495 Y62.907 E0.46299
G1 X93.249 Y62.378 E0.61739
G1 X94.046 Y61.917 E0.77173
G1 X94.88 Y61.527 E0.92607
G1 X95.744 Y61.211 E1.08028
G1 X96.633 Y60.971 E1.23464
G1 X97.539 Y60.809 E1.38892
G1 X98.786 Y60.716 E1.59854
G1 X99.435 Y60.706 E1.70735
G1 X200.348 Y60.704 E18.6235
G1 X201.201 Y60.715 E18.7665
G1 X202.12 Y60.768 E18.92081
G1 X203.031 Y60.901 E19.07514
G1 X203.927 Y61.112 E19.22945
G1 X204.802 Y61.4 E19.38387
G1 X205.648 Y61.763 E19.53819
G1 X206.459 Y62.198 E19.69246
G1 X207.23 Y62.702 E19.84686
G1 X207.954 Y63.27 E20.00112
G1 X208.626 Y63.9 E20.15553
G1 X209.24 Y64.585 E20.30974
G1 X210.012 Y65.653 E20.53064
G1 X210.74 Y66.811 E20.75993
G1 X211.101 Y67.414 E20.87774
G1 X211.539 Y68.224 E21.0321
G1 X211.905 Y69.069 E21.18647
G1 X212.197 Y69.942 E21.34078
G1 X212.411 Y70.837 E21.49504
G1 X212.566 Y71.934 E21.68076
G1 X212.668 Y73.11 E21.87863
G1 X212.721 Y73.819 E21.99781
G1 X212.978 Y76.335 E22.42177
G1 X213.127 Y77.461 E22.61216
G1 X213.254 Y78.516 E22.79029
G1 X213.324 Y79.434 E22.94462
G1 X213.283 Y80.775 E23.16952
G1 X213.022 Y83.551 E23.63692
G1 X212.855 Y86.115 E24.06763
G1 X212.764 Y88.615 E24.48699
G1 X212.743 Y91.167 E24.9148
G1 X212.793 Y93.672 E25.3348
G1 X212.917 Y96.226 E25.76343
G1 X213.108 Y98.724 E26.1834
G1 X213.199 Y99.564 E26.32503
G1 X213.216 Y99.824 E26.36871
G1 X213.341 Y101.077 E26.57979
G1 X213.392 Y101.997 E26.73425
G1 X213.343 Y103.155 E26.92854
G1 X213.227 Y104.339 E27.12797
G1 X213.156 Y104.964 E27.23341
G1 X212.946 Y107.478 E27.6563
G1 X212.808 Y109.968 E28.07434
G1 X212.73 Y113.792 E28.7155
G1 X212.729 Y146.357 E34.1744
G1 X212.77 Y149.18 E34.64768
G1 X212.805 Y150.347 E34.84339
G1 X212.81 Y150.74 E34.90927
G1 X212.8 Y152.102 E35.13759
G1 X212.753 Y153.021 E35.29185
G1 X212.627 Y153.933 E35.44618
G1 X212.498 Y154.538 E35.54988
G1 X212.237 Y155.607 E35.73434
G1 X212.114 Y156.079 E35.8161
G1 X211.539 Y158.569 E36.24449
G1 X211.034 Y161.08 E36.67384
G1 X210.614 Y163.518 E37.08854
G1 X210.255 Y166.024 E37.51292
G1 X209.964 Y168.571 E37.94265
G1 X209.751 Y171.051 E38.3599
G1 X209.606 Y173.59 E38.78621
G1 X209.532 Y176.136 E39.21318
G1 X209.53 Y178.648 E39.63427
G1 X209.6 Y181.193 E40.06105
G1 X209.739 Y183.676 E40.47793
G1 X209.953 Y186.216 E40.90523
G1 X210.243 Y188.794 E41.3401
G1 X210.306 Y189.712 E41.49435
G1 X210.298 Y190.464 E41.62042
G1 X210.256 Y191.362 E41.77111
G1 X208.965 Y212.718 E45.35758
G1 X208.877 Y213.835 E45.5454
G1 X208.763 Y214.749 E45.6998
G1 X208.512 Y215.864 E45.89139
G1 X208.34 Y216.473 E45.99747
G1 X208.051 Y217.347 E46.15178
G1 X207.688 Y218.193 E46.3061
G1 X207.253 Y219.005 E46.46052
G1 X206.749 Y219.775 E46.61479
G1 X206.18 Y220.499 E46.76915
G1 X205.55 Y221.17 E46.92344
G1 X204.865 Y221.785 E47.07775
G1 X204.128 Y222.338 E47.23221
G1 X203.347 Y222.824 E47.38641
G1 X202.526 Y223.241 E47.54077
G1 X201.672 Y223.586 E47.69516
G1 X200.792 Y223.855 E47.84942
G1 X199.891 Y224.046 E48.00381
G1 X198.978 Y224.159 E48.15802
G1 X197.696 Y224.183 E48.37297
G1 X196.811 Y224.146 E48.52145
G1 X194.902 Y224.023 E48.84212
G1 X193.987 Y223.923 E48.99642
G1 X193.084 Y223.743 E49.15076
G1 X192.2 Y223.486 E49.30509
G1 X191.61 Y223.267 E49.41058
G1 X190.594 Y222.854 E49.59443
G1 X188.166 Y221.91 E50.03112
G1 X185.764 Y221.052 E50.45868
G1 X183.394 Y220.281 E50.87646
G1 X180.94 Y219.558 E51.30531
G1 X178.493 Y218.913 E51.72952
G1 X176.057 Y218.344 E52.14886
G1 X173.543 Y217.831 E52.57897
G1 X171.069 Y217.397 E53.00002
G1 X168.576 Y217.034 E53.42233
G1 X166.099 Y216.744 E53.84039
G1 X162.212 Y216.427 E54.49413
G1 X133.244 Y214.677 E59.35892
G1 X130.611 Y214.555 E59.80077
G1 X128.105 Y214.511 E60.22092
G1 X125.59 Y214.536 E60.64253
G1 X123.056 Y214.634 E61.06762
G1 X120.52 Y214.805 E61.4937
G1 X118.025 Y215.042 E61.91382
G1 X115.508 Y215.355 E62.339
G1 X113.001 Y215.739 E62.76415
G1 X110.498 Y216.194 E63.19061
G1 X108.096 Y216.701 E63.60213
G1 X105.58 Y217.308 E64.03599
G1 X103.684 Y217.824 E64.36538
G1 X103.149 Y217.962 E64.458
G1 X102.248 Y218.151 E64.61232
G1 X101.334 Y218.262 E64.76666
G1 X100.239 Y218.289 E64.95027
G1 X99.588 Y218.266 E65.05947
G1 X97.921 Y218.166 E65.33941
G1 X97.212 Y218.114 E65.45858
G1 X96.297 Y218.006 E65.61303
G1 X95.396 Y217.82 E65.76725
G1 X94.514 Y217.557 E65.92153
G1 X93.658 Y217.218 E66.07587
G1 X92.834 Y216.805 E66.23038
G1 X92.05 Y216.323 E66.38465
G1 X91.31 Y215.775 E66.53901
G1 X90.621 Y215.165 E66.69327
G1 X89.988 Y214.497 E66.84753
G1 X89.414 Y213.776 E67.00202
G1 X88.906 Y213.009 E67.15624
G1 X88.465 Y212.2 E67.31069
G1 X88.097 Y211.357 E67.46488
G1 X87.803 Y210.484 E67.6193
G1 X87.577 Y209.541 E67.78185
G1 X87.5 Y209.14 E67.8503
G1 X87.366 Y208.229 E68.00465
G1 X87.319 Y207.573 E68.1149
G1 X87.298 Y207.058 E68.2013
G1 X87.3 Y206.142 E68.35485
G1 X87.335 Y205.396 E68.48004
G1 X88.64 Y183.818 E72.1038
G1 X88.692 Y183.121 E72.22096
G1 X88.83 Y181.742 E72.45328
G1 X89.059 Y179.177 E72.88496
G1 X89.213 Y176.637 E73.31153
G1 X89.295 Y174.092 E73.73837
G1 X89.304 Y171.582 E74.15913
G1 X89.242 Y169.035 E74.58621
G1 X89.11 Y166.529 E75.00688
G1 X88.906 Y164.016 E75.42952
G1 X88.629 Y161.49 E75.85549
G1 X88.282 Y158.982 E76.27992
G1 X87.865 Y156.489 E76.70363
G1 X87.402 Y154.09 E77.11319
G1 X87.267 Y153.18 E77.26741
G1 X87.212 Y152.286 E77.41755
G1 X87.191 Y150.899 E77.65008
G1 X87.222 Y148.701 E78.01857
G1 X87.271 Y146.414 E78.40203
G1 X87.272 Y113.978 E83.83932
G1 X87.302 Y112.103 E84.15366
G1 X87.311 Y109.494 E84.59102
G1 X87.252 Y106.932 E85.0206
G1 X87.131 Y104.201 E85.47885
G1 X86.999 Y102.193 E85.81618
G1 X86.978 Y101.272 E85.97061
G1 X87.009 Y100.662 E86.073
G1 X87.067 Y99.943 E86.19391
G1 X87.211 Y98.396 E86.45436
G1 X87.374 Y95.865 E86.87951
G1 X87.466 Y93.345 E87.30223
G1 X87.486 Y90.806 E87.72785
G1 X87.434 Y88.287 E88.15021
G1 X87.31 Y85.723 E88.58051
G1 X87.12 Y83.272 E88.99261
G1 X86.995 Y82.143 E89.18302
G1 X86.979 Y81.901 E89.22368
G1 X86.854 Y80.673 E89.43059
G1 X86.801 Y79.754 E89.5849
G1 X86.863 Y78.452 E89.80341
G1 X87.104 Y76.245 E90.17557
G1 X87.318 Y73.664 E90.60971
G1 X87.352 Y73.079 E90.70794
G1 X87.424 Y72.087 E90.87466
G1 X87.53 Y71.172 E91.02907
G1 X87.716 Y70.27 E91.18346
G1 X87.979 Y69.388 E91.33774
G1 X88.317 Y68.532 E91.49201
G1 X88.826 Y67.537 E91.67936
G1 X89.128 Y67.024 E91.77915
G1 X89.578 Y66.296 E91.92262
G1 X90.017 Y65.607 E92.05957
G1 X90.546 Y64.854 E92.21383
G0 F6000 X89.627 Y64.082
G1 F1200 X90.289 Y63.3 E92.38558
G1 X90.94 Y62.649 E92.53991
G1 X91.725 Y61.987 E92.71205
G1 X92.648 Y61.339 E92.9011
G1 X93.445 Y60.878 E93.05544
G1 X94.468 Y60.4 E93.24472
G1 X95.431 Y60.052 E93.41637
G1 X96.32 Y59.812 E93.57073
G1 X97.392 Y59.616 E93.75341
G1 X98.697 Y59.519 E93.97277
G1 X99.435 Y59.506 E94.0965
G1 X200.363 Y59.504 E111.01517
G1 X201.27 Y59.517 E111.16723
G1 X202.189 Y59.57 E111.32153
G1 X203.306 Y59.733 E111.51076
G1 X204.302 Y59.972 E111.68246
G1 X205.275 Y60.297 E111.85443
G1 X206.121 Y60.66 E112.00874
G1 X207.116 Y61.194 E112.19804
G1 X207.971 Y61.758 E112.36974
G1 X208.695 Y62.326 E112.524
G1 X209.52 Y63.099 E112.71351
G1 X210.176 Y63.831 E112.87828
G1 X210.985 Y64.95 E113.10975
G1 X211.77 Y66.195 E113.35647
G1 X212.157 Y66.843 E113.48299
G1 X212.595 Y67.653 E113.63736
G1 X213.043 Y68.688 E113.82641
G1 X213.335 Y69.561 E113.98072
G1 X213.578 Y70.558 E114.15274
G1 X213.762 Y71.83 E114.36819
G1 X213.865 Y73.021 E114.56858
G1 X213.917 Y73.716 E114.68541
G1 X214.168 Y76.178 E115.10026
G1 X214.318 Y77.318 E115.293
G1 X214.451 Y78.425 E115.47991
G1 X214.525 Y79.399 E115.64365
G1 X214.478 Y80.887 E115.89321
G1 X214.217 Y83.663 E116.3606
G1 X214.054 Y86.159 E116.7799
G1 X213.964 Y88.625 E117.19356
G1 X213.943 Y91.143 E117.61567
G1 X213.992 Y93.614 E118.02996
G1 X214.114 Y96.135 E118.45306
G1 X214.305 Y98.629 E118.87235
G1 X214.392 Y99.435 E119.00825
G1 X214.41 Y99.705 E119.05361
G1 X214.539 Y101.011 E119.2736
G1 X214.591 Y102.048 E119.44765
G1 X214.542 Y103.206 E119.64194
G1 X214.419 Y104.474 E119.8555
G1 X214.352 Y105.064 E119.95504
G1 X214.142 Y107.578 E120.37793
G1 X214.008 Y109.992 E120.78321
G1 X213.93 Y113.816 E121.42437
G1 X213.929 Y146.357 E126.87925
G1 X213.97 Y149.163 E127.34967
G1 X214.005 Y150.332 E127.54572
G1 X214.01 Y150.749 E127.61563
G1 X214 Y152.111 E127.84395
G1 X213.942 Y153.185 E128.02425
G1 X213.801 Y154.183 E128.1932
G1 X213.664 Y154.823 E128.30292
G1 X213.398 Y155.91 E128.49051
G1 X213.275 Y156.382 E128.57227
G1 X212.708 Y158.839 E128.99497
G1 X212.217 Y161.284 E129.41301
G1 X211.797 Y163.722 E129.82771
G1 X211.443 Y166.194 E130.24632
G1 X211.16 Y168.674 E130.66475
G1 X210.947 Y171.154 E131.082
G1 X210.804 Y173.658 E131.50244
G1 X210.732 Y176.137 E131.91817
G1 X210.73 Y178.615 E132.33356
G1 X210.8 Y181.16 E132.76034
G1 X210.935 Y183.575 E133.1658
G1 X211.149 Y186.115 E133.59309
G1 X211.44 Y188.712 E134.03116
G1 X211.506 Y189.725 E134.20133
G1 X211.497 Y190.52 E134.3346
G1 X211.454 Y191.434 E134.48798
G1 X210.161 Y212.812 E138.07815
G1 X210.068 Y213.984 E138.27523
G1 X209.934 Y215.013 E138.44918
G1 X209.683 Y216.128 E138.64077
G1 X209.495 Y216.799 E138.75758
G1 X209.154 Y217.82 E138.93802
G1 X208.746 Y218.76 E139.1098
G1 X208.311 Y219.572 E139.26422
G1 X207.753 Y220.432 E139.43607
G1 X207.123 Y221.241 E139.60795
G1 X206.352 Y222.063 E139.79687
G1 X205.667 Y222.678 E139.95119
G1 X204.848 Y223.298 E140.12338
G1 X203.981 Y223.843 E140.29504
G1 X202.975 Y224.354 E140.48419
G1 X202.023 Y224.734 E140.65602
G1 X201.143 Y225.003 E140.81027
G1 X200.14 Y225.22 E140.9823
G1 X199.064 Y225.358 E141.16414
G1 X197.718 Y225.383 E141.38981
G1 X196.734 Y225.344 E141.55489
G1 X194.825 Y225.221 E141.87556
G1 X193.752 Y225.1 E142.05657
G1 X192.849 Y224.92 E142.21092
G1 X191.782 Y224.611 E142.39713
G1 X191.158 Y224.379 E142.50873
G1 X190.142 Y223.965 E142.69264
G1 X187.762 Y223.04 E143.12068
G1 X185.368 Y222.185 E143.54681
G1 X183.042 Y221.428 E143.95685
G1 X180.611 Y220.712 E144.38167
G1 X178.22 Y220.082 E144.79615
G1 X175.793 Y219.515 E145.21395
G1 X173.31 Y219.009 E145.63873
G1 X170.862 Y218.579 E146.05538
G1 X168.436 Y218.226 E146.46633
G1 X165.975 Y217.938 E146.88169
G1 X162.134 Y217.625 E147.52769
G1 X133.188 Y215.876 E152.38879
G1 X130.568 Y215.755 E152.82845
G1 X128.096 Y215.711 E153.2429
G1 X125.613 Y215.736 E153.65915
G1 X123.115 Y215.833 E154.07821
G1 X120.633 Y216 E154.49521
G1 X118.15 Y216.236 E154.91331
G1 X115.663 Y216.545 E155.33342
G1 X113.216 Y216.92 E155.7484
G1 X110.713 Y217.375 E156.17486
G1 X108.377 Y217.868 E156.57507
G1 X105.869 Y218.473 E157.00755
G1 X103.984 Y218.986 E157.33502
G1 X103.449 Y219.124 E157.42764
G1 X102.393 Y219.342 E157.60839
G1 X101.364 Y219.462 E157.78205
G1 X100.269 Y219.489 E157.96567
G1 X99.516 Y219.464 E158.09196
G1 X97.833 Y219.363 E158.37459
G1 X97.071 Y219.306 E158.50268
G1 X96.156 Y219.198 E158.65713
G1 X95.053 Y218.97 E158.84594
G1 X94.072 Y218.673 E159.01776
G1 X93.216 Y218.334 E159.17209
G1 X92.296 Y217.878 E159.34422
G1 X91.422 Y217.345 E159.51582
G1 X90.596 Y216.739 E159.68755
G1 X89.75 Y215.99 E159.87696
G1 X89.049 Y215.244 E160.04856
G1 X88.414 Y214.439 E160.22043
G1 X87.852 Y213.583 E160.39209
G1 X87.411 Y212.774 E160.54654
G1 X86.997 Y211.837 E160.71826
G1 X86.636 Y210.764 E160.90804
G1 X86.41 Y209.821 E161.07059
G1 X86.313 Y209.315 E161.15695
G1 X86.169 Y208.315 E161.32631
G1 X86.12 Y207.622 E161.44277
G1 X86.098 Y207.055 E161.53789
G1 X86.101 Y206.086 E161.70033
G1 X86.137 Y205.324 E161.8282
G1 X87.443 Y183.729 E165.45481
G1 X87.498 Y183.002 E165.57703
G1 X87.636 Y181.623 E165.80934
G1 X87.861 Y179.103 E166.23345
G1 X88.015 Y176.564 E166.65985
G1 X88.095 Y174.084 E167.07579
G1 X88.104 Y171.611 E167.49035
G1 X88.042 Y169.064 E167.91743
G1 X87.914 Y166.626 E168.32668
G1 X87.713 Y164.147 E168.7436
G1 X87.44 Y161.654 E169.164
G1 X87.098 Y159.18 E169.58267
G1 X86.681 Y156.687 E170.00638
G1 X86.215 Y154.266 E170.41966
G1 X86.069 Y153.254 E170.59106
G1 X86.012 Y152.304 E170.75059
G1 X85.991 Y150.882 E170.98899
G1 X86.022 Y148.675 E171.35899
G1 X86.071 Y146.388 E171.74245
G1 X86.072 Y113.959 E177.17856
G1 X86.102 Y112.084 E177.49291
G1 X86.111 Y109.522 E177.92238
G1 X86.052 Y106.96 E178.35197
G1 X85.932 Y104.254 E178.80602
G1 X85.799 Y102.22 E179.14771
G1 X85.778 Y101.299 E179.30214
G1 X85.813 Y100.566 E179.42515
G1 X85.872 Y99.832 E179.54859
G1 X86.013 Y98.313 E179.80432
G1 X86.176 Y95.788 E180.22847
G1 X86.266 Y93.326 E180.64145
G1 X86.286 Y90.831 E181.0597
G1 X86.235 Y88.345 E181.47652
G1 X86.111 Y85.781 E181.90683
G1 X85.927 Y83.404 E182.30648
G1 X85.802 Y82.275 E182.49689
G1 X85.785 Y82.023 E182.53923
G1 X85.66 Y80.795 E182.74615
G1 X85.599 Y79.757 E182.92045
G1 X85.664 Y78.395 E183.14902
G1 X85.911 Y76.115 E183.53346
G1 X86.122 Y73.565 E183.96238
G1 X86.155 Y72.992 E184.05859
G1 X86.227 Y72 E184.22532
G1 X86.338 Y71.034 E184.38831
G1 X86.566 Y69.927 E184.57778
G1 X86.829 Y69.045 E184.73206
G1 X87.221 Y68.039 E184.91305
G1 X87.792 Y66.928 E185.12244
G1 X88.107 Y66.393 E185.22652
G1 X88.566 Y65.651 E185.37277
G1 X89.035 Y64.917 E185.51879
G1 X89.627 Y64.082 E185.69037
G0 F6000 X88.711 Y63.307
G1 F1200 X89.44 Y62.451 E185.87884
G1 X90.091 Y61.8 E186.03318
G1 X91.035 Y61.005 E186.24006
G1 X92.047 Y60.3 E186.44681
G1 X92.844 Y59.839 E186.60115
G1 X94.06 Y59.271 E186.82613
G1 X95.118 Y58.893 E187.01446
G1 X96.007 Y58.653 E187.16882
G1 X97.244 Y58.423 E187.37974
G1 X98.608 Y58.322 E187.60901
G1 X99.435 Y58.306 E187.74767
G1 X200.38 Y58.304 E204.66919
G1 X201.287 Y58.317 E204.82124
G1 X202.258 Y58.372 E204.98428
G1 X203.586 Y58.566 E205.20925
G1 X204.582 Y58.805 E205.38095
G1 X205.748 Y59.194 E205.587
G1 X206.594 Y59.557 E205.74132
G1 X207.777 Y60.192 E205.96639
G1 X208.632 Y60.756 E206.13809
G1 X209.436 Y61.382 E206.3089
G1 X210.414 Y62.298 E206.53352
G1 X211.108 Y63.072 E206.70779
G1 X212 Y64.31 E206.96357
G1 X212.8 Y65.58 E207.21518
G1 X213.213 Y66.272 E207.35027
G1 X213.651 Y67.082 E207.50463
G1 X214.181 Y68.307 E207.72837
G1 X214.501 Y69.277 E207.8996
G1 X214.766 Y70.386 E208.09073
G1 X214.958 Y71.727 E208.31782
G1 X215.062 Y72.931 E208.5204
G1 X215.113 Y73.616 E208.63554
G1 X215.358 Y76.021 E209.04078
G1 X215.509 Y77.175 E209.23588
G1 X215.648 Y78.334 E209.43155
G1 X215.726 Y79.365 E209.60488
G1 X215.673 Y80.999 E209.87893
G1 X215.412 Y83.775 E210.34632
G1 X215.253 Y86.203 E210.7542
G1 X215.164 Y88.635 E211.16216
G1 X215.143 Y91.119 E211.57857
G1 X215.191 Y93.556 E211.98716
G1 X215.313 Y96.077 E212.41026
G1 X215.498 Y98.5 E212.81761
G1 X215.585 Y99.306 E212.9535
G1 X215.604 Y99.587 E213.00071
G1 X215.733 Y100.893 E213.22071
G1 X215.79 Y102.099 E213.4231
G1 X215.741 Y103.257 E213.61739
G1 X215.611 Y104.609 E213.84507
G1 X215.548 Y105.164 E213.9387
G1 X215.338 Y107.678 E214.36159
G1 X215.208 Y110.016 E214.75412
G1 X215.13 Y113.84 E215.39527
G1 X215.129 Y146.357 E220.84613
G1 X215.17 Y149.145 E221.31354
G1 X215.205 Y150.318 E221.51026
G1 X215.21 Y150.758 E221.58402
G1 X215.2 Y152.12 E221.81234
G1 X215.14 Y153.25 E222.00203
G1 X214.989 Y154.351 E222.18832
G1 X214.83 Y155.108 E222.31799
G1 X214.436 Y156.685 E222.59047
G1 X213.885 Y159.075 E223.00161
G1 X213.394 Y161.52 E223.41965
G1 X212.98 Y163.926 E223.8289
G1 X212.631 Y166.364 E224.24175
G1 X212.356 Y168.777 E224.64887
G1 X212.143 Y171.257 E225.06612
G1 X212.002 Y173.726 E225.48068
G1 X211.932 Y176.138 E225.88517
G1 X211.93 Y178.582 E226.29486
G1 X212 Y181.127 E226.72165
G1 X212.131 Y183.474 E227.11569
G1 X212.342 Y185.981 E227.53742
G1 X212.633 Y188.578 E227.97549
G1 X212.706 Y189.739 E228.17049
G1 X212.696 Y190.576 E228.31081
G1 X212.652 Y191.506 E228.46688
