;FLAVOR:Marlin
;TIME:8251
;Filament used: 28.8285m
;Layer height: 0.6
;MINX:58.742
;MINY:57.46
;MINZ:0.4
;MAXX:176.258
;MAXY:194.891
;MAXZ:33.4
;Generated with Cura_SteamEngine 5.3.1
M82 ;absolute extrusion mode
; START G-CODE BEGIN

M104 S230.0 ﻿T0
M140 S60.0

G28 ; Home all axes
G92 E0 ; Reset Extruder
M420 S1 ; Load Mesh

M109 S230.0 ﻿T0
M190 S60.0

G92 E0 ; Reset Extruder

G1 X0.6 Y20 Z0.3 F5000.0 ; Move to start position
G1 X0.6 Y200.0 Z0.3 F1500.0 E15 ; Draw the first line
G1 X0.9 Y200.0 Z0.3 F5000.0 ; Move to side a little
G1 X0.9 Y20 Z0.3 F1500.0 E30 ; Draw the second line
G92 E0 ; Reset Extruder
G1 Z2.0 F3000 ; Move Z Axis up little to prevent scratching of Heat Bed
G1 X5 Y20 Z0.3 F5000.0 ; Move over to prevent blob squish

; START G-CODE END
G92 E0
G92 E0
G1 F2400 E-10
;LAYER_COUNT:56
;LAYER:0
M107
;MESH:bot body v2.STL
G0 F6000 X60.283 Y58.778 Z0.4
;TYPE:WALL-INNER
G1 F2400 E0
G1 F1092.6 X60.121 Y58.778 E0.03906
G1 X60.038 Y58.92 E0.07871
G1 X60.12 Y59.062 E0.11825
G1 X60.283 Y59.062 E0.15755
G1 X60.366 Y58.92 E0.19721
G1 F2400 E-9.80279
G0 F6000 X60.689 Y79.682
G0 X64.886 Y79.692
G0 X67.099 Y89.853
G1 F2400 E0.19721
G1 F1200 X66.745 Y89.676 E0.28409
G1 X66.512 Y89.521 E0.34552
G1 X66.025 Y89.116 E0.48456
G1 X65.764 Y88.848 E0.56668
G1 X65.361 Y88.331 E0.71058
G1 X65.214 Y88.093 E0.77198
G1 X64.912 Y87.442 E0.92952
G1 X64.783 Y87.041 E1.02199
G1 X64.681 Y86.634 E1.11409
G1 X64.643 Y86.317 E1.18418
G1 X64.616 Y85.803 E1.29716
G1 X64.636 Y85.446 E1.37565
G1 X64.68 Y85.087 E1.45505
G1 X64.75 Y84.708 E1.53965
G1 X64.866 Y84.347 E1.62289
G1 X65.132 Y83.77 E1.76236
G1 X65.497 Y83.164 E1.91766
G1 X65.943 Y82.668 E2.06408
G1 X66.25 Y82.382 E2.15619
G1 X67.073 Y81.854 E2.37083
G1 X61.342 Y81.854 E3.62888
G1 X61.342 Y89.854 E5.38502
G1 X67.099 Y89.853 E6.64878
G1 F2400 E-3.35122
G0 F6000 X98.812 Y91.054
G1 F2400 E6.64878
G1 F1200 X98.812 Y87.717 E7.38131
G1 F1207 X98.819 Y87.251 E7.48301
G1 F1259.8 X98.863 Y85.906 E7.76439
G1 F1298.5 X98.853 Y85.339 E7.87944
G1 F1242.5 X98.812 Y84.496 E8.05838
G1 F1200 X98.812 Y80.654 E8.90176
G1 F1197 X96.091 Y80.658 E9.50056
G1 F1139.2 X95.858 Y80.715 E9.55602
G1 F989 X95.314 Y80.85 E9.70531
G1 F917.2 X94.567 Y80.829 E9.91994
G1 F914.9 X93.643 Y80.852 E10.18607
G1 F995.9 X93.041 Y80.702 E10.35018
G1 F1154.8 X92.574 Y80.655 E10.45725
G1 F1200 X84.14 Y80.654 E12.30865
G1 F1106 X83.36 Y80.756 E12.49601
G1 F949.2 X82.948 Y80.869 E12.61456
G1 F902.8 X82.15 Y80.835 E12.84761
G1 F924.3 X81.631 Y80.832 E12.99553
G1 F918.4 X81.098 Y80.844 E13.14845
G1 F941.8 X80.884 Y80.793 E13.20999
G1 F1075.4 X80.268 Y80.655 E13.36461
G1 F1200 X70.734 Y80.654 E15.45749
G1 F1143.8 X70.475 Y80.713 E15.51866
G1 F990.4 X69.921 Y80.85 E15.67046
G1 F916.6 X69.166 Y80.829 E15.88752
G1 F914.3 X68.216 Y80.854 E16.16132
G1 F947.4 X67.901 Y80.775 E16.25162
G1 F1058.8 X67.585 Y80.695 E16.33272
G1 F1161.3 X67.144 Y80.654 E16.43318
G1 F1200 X61.517 Y80.654 E17.6684
G1 X61.011 Y80.583 E17.78057
G1 X60.435 Y80.294 E17.92203
G1 X60.141 Y79.95 E18.02137
G1 X60.141 Y91.758 E20.61342
G1 X60.437 Y91.414 E20.71304
G1 X61.012 Y91.125 E20.85431
G1 X61.517 Y91.054 E20.96626
G1 X67.41 Y91.054 E22.25987
G1 F1169.8 X67.833 Y91.022 E22.3554
G1 F1074.6 X68.164 Y90.945 E22.4387
G1 F962.6 X68.495 Y90.867 E22.53177
G1 F921.3 X69.09 Y90.879 E22.70192
G1 F919.5 X69.856 Y90.863 E22.92141
G1 F967.7 X70.246 Y90.956 E23.03054
G1 F1110.3 X70.662 Y91.054 E23.13194
G1 F1200 X79.559 Y91.054 E25.08499
G1 F1120.6 X80.218 Y90.969 E25.24118
G1 F961.9 X80.69 Y90.841 E25.3751
G1 F907.9 X81.605 Y90.88 E25.64081
G1 F919.5 X82.555 Y90.864 E25.913
G1 F960 X82.899 Y90.946 E26.01003
G1 F1085.2 X83.269 Y91.035 E26.10241
G1 F1181.3 X83.924 Y91.053 E26.24853
G1 F1200 X92.673 Y91.054 E28.16908
G1 F1114.6 X93.353 Y90.962 E28.33126
G1 F969.7 X93.769 Y90.861 E28.44755
G1 F917.2 X94.385 Y90.878 E28.62453
G1 F916 X95.418 Y90.859 E28.92164
G1 F964.5 X95.841 Y90.956 E29.04017
G1 F1110.3 X96.264 Y91.054 E29.14319
G1 F1200 X98.812 Y91.054 E29.70252
G0 F6000 X97.585 Y89.619
G1 F862.3 X97.48 Y89.799 E29.76618
G1 X97.273 Y89.799 E29.82941
G1 X97.169 Y89.619 E29.89292
G1 X97.274 Y89.439 E29.95658
G1 X97.48 Y89.439 E30.01951
G0 F6000 X95.27 Y89.289
G1 F921.9 X94.385 Y89.324 E30.27259
G1 F917.2 X93.944 Y89.293 E30.39956
G1 F969.7 X93.561 Y89.102 E30.51582
G1 F1114.6 X93.182 Y88.871 E30.62072
G1 F1200 X92.947 Y88.755 E30.67825
G1 X92.636 Y88.56 E30.75883
G1 X92.345 Y88.333 E30.83985
G1 X92.077 Y88.075 E30.92151
G1 X91.86 Y87.818 E30.99535
G1 X91.593 Y87.393 E31.10552
G1 X91.338 Y86.825 E31.2422
G1 X91.263 Y86.49 E31.31756
G1 X91.209 Y85.816 E31.46599
G1 X91.231 Y85.549 E31.5248
G1 X91.312 Y85.03 E31.6401
G1 X91.49 Y84.545 E31.75351
G1 X91.681 Y84.173 E31.84531
G1 X91.888 Y83.864 E31.92695
G1 X92.157 Y83.55 E32.01772
G1 X92.467 Y83.261 E32.11075
G1 X93.015 Y82.913 E32.25325
G1 F1154.8 X93.43 Y82.693 E32.3604
G1 F995.9 X93.78 Y82.437 E32.4751
G1 F908.5 X94.482 Y82.376 E32.67941
G1 F917.8 X94.859 Y82.394 E32.78774
G1 F913.1 X95.197 Y82.431 E32.88583
G1 F955.5 X95.454 Y82.603 E32.97108
G1 F1072.2 X95.712 Y82.776 E33.0474
G1 F1170.7 X96.01 Y82.916 E33.12148
G1 F1200 X96.488 Y83.187 E33.2421
G1 X96.801 Y83.47 E33.33473
G1 X97.051 Y83.746 E33.41647
G1 X97.264 Y84.038 E33.49581
G1 X97.437 Y84.33 E33.57032
G1 X97.597 Y84.688 E33.6564
G1 F1214.2 X97.681 Y84.992 E33.72482
G1 F1257.6 X97.735 Y85.388 E33.80854
G1 F1288 X97.768 Y86.005 E33.9349
G1 F1277.7 X97.715 Y86.516 E34.04082
G1 F1251.1 X97.657 Y86.791 E34.09999
G1 F1224.5 X97.58 Y87.044 E34.15689
G1 F1207 X97.449 Y87.355 E34.23053
G1 F1200 X97.288 Y87.633 E34.30105
G1 X97.087 Y87.919 E34.37779
G1 X96.916 Y88.115 E34.43489
G1 X96.678 Y88.344 E34.50739
G1 X96.457 Y88.52 E34.56941
G1 X96.152 Y88.716 E34.64899
G1 X95.753 Y88.919 E34.74726
G1 F1113.7 X95.512 Y89.104 E34.81913
G1 F973.6 X95.27 Y89.289 E34.90154
G0 F6000 X92.447 Y89.852
G1 F1200 X91.898 Y89.506 E35.04399
G1 X91.607 Y89.279 E35.12501
G1 X91.16 Y88.849 E35.26116
G1 X90.943 Y88.592 E35.335
G1 X90.498 Y87.884 E35.51857
G1 X90.307 Y87.458 E35.62105
G1 X90.13 Y86.988 E35.7313
G1 X90.052 Y86.447 E35.85129
G1 X90.008 Y85.783 E35.99736
G1 X90.043 Y85.38 E36.08616
G1 X90.109 Y84.914 E36.18948
G1 X90.193 Y84.599 E36.26104
G1 X90.366 Y84.124 E36.37201
G1 X90.685 Y83.503 E36.52527
G1 X90.892 Y83.195 E36.60673
G1 X91.34 Y82.671 E36.75807
G1 X91.65 Y82.382 E36.8511
G1 X92.478 Y81.855 E37.06655
G1 X83.823 Y81.854 E38.96647
G1 X84.101 Y81.986 E39.03403
G1 X84.414 Y82.189 E39.11592
G1 X84.955 Y82.638 E39.27025
G1 X85.248 Y82.946 E39.36357
G1 X85.574 Y83.355 E39.47838
G1 X85.806 Y83.773 E39.58333
G1 X86.016 Y84.235 E39.69473
G1 X86.191 Y84.698 E39.80338
G1 X86.269 Y85.133 E39.9004
G1 X86.321 Y85.945 E40.07901
G1 X86.309 Y86.309 E40.15896
G1 X86.255 Y86.653 E40.2354
G1 X86.116 Y87.169 E40.3527
G1 X85.913 Y87.698 E40.47709
G1 X85.713 Y88.101 E40.57585
G1 X85.442 Y88.545 E40.69003
G1 X85.062 Y88.97 E40.81518
G1 X84.732 Y89.275 E40.91382
G1 X84.184 Y89.677 E41.06302
G1 X83.876 Y89.853 E41.14089
G1 X92.447 Y89.852 E43.02237
G0 F6000 X95.376 Y88.929
G0 X96.226 Y88.496
G0 X96.695 Y88.121
G0 X97.068 Y87.694
G0 X97.384 Y87.144
G0 X97.571 Y86.601
G0 X97.644 Y86.076
G0 X97.591 Y82.082
G1 F869.6 X97.487 Y82.261 E43.08508
G1 X97.281 Y82.261 E43.14748
G1 X97.177 Y82.082 E43.2102
G1 X97.281 Y81.903 E43.27291
G1 X97.487 Y81.903 E43.33531
G0 F6000 X93.718 Y82.802
G0 X92.797 Y83.175
G0 X89.541 Y85.8
G0 X90.873 Y89.232
G0 X86.529 Y89.382
G0 X82.405 Y89.302
G1 F924.9 X81.605 Y89.331 E43.56332
G1 F907.9 X80.953 Y89.261 E43.75357
G1 F961.9 X80.547 Y88.988 E43.88755
G1 F1120.6 X80.214 Y88.738 E43.98543
G1 F1200 X79.967 Y88.586 E44.0491
G1 X79.683 Y88.369 E44.12756
G1 X79.36 Y88.068 E44.22448
G1 X79.117 Y87.79 E44.30553
G1 X78.95 Y87.5 E44.37899
G1 X78.638 Y86.818 E44.54362
G1 X78.555 Y86.427 E44.63137
G1 X78.509 Y85.779 E44.77397
G1 X78.574 Y85.201 E44.90165
G1 X78.731 Y84.689 E45.01921
G1 X78.915 Y84.294 E45.11486
G1 X79.137 Y83.937 E45.20715
G1 X79.484 Y83.529 E45.32472
G1 X79.838 Y83.221 E45.42773
G1 X80.303 Y82.928 E45.54838
G1 X80.704 Y82.754 E45.64433
G1 F1075.4 X81.049 Y82.503 E45.74884
G1 F941.8 X81.249 Y82.411 E45.81041
G1 F918.4 X81.631 Y82.387 E45.9202
G1 F924.3 X82.13 Y82.397 E46.06245
G1 F902.8 X82.697 Y82.459 E46.22887
G1 F949.2 X83.055 Y82.693 E46.34755
G1 F1106 X83.448 Y82.993 E46.46531
G1 F1200 X83.761 Y83.196 E46.54721
G1 X84.086 Y83.466 E46.63996
G1 X84.379 Y83.773 E46.73312
G1 X84.574 Y84.019 E46.80203
G1 X84.713 Y84.27 E46.86501
G1 X84.99 Y84.88 E47.01207
G1 X85.068 Y85.229 E47.09058
G1 X85.118 Y85.879 E47.23368
G1 X85.113 Y86.253 E47.31579
G1 X84.96 Y86.847 E47.45044
G1 X84.838 Y87.164 E47.525
G1 X84.638 Y87.567 E47.62376
G1 X84.476 Y87.834 E47.69232
G1 X84.248 Y88.089 E47.76741
G1 X83.917 Y88.394 E47.86621
G1 X83.589 Y88.635 E47.95556
G1 X83.323 Y88.787 E48.02281
G1 F1181.3 X82.96 Y88.963 E48.11277
G1 F1085.2 X82.632 Y89.156 E48.20515
G1 F965.8 X82.405 Y89.302 E48.27877
G0 F6000 X79.738 Y89.854
G1 F1200 X79.338 Y89.608 E48.38185
G1 X78.865 Y89.247 E48.51247
G1 X78.542 Y88.946 E48.60939
G1 X78.136 Y88.483 E48.74456
G1 X77.859 Y87.999 E48.86698
G1 X77.614 Y87.463 E48.99635
G1 X77.478 Y87.108 E49.0798
G1 X77.407 Y86.835 E49.14172
G1 X77.363 Y86.568 E49.20112
G1 X77.321 Y86.006 E49.32484
G1 X77.318 Y85.655 E49.40189
G1 X77.369 Y85.174 E49.50807
G1 X77.418 Y84.89 E49.57133
G1 X77.493 Y84.617 E49.63348
G1 X77.59 Y84.319 E49.70228
G1 X77.895 Y83.66 E49.86168
G1 X78.118 Y83.303 E49.95408
G1 X78.696 Y82.624 E50.14982
G1 X79.05 Y82.316 E50.25283
G1 X79.782 Y81.855 E50.44272
G1 X71.181 Y81.854 E52.33079
G1 X71.623 Y82.119 E52.44392
G1 X72.303 Y82.676 E52.63687
G1 X72.606 Y83.011 E52.73603
G1 X72.921 Y83.425 E52.85023
G1 X73.142 Y83.845 E52.95441
G1 X73.344 Y84.319 E53.06751
G1 X73.45 Y84.606 E53.13467
G1 X73.52 Y84.873 E53.19527
G1 X73.567 Y85.157 E53.25846
G1 X73.616 Y85.805 E53.40111
G1 X73.6 Y86.22 E53.49228
G1 X73.485 Y86.887 E53.64085
G1 X73.42 Y87.161 E53.70267
G1 X73.231 Y87.659 E53.8196
G1 X73.072 Y87.982 E53.89863
G1 X72.69 Y88.577 E54.05384
G1 X72.408 Y88.919 E54.15115
G1 X71.652 Y89.574 E54.37073
G1 X71.191 Y89.854 E54.48913
G1 X79.738 Y89.854 E56.36534
G0 F6000 X69.72 Y89.294
G1 F916 X69.014 Y89.332 E56.56865
G1 F917.8 X68.583 Y89.296 E56.69279
G1 F1015.5 X68.18 Y89.043 E56.81622
G1 F1169.8 X67.794 Y88.87 E56.91147
G1 F1200 X67.41 Y88.676 E57.00591
G1 X67.177 Y88.522 E57.06722
G1 X66.885 Y88.279 E57.15061
G1 X66.624 Y88.01 E57.23289
G1 X66.382 Y87.7 E57.31922
G1 X66.235 Y87.462 E57.38063
G1 X66.054 Y87.072 E57.47501
G1 X65.924 Y86.671 E57.56755
G1 X65.847 Y86.361 E57.63767
G1 X65.812 Y85.725 E57.77749
G1 X65.889 Y85.076 E57.92096
G1 X65.983 Y84.785 E57.98808
G1 X66.216 Y84.286 E58.10898
G1 X66.457 Y83.884 E58.21187
G1 X66.76 Y83.547 E58.31135
G1 X67.067 Y83.262 E58.4033
G1 X67.598 Y82.92 E58.54195
G1 F1161.3 X67.989 Y82.713 E58.6423
G1 F1000 X68.354 Y82.441 E58.76221
G1 F907.4 X69.073 Y82.376 E58.9718
G1 F917.2 X69.463 Y82.394 E59.08393
G1 F912.5 X69.803 Y82.433 E59.18272
G1 F990.4 X70.135 Y82.657 E59.28924
G1 F1143.8 X70.359 Y82.8 E59.35045
G1 F1200 X70.674 Y82.95 E59.42704
G1 X71.006 Y83.148 E59.51189
G1 X71.414 Y83.483 E59.62778
G1 X71.717 Y83.817 E59.72677
G1 X71.906 Y84.065 E59.79522
G1 X72.038 Y84.318 E59.85786
G1 X72.29 Y84.906 E59.99829
G1 X72.375 Y85.295 E60.0857
G1 X72.422 Y86.003 E60.24146
G1 X72.282 Y86.791 E60.41715
G1 X72.152 Y87.133 E60.49746
G1 X71.993 Y87.456 E60.57649
G1 X71.764 Y87.813 E60.66959
G1 X71.482 Y88.155 E60.7669
G1 X71.028 Y88.548 E60.89871
G1 X70.707 Y88.743 E60.98116
G1 X70.326 Y88.917 E61.07311
G1 F1110.3 X69.96 Y89.138 E61.17455
G1 F967.7 X69.72 Y89.294 E61.25246
G1 F2400 E51.25246
G0 F6000 X60.689 Y92.026
G0 X60.689 Y99.925
G0 X74.979 Y100.815
G1 F2400 E61.25246
G1 F1090.9 X74.815 Y100.815 E61.29206
G1 X74.732 Y100.957 E61.33178
G1 X74.815 Y101.099 E61.3715
G1 X74.979 Y101.099 E61.4111
G1 X75.062 Y100.957 E61.45081
G0 F6000 X60.366 Y100.412
G1 F1092.6 X60.283 Y100.554 E61.49047
G1 X60.12 Y100.554 E61.52977
G1 X60.038 Y100.412 E61.5693
G1 X60.121 Y100.27 E61.60896
G1 X60.283 Y100.27 E61.64802
G1 F2400 E51.64802
G0 F6000 X60.689 Y92.026
G0 X60.689 Y59.407
G0 X174.311 Y59.407
G0 X174.311 Y79.682
G0 X135.391 Y79.682
G0 X137.904 Y89.437
G1 F2400 E61.64802
G1 F861.2 X137.696 Y89.437 E61.71164
G1 X137.591 Y89.617 E61.77537
G1 X137.696 Y89.797 E61.83911
G1 X137.904 Y89.797 E61.90273
G1 X138.009 Y89.617 E61.96647
G0 F6000 X136.364 Y91.053
G1 F1200 X138.832 Y91.053 E62.50824
G1 F1116.3 X139.417 Y90.964 E62.64787
G1 F969.7 X139.843 Y90.859 E62.76706
G1 F918.4 X140.537 Y90.881 E62.96622
G1 F920.7 X141.4 Y90.864 E63.21318
G1 F977.6 X141.852 Y90.972 E63.3384
G1 F1123.2 X142.472 Y91.054 E63.48507
G1 F1200 X152.078 Y91.053 E65.59375
G1 F1114.6 X152.476 Y90.962 E65.69024
G1 F975.6 X152.874 Y90.87 E65.80054
G1 F922.5 X153.492 Y90.878 E65.97703
G1 F919.5 X154.043 Y90.864 E66.13492
G1 F961.3 X154.386 Y90.946 E66.23156
G1 F1100.9 X155.125 Y91.054 E66.41026
G1 F1200 X164.124 Y91.054 E68.3857
G1 F1081.9 X164.756 Y90.922 E68.5429
G1 F936.9 X165.042 Y90.847 E68.62603
G1 F907.4 X165.665 Y90.873 E68.80705
G1 F924.9 X166.167 Y90.878 E68.95004
G1 F916 X166.908 Y90.858 E69.1632
G1 F986.3 X167.442 Y90.99 E69.31012
G1 F1139.2 X167.868 Y91.054 E69.40972
G1 F1200 X173.483 Y91.054 E70.64231
G1 X173.988 Y91.125 E70.75426
G1 X174.564 Y91.413 E70.89562
G1 X174.858 Y91.756 E70.99479
G1 X174.858 Y79.952 E73.58597
G1 X174.565 Y80.295 E73.68499
G1 X173.989 Y80.583 E73.82636
G1 X173.483 Y80.654 E73.93852
G1 X167.791 Y80.654 E75.18801
G1 F1148.3 X167.436 Y80.708 E75.27039
G1 F993.1 X166.864 Y80.849 E75.42665
G1 F916.6 X166.11 Y80.829 E75.64341
G1 F914.9 X165.187 Y80.852 E75.90926
G1 F981.6 X164.671 Y80.724 E76.05193
G1 F1134.8 X164.384 Y80.654 E76.12051
G1 F1200 X155.042 Y80.655 E78.17123
G1 F1150.2 X154.755 Y80.706 E78.23799
G1 F994.5 X154.174 Y80.849 E78.39648
G1 F916.6 X153.437 Y80.829 E78.60836
G1 F917.8 X152.566 Y80.847 E78.85841
G1 F974.9 X152.115 Y80.738 E78.98377
G1 F1122.4 X151.752 Y80.655 E79.07117
G1 F1200 X142.284 Y80.655 E81.14956
G1 F1168.8 X142.025 Y80.686 E81.20834
G1 F1071.4 X141.696 Y80.766 E81.29159
G1 F957.4 X141.366 Y80.847 E81.38507
G1 F919 X140.603 Y80.829 E81.60385
G1 F915.4 X139.781 Y80.853 E81.84048
G1 F961.9 X139.341 Y80.754 E81.96399
G1 F1108.5 X138.901 Y80.655 E82.07116
G1 F1200 X136.363 Y80.654 E82.62829
G1 X136.364 Y83.849 E83.32965
G1 F1214.2 X136.35 Y84.703 E83.51495
G1 F1253.3 X136.326 Y85.198 E83.61912
G1 F1296.1 X136.311 Y85.739 E83.72911
G1 F1299.6 X136.323 Y86.443 E83.87182
G1 F1248.9 X136.356 Y87.276 E84.04766
G1 F1207 X136.363 Y87.699 E84.13998
G1 F1200 X136.364 Y91.053 E84.87624
G0 F6000 X141.264 Y89.295
G1 F920.7 X140.537 Y89.334 E85.08454
G1 F918.4 X140.04 Y89.294 E85.22756
G1 F969.7 X139.654 Y89.086 E85.34667
G1 F1116.3 X139.335 Y88.874 E85.43706
G1 F1200 X139.096 Y88.758 E85.49537
G1 X138.774 Y88.555 E85.57893
G1 X138.49 Y88.332 E85.6582
G1 X138.189 Y88.033 E85.75133
G1 X137.963 Y87.747 E85.83135
G1 X137.744 Y87.393 E85.92273
G1 F1207 X137.572 Y87.006 E86.01515
G1 F1241.4 X137.456 Y86.552 E86.11458
G1 F1291.5 X137.406 Y85.739 E86.28072
G1 F1296.1 X137.438 Y85.329 E86.3643
G1 F1253.3 X137.531 Y84.842 E86.46851
G1 F1214.2 X137.764 Y84.268 E86.60291
G1 F1200 X138.054 Y83.828 E86.71859
G1 X138.46 Y83.391 E86.84953
G1 X138.765 Y83.155 E86.93419
G1 X139.066 Y82.967 E87.01209
G1 X139.402 Y82.802 E87.09426
G1 F1108.5 X139.887 Y82.441 E87.23794
G1 F971.7 X140.306 Y82.394 E87.35224
G1 F919.5 X140.686 Y82.376 E87.46122
G1 F914.3 X141.277 Y82.426 E87.63211
G1 F1011.2 X141.675 Y82.682 E87.75538
G1 F1168.8 X142.301 Y83.001 E87.91372
G1 F1200 X142.688 Y83.262 E88.01619
G1 X143.02 Y83.551 E88.11281
G1 X143.261 Y83.819 E88.19193
G1 X143.433 Y84.043 E88.25393
G1 X143.559 Y84.271 E88.31111
G1 X143.715 Y84.613 E88.39363
G1 X143.812 Y84.875 E88.45495
G1 X143.953 Y85.497 E88.59496
G1 X143.935 Y86.251 E88.76052
G1 X143.896 Y86.527 E88.82171
G1 X143.739 Y87.029 E88.93717
G1 X143.571 Y87.405 E89.02757
G1 X143.423 Y87.655 E89.09135
G1 X143.235 Y87.916 E89.16196
G1 X143.068 Y88.11 E89.21815
G1 X142.844 Y88.327 E89.28661
G1 X142.638 Y88.495 E89.34496
