;FLAVOR:Marlin
;TIME:15758
;Filament used: 47.7473m
;Layer height: 0.6
;MINX:0
;MINY:111
;MINZ:0.32
;MAXX:300
;MAXY:186.525
;MAXZ:29.12
;Generated with Cura_SteamEngine 5.3.1
M140 S30
M105
M190 S30
M104 S230
M105
M109 S230
M82 ;absolute extrusion mode
G28 ; home all axes
G92 X-5.0 Y-10.0 ; set home offsets
M92 E136.8 ; Set E Steps to 136.8
G1 X0 Y0 Z0.2 F3000 ; get ready to prime
G92 E0 ; reset extrusion distance
G92 E0
G92 E0
G1 F1500 E-6.5
;LAYER_COUNT:49
;LAYER:0
M107
G0 F6000 X0.00 Y115.972 Z0.32
;TYPE:SKIRT
G1 F1500 E0
G1 F1200 X0.592 Y115.449 E0.08407
G1 X1.326 Y114.909 E0.18106
G1 X2.105 Y114.434 E0.27817
G1 X2.922 Y114.03 E0.37517
G1 X3.772 Y113.698 E0.4723
G1 X4.647 Y113.443 E0.5693
G1 X5.542 Y113.265 E0.66642
G1 X6.831 Y113.148 E0.80418
G1 X7.442 Y113.135 E0.86922
G1 X41.192 Y113.132 E4.46132
G1 X43.777 Y113.095 E4.73647
G1 X46.886 Y112.956 E5.0677
G1 X48.816 Y112.837 E5.27351
G1 X49.825 Y112.789 E5.38102
G1 X51.765 Y112.649 E5.58803
G1 X52.31 Y112.624 E5.6461
G1 X53.648 Y112.6 E5.78853
G1 X229.378 Y112.61 E24.4919
G1 X231.131 Y112.6 E24.67848
G1 X246.779 Y112.603 E26.34394
G1 X247.465 Y112.613 E26.41696
G1 X248.071 Y112.64 E26.48152
G1 X249.603 Y112.752 E26.64501
G1 X251.189 Y112.838 E26.81406
G1 X252.677 Y112.936 E26.97277
G1 X255.218 Y113.067 E27.24358
G1 X258.672 Y113.132 E27.61126
G1 X292.333 Y113.135 E31.19388
G1 X293.028 Y113.145 E31.26786
G1 X293.938 Y113.198 E31.36488
G1 X294.84 Y113.331 E31.46192
G1 X295.727 Y113.542 E31.55896
G1 X296.593 Y113.83 E31.65609
G1 X297.429 Y114.193 E31.75309
G1 X298.231 Y114.627 E31.85015
G1 X298.991 Y115.131 E31.94721
G1 X299.705 Y115.698 E32.04425
G1 X300 Y115.979 E32.08761
G1 F1500 E25.58761
G0 F6000 X0.00 Y114.904
G1 F1500 E32.08761
G1 F1200 X0.062 Y114.849 E32.09643
G1 X0.91 Y114.226 E32.20843
G1 X1.75 Y113.717 E32.31296
G1 X2.567 Y113.313 E32.40997
G1 X3.548 Y112.93 E32.52205
G1 X4.491 Y112.658 E32.62651
G1 X5.386 Y112.48 E32.72363
G1 X6.759 Y112.351 E32.87041
G1 X7.442 Y112.335 E32.94312
G1 X41.181 Y112.332 E36.53405
G1 X43.762 Y112.295 E36.80878
G1 X46.85 Y112.157 E37.13777
G1 X48.778 Y112.038 E37.34336
G1 X49.769 Y111.991 E37.44895
G1 X51.728 Y111.85 E37.65799
G1 X52.296 Y111.824 E37.71851
G1 X53.648 Y111.8 E37.86243
G1 X229.373 Y111.81 E56.56527
G1 X231.131 Y111.8 E56.75238
G1 X246.791 Y111.803 E58.41911
G1 X247.501 Y111.814 E58.49469
G1 X248.129 Y111.842 E58.56159
G1 X249.651 Y111.953 E58.72401
G1 X251.242 Y112.04 E58.8936
G1 X252.718 Y112.137 E59.05103
G1 X255.243 Y112.267 E59.32013
G1 X258.687 Y112.332 E59.68675
G1 X292.345 Y112.335 E63.26905
G1 X293.075 Y112.346 E63.34676
G1 X293.985 Y112.399 E63.44378
G1 X295.025 Y112.553 E63.55567
G1 X295.979 Y112.783 E63.66012
G1 X296.912 Y113.096 E63.76486
G1 X297.81 Y113.489 E63.86919
G1 X298.612 Y113.923 E63.96624
G1 X299.433 Y114.464 E64.07089
G1 X300 Y114.912 E64.1478
G1 F1500 E57.6478
G0 F6000 X0.00 Y113.901
G1 F1500 E64.1478
G1 F1200 X0.436 Y113.581 E64.20536
G1 X1.335 Y113.033 E64.31742
G1 X2.212 Y112.596 E64.42171
G1 X3.326 Y112.161 E64.54899
G1 X4.269 Y111.889 E64.65345
G1 X5.23 Y111.695 E64.75779
G1 X6.74 Y111.551 E64.91924
G1 X7.442 Y111.535 E64.99397
G1 X41.17 Y111.532 E68.58372
G1 X43.747 Y111.495 E68.85803
G1 X46.814 Y111.358 E69.18478
G1 X48.74 Y111.239 E69.39016
G1 X49.716 Y111.193 E69.49416
G1 X51.691 Y111.051 E69.7049
G1 X52.282 Y111.024 E69.76787
G1 X53.648 Y111 E69.91328
G1 X229.368 Y111.01 E88.61559
G1 X231.131 Y111 E88.80323
G1 X246.803 Y111.003 E90.47124
G1 X247.537 Y111.015 E90.54937
G1 X248.187 Y111.044 E90.61862
G1 X249.695 Y111.154 E90.77955
G1 X251.294 Y111.242 E90.94999
G1 X252.759 Y111.338 E91.10625
G1 X255.268 Y111.467 E91.37364
G1 X258.702 Y111.532 E91.73919
G1 X292.357 Y111.535 E95.32118
G1 X293.122 Y111.547 E95.40261
G1 X294.032 Y111.6 E95.49963
G1 X295.212 Y111.775 E95.62659
G1 X296.166 Y112.005 E95.73104
G1 X297.233 Y112.363 E95.85082
G1 X298.191 Y112.785 E95.96224
G1 X298.993 Y113.219 E96.05929
G1 X299.929 Y113.836 E96.17861
G1 X300 Y113.892 E96.18823
G1 F1500 E89.68823
G0 F6000 X292.488 Y123.934
G1 F1500 E96.18823
G1 F1200 X292.488 Y169.715 E101.06082
G1 X253.34 Y169.72 E105.22743
G1 X253.321 Y169.72 E105.22946
G1 X253.007 Y169.735 E105.26291
G1 X252.98 Y169.738 E105.26581
G1 X252.476 Y169.796 E105.3198
G1 X252.448 Y169.8 E105.32281
G1 X251.763 Y169.929 E105.397
G1 X251.637 Y169.579 E105.43659
G1 X251.479 Y169.379 E105.46372
G1 X251.106 Y169.136 E105.5111
G1 X251.088 Y169.046 E105.52087
G1 X250.929 Y168.866 E105.54643
G1 X250.781 Y168.777 E105.56481
G1 X251.193 Y167.818 E105.6759
G1 X251.21 Y167.769 E105.68142
G1 X251.318 Y167.387 E105.72367
G1 X251.329 Y167.337 E105.72912
G1 X251.402 Y166.845 E105.78206
G1 X251.406 Y166.786 E105.78835
G1 X251.412 Y127.027 E110.02
G1 X251.411 Y126.994 E110.02351
G1 X251.368 Y126.48 E110.07841
G1 X251.355 Y126.407 E110.0863
G1 X251.178 Y125.763 E110.15739
G1 X251.15 Y125.691 E110.16561
G1 X250.9 Y125.189 E110.2253
G1 X250.876 Y125.147 E110.23045
G1 X250.695 Y124.871 E110.26557
G1 X250.895 Y124.735 E110.29132
G1 X251.016 Y124.605 E110.31022
G1 X251.036 Y124.542 E110.31725
G1 X251.538 Y124.175 E110.38344
G1 X251.678 Y123.989 E110.40822
G1 X251.773 Y123.729 E110.43768
G1 X252.33 Y123.833 E110.49798
G1 X252.353 Y123.837 E110.50047
G1 X252.98 Y123.917 E110.56774
G1 X253.012 Y123.92 E110.57116
G1 X253.269 Y123.932 E110.59855
G1 X253.288 Y123.932 E110.60057
G1 X292.488 Y123.934 E114.77272
G0 F6000 X291.688 Y124.734
G1 F1200 X291.688 Y168.915 E119.47501
G1 X253.34 Y168.92 E123.55648
G1 X253.283 Y168.921 E123.56255
G1 X252.969 Y168.936 E123.59601
G1 X252.889 Y168.943 E123.60456
G1 X252.385 Y169.001 E123.65855
G1 X252.3 Y169.014 E123.6677
G1 X252.242 Y169.025 E123.67399
G1 X252.042 Y168.803 E123.70579
G1 X251.916 Y168.708 E123.72258
G1 X251.745 Y168.597 E123.74428
G1 X251.736 Y168.58 E123.74633
G1 X251.928 Y168.134 E123.79801
G1 X251.98 Y167.986 E123.81471
G1 X252.088 Y167.604 E123.85696
G1 X252.12 Y167.454 E123.87328
G1 X252.193 Y166.962 E123.92622
G1 X252.206 Y166.786 E123.945
G1 X252.212 Y127.027 E128.17665
G1 X252.208 Y126.927 E128.1873
G1 X252.165 Y126.413 E128.2422
G1 X252.126 Y126.195 E128.26577
G1 X251.949 Y125.551 E128.33685
G1 X251.866 Y125.334 E128.36158
G1 X251.717 Y125.035 E128.39714
G1 X252.01 Y124.821 E128.43575
G1 X252.217 Y124.624 E128.46617
G1 X252.252 Y124.63 E128.46995
G1 X252.879 Y124.71 E128.53722
G1 X252.975 Y124.719 E128.54748
G1 X253.232 Y124.731 E128.57487
G1 X253.288 Y124.732 E128.58083
G1 X291.688 Y124.734 E132.66783
G0 F6000 X290.888 Y125.534
G1 F1200 X290.888 Y168.115 E137.19983
G1 X253.34 Y168.12 E141.19616
G1 X253.245 Y168.122 E141.20627
G1 X252.931 Y168.137 E141.23973
G1 X252.797 Y168.148 E141.25404
G1 X252.765 Y168.152 E141.25747
G1 X252.858 Y167.822 E141.29396
G1 X252.911 Y167.572 E141.32116
G1 X252.984 Y167.08 E141.3741
G1 X253.006 Y166.786 E141.40548
G1 X253.012 Y127.027 E145.63712
G1 X253.005 Y126.86 E145.65491
G1 X252.962 Y126.346 E145.70981
G1 X252.897 Y125.983 E145.74906
G1 X252.765 Y125.502 E145.80215
G1 X252.778 Y125.504 E145.80355
G1 X252.938 Y125.518 E145.82064
G1 X253.195 Y125.53 E145.84802
G1 X253.288 Y125.532 E145.85793
G1 X290.888 Y125.534 E149.85978
G0 F6000 X290.088 Y126.334
G1 F1200 X290.088 Y167.315 E154.22149
G1 X253.758 Y167.32 E158.08818
G1 X253.776 Y167.197 E158.10141
G1 X253.806 Y166.786 E158.14527
G1 X253.812 Y127.027 E162.37692
G1 X253.802 Y126.794 E162.40174
G1 X253.763 Y126.332 E162.45109
G1 X290.088 Y126.334 E166.31725
G0 F6000 X289.288 Y127.134
G1 F1200 X289.288 Y166.515 E170.50866
G1 X254.606 Y166.52 E174.19995
G1 X254.612 Y127.132 E178.39211
G1 X289.288 Y127.134 E182.08276
G1 F1500 E175.58276
G0 F6000 X289.553 Y127.134
G0 X300 Y177.677
G1 F1500 E182.08276
G1 F1200 X299.429 Y178.184 E182.16404
G1 X298.696 Y178.727 E182.26113
G1 X297.918 Y179.203 E182.3582
G1 X297.102 Y179.61 E182.45525
G1 X296.253 Y179.943 E182.55231
G1 X295.379 Y180.201 E182.6493
G1 X294.485 Y180.381 E182.74636
G1 X293.17 Y180.502 E182.88691
G1 X292.558 Y180.515 E182.95207
G1 X258.848 Y180.519 E186.5399
G1 X256.241 Y180.556 E186.8174
G1 X253.456 Y180.678 E187.1141
G1 X250.614 Y180.85 E187.41713
G1 X249.128 Y180.926 E187.5755
G1 X247.831 Y181.016 E187.71387
G1 X247.241 Y181.04 E187.77672
G1 X246.41 Y181.05 E187.86517
G1 X198.56 Y181.054 E192.95796
G1 X195.96 Y181.091 E193.23472
G1 X193.405 Y181.199 E193.50689
G1 X190.895 Y181.377 E193.77471
G1 X188.349 Y181.631 E194.04703
G1 X185.857 Y181.95 E194.31443
G1 X183.368 Y182.341 E194.58259
G1 X180.859 Y182.807 E194.85419
G1 X178.386 Y183.338 E195.1234
G1 X175.97 Y183.932 E195.3882
G1 X175.05 Y184.189 E195.48986
G1 X174.898 Y184.224 E195.50646
G1 X173.597 Y184.574 E195.64986
G1 X172.707 Y184.772 E195.7469
G1 X171.803 Y184.891 E195.84394
G1 X170.539 Y184.925 E195.97852
G1 X167.733 Y184.828 E196.27735
G1 X165.92 Y184.81 E196.47032
G1 X143.136 Y184.81 E198.89528
G1 X142.423 Y184.799 E198.97117
G1 X141.512 Y184.745 E199.0683
G1 X140.61 Y184.611 E199.16536
G1 X140.109 Y184.501 E199.21995
G1 X139.231 Y184.285 E199.31618
G1 X138.032 Y183.974 E199.44802
G1 X135.572 Y183.409 E199.71666
G1 X133.086 Y182.913 E199.98647
G1 X130.559 Y182.482 E200.25931
G1 X128.088 Y182.132 E200.52493
G1 X125.547 Y181.845 E200.79709
G1 X123.056 Y181.635 E201.06315
G1 X120.491 Y181.492 E201.33658
G1 X117.959 Y181.422 E201.60617
G1 X115.73 Y181.418 E201.8434
G1 X115.224 Y181.405 E201.89728
G1 X113.5 Y181.318 E202.081
G1 X110.891 Y181.235 E202.35882
G1 X109.237 Y181.22 E202.53487
G1 X104.534 Y181.22 E203.03542
G1 X103.362 Y181.2 E203.16018
G1 X101.783 Y181.129 E203.3284
G1 X97.917 Y181.05 E203.73996
G1 X53.22 Y181.047 E208.49717
G1 X52.519 Y181.037 E208.57179
G1 X51.923 Y181.011 E208.63528
G1 X50.467 Y180.907 E208.79064
G1 X49.243 Y180.84 E208.92111
G1 X46.936 Y180.697 E209.16712
G1 X44.36 Y180.573 E209.44161
G1 X41.194 Y180.519 E209.77862
G1 X7.665 Y180.515 E213.34719
G1 X6.972 Y180.505 E213.42096
G1 X6.062 Y180.452 E213.51798
G1 X5.159 Y180.319 E213.61512
G1 X4.272 Y180.108 E213.71216
G1 X3.407 Y179.82 E213.80919
G1 X2.57 Y179.457 E213.9063
G1 X1.769 Y179.022 E214.00331
G1 X1.008 Y178.519 E214.1004
G1 X0.295 Y177.951 E214.19742
G1 X0.00 Y177.671 E214.24071
G0 F6000 X0.00 Y178.736
G1 F1200 X0.51 Y179.145 E214.31029
G1 X1.387 Y179.725 E214.4222
G1 X2.188 Y180.16 E214.51921
G1 X3.154 Y180.579 E214.63128
G1 X4.019 Y180.867 E214.72831
G1 X4.974 Y181.097 E214.83286
G1 X6.015 Y181.251 E214.94486
G1 X6.925 Y181.304 E215.04188
G1 X7.653 Y181.315 E215.11937
G1 X41.18 Y181.319 E218.68773
G1 X44.341 Y181.373 E219.02421
G1 X46.898 Y181.496 E219.29668
G1 X49.194 Y181.638 E219.54151
G1 X50.423 Y181.706 E219.67252
G1 X51.866 Y181.809 E219.82649
G1 X52.484 Y181.836 E219.89233
G1 X53.209 Y181.847 E219.9695
G1 X97.901 Y181.85 E224.72618
G1 X101.767 Y181.929 E225.13773
G1 X103.326 Y181.999 E225.30383
G1 X104.52 Y182.02 E225.43093
G1 X109.23 Y182.02 E225.93222
G1 X110.866 Y182.035 E226.10635
G1 X113.475 Y182.118 E226.38418
G1 X115.184 Y182.204 E226.5663
G1 X115.709 Y182.218 E226.6222
G1 X117.937 Y182.222 E226.85933
G1 X120.459 Y182.292 E227.12785
G1 X123.011 Y182.434 E227.39989
G1 X125.459 Y182.64 E227.66136
G1 X127.994 Y182.927 E227.93289
G1 X130.424 Y183.271 E228.1941
G1 X132.938 Y183.7 E228.46554
G1 X135.415 Y184.194 E228.73436
G1 X137.853 Y184.754 E229.0006
G1 X139.03 Y185.059 E229.13001
G1 X139.918 Y185.278 E229.22735
G1 X140.492 Y185.402 E229.28985
G1 X141.465 Y185.544 E229.39451
G1 X142.376 Y185.598 E229.49164
G1 X143.124 Y185.61 E229.57126
G1 X165.912 Y185.61 E231.99664
G1 X167.705 Y185.628 E232.18749
G1 X170.511 Y185.725 E232.48632
G1 X171.825 Y185.691 E232.62621
G1 X172.881 Y185.553 E232.73956
G1 X173.805 Y185.347 E232.84032
G1 X175.23 Y184.969 E232.99723
G1 X176.185 Y184.703 E233.10274
G1 X178.577 Y184.115 E233.36491
G1 X181.005 Y183.594 E233.62921
G1 X183.514 Y183.128 E233.90082
G1 X185.959 Y182.743 E234.16425
G1 X188.451 Y182.425 E234.43163
G1 X190.959 Y182.175 E234.69989
G1 X193.461 Y181.997 E234.96685
G1 X195.971 Y181.891 E235.23424
G1 X198.571 Y181.854 E235.51099
G1 X246.41 Y181.85 E240.60261
G1 X247.251 Y181.84 E240.69213
G1 X247.864 Y181.815 E240.75742
G1 X249.169 Y181.725 E240.89665
G1 X250.655 Y181.649 E241.05501
G1 X253.504 Y181.477 E241.35879
G1 X256.254 Y181.356 E241.65176
G1 X258.859 Y181.319 E241.92905
G1 X292.558 Y181.315 E245.51571
G1 X293.243 Y181.299 E245.58864
G1 X294.558 Y181.178 E245.72919
G1 X295.537 Y180.985 E245.83539
G1 X296.545 Y180.688 E245.94724
G1 X297.394 Y180.355 E246.0443
G1 X298.275 Y179.919 E246.14892
G1 X299.114 Y179.409 E246.25342
G1 X299.905 Y178.827 E246.35794
G1 X300 Y178.743 E246.37144
G1 F1500 E239.87144
G0 F6000 X0.00 Y179.762
G1 F1500 E246.37144
G1 F1200 X1.005 Y180.428 E246.49976
G1 X1.806 Y180.863 E246.59677
G1 X2.901 Y181.338 E246.72381
G1 X3.832 Y181.645 E246.82814
G1 X4.787 Y181.875 E246.93269
G1 X5.968 Y182.05 E247.05976
G1 X6.878 Y182.103 E247.15678
G1 X7.641 Y182.115 E247.238
G1 X41.166 Y182.119 E250.80615
G1 X44.322 Y182.173 E251.1421
G1 X46.86 Y182.295 E251.41253
G1 X50.379 Y182.505 E251.78774
G1 X51.809 Y182.607 E251.94032
G1 X52.449 Y182.635 E252.0085
G1 X53.197 Y182.647 E252.08812
G1 X97.885 Y182.65 E256.84438
G1 X101.751 Y182.729 E257.25593
G1 X103.29 Y182.798 E257.41989
G1 X104.506 Y182.82 E257.54934
G1 X109.223 Y182.82 E258.05138
G1 X110.841 Y182.835 E258.22359
G1 X113.45 Y182.918 E258.50142
G1 X115.144 Y183.003 E258.68194
G1 X115.688 Y183.018 E258.73986
G1 X117.915 Y183.022 E258.97689
G1 X120.429 Y183.092 E259.24456
G1 X122.967 Y183.233 E259.5151
G1 X125.371 Y183.435 E259.77187
G1 X127.9 Y183.722 E260.04276
G1 X130.289 Y184.06 E260.29956
G1 X132.796 Y184.488 E260.57025
G1 X135.25 Y184.977 E260.83657
G1 X137.674 Y185.534 E261.10129
G1 X138.829 Y185.833 E261.22827
G1 X139.726 Y186.055 E261.32662
G1 X140.376 Y186.194 E261.39736
G1 X141.349 Y186.336 E261.50202
G1 X142.329 Y186.397 E261.60653
G1 X143.111 Y186.41 E261.68977
G1 X165.904 Y186.41 E264.11568
G1 X167.677 Y186.428 E264.3044
G1 X170.483 Y186.525 E264.60322
G1 X171.846 Y186.491 E264.74834
G1 X173.055 Y186.334 E264.87809
G1 X173.979 Y186.128 E264.97885
G1 X175.435 Y185.742 E265.13917
G1 X176.4 Y185.474 E265.24576
G1 X178.768 Y184.892 E265.5053
G1 X181.151 Y184.381 E265.76469
G1 X183.66 Y183.915 E266.0363
G1 X186.06 Y183.537 E266.29488
G1 X188.552 Y183.219 E266.56226
G1 X191.023 Y182.973 E266.82656
G1 X193.517 Y182.795 E267.09268
G1 X195.982 Y182.691 E267.35527
G1 X198.582 Y182.654 E267.63202
G1 X246.41 Y182.65 E272.72247
G1 X247.261 Y182.64 E272.81305
G1 X247.897 Y182.614 E272.8808
G1 X249.21 Y182.524 E273.02087
G1 X250.696 Y182.448 E273.17924
G1 X253.552 Y182.276 E273.48376
G1 X256.267 Y182.156 E273.773
G1 X258.87 Y182.119 E274.05008
G1 X292.558 Y182.115 E277.63557
G1 X293.316 Y182.096 E277.71627
G1 X294.631 Y181.975 E277.85682
G1 X295.692 Y181.77 E277.97184
G1 X296.837 Y181.433 E278.09887
G1 X297.686 Y181.1 E278.19593
G1 X298.691 Y180.603 E278.31526
G1 X299.53 Y180.093 E278.41976
G1 X300 Y179.749 E278.48175
G1 F1500 E271.98175
G0 F6000 X246.919 Y170.515
G0 X246.919 Y170.25
G1 F1500 E278.48175
G1 F1200 X175.854 Y170.256 E286.04537
G1 X175.828 Y170.257 E286.04814
G1 X175.519 Y170.277 E286.0811
G1 X175.473 Y170.282 E286.08602
G1 X175.099 Y170.35 E286.12648
G1 X175.041 Y170.366 E286.13289
G1 X174.623 Y170.51 E286.17994
G1 X174.539 Y170.55 E286.18984
G1 X174.032 Y170.871 E286.25371
G1 X173.979 Y170.911 E286.26078
G1 X173.763 Y171.104 E286.29161
G1 X173.747 Y171.119 E286.29394
G1 X170.795 Y174.071 E286.73827
G1 X170.437 Y173.922 E286.77954
G1 X170.437 Y167.275 E287.487
G1 X231.209 Y167.275 E293.95511
G1 X231.208 Y169.85 E294.22917
G1 X231.247 Y170.023 E294.24805
G1 X231.358 Y170.162 E294.26698
G1 X231.518 Y170.24 E294.28593
G1 X231.608 Y170.25 E294.29556
G1 X246.919 Y170.25 E295.92515
G1 F1500 E289.42515
G0 F6000 X246.919 Y170.515
G0 X230.955 Y170.503
G0 X230.408 Y169.451
G1 F1500 E295.92515
G1 F1200 X175.854 Y169.456 E301.73147
G1 X175.776 Y169.459 E301.73977
G1 X175.467 Y169.479 E301.77273
G1 X175.33 Y169.495 E301.78741
G1 X174.956 Y169.563 E301.82787
G1 X174.78 Y169.609 E301.84723
G1 X174.362 Y169.753 E301.89428
G1 X174.111 Y169.874 E301.92394
G1 X173.604 Y170.195 E301.98781
