;FLAVOR:Marlin
;TIME:3583
;Filament used: 11.9814m
;Layer height: 0.6
;MINX:88.63
;MINY:94.414
;MINZ:0.4
;MAXX:146.37
;MAXY:159.634
;MAXZ:19
;Generated with Cura_SteamEngine 5.3.1
M82 ;absolute extrusion mode
; START G-CODE BEGIN

M104 S220.0 ﻿T0
M140 S60.0

G28 ; Home all axes
G92 E0 ; Reset Extruder
M420 S1 ; Load Mesh

M109 S220.0 ﻿T0
M190 S60.0

G92 E0 ; Reset Extruder

G1 X0.6 Y20 Z0.3 F5000.0 ; Move to start position
G1 X0.6 Y200.0 Z0.3 F1500.0 E15 ; Draw the first line
G1 X0.9 Y200.0 Z0.3 F5000.0 ; Move to side a little
G1 X0.9 Y20 Z0.3 F1500.0 E30 ; Draw the second line
G92 E0 ; Reset Extruder
G1 Z2.0 F3000 ; Move Z Axis up little to prevent scratching of Heat Bed
G1 X5 Y20 Z0.3 F5000.0 ; Move over to prevent blob squish

; START G-CODE END
G92 E0
G92 E0
G1 F1500 E-6
;LAYER_COUNT:32
;LAYER:0
M107
;MESH:Casted Wheel Hub Test - TPU.STL
G0 F6000 X95.781 Y110.308 Z0.4
;TYPE:WALL-INNER
G1 F1500 E0
G1 F739.6 X95.261 Y109.962 E0.14156
G1 F764.3 X94.832 Y109.732 E0.24832
G1 F766.2 X94.21 Y109.512 E0.39267
G1 F767.4 X93.616 Y109.41 E0.52433
G1 X92.995 Y109.41 E0.65998
G1 X92.386 Y109.515 E0.79498
G1 F766.8 X91.796 Y109.723 E0.93174
G1 F766.2 X91.264 Y110.02 E1.06505
G1 F767.4 X90.779 Y110.41 E1.201
G1 F768 X90.369 Y110.877 E1.33664
G1 F767.4 X90.047 Y111.401 E1.47099
G1 X89.811 Y111.986 E1.60879
G1 X89.686 Y112.573 E1.73989
G1 X89.658 Y113.208 E1.87874
G1 F766.8 X89.736 Y113.814 E2.01231
G1 F766.2 X89.917 Y114.407 E2.14797
G1 X90.194 Y114.957 E2.2827
G1 X90.561 Y115.452 E2.41753
G1 F766.8 X91.017 Y115.89 E2.55575
G1 F764.9 X91.525 Y116.235 E2.69032
G1 F743.6 X92.064 Y116.514 E2.82714
G1 F718.6 X92.197 Y116.569 E2.86072
G0 F6000 X93.012 Y116.871
G0 X94.758 Y117.868
G0 X93.108 Y127.015
G0 X94.758 Y136.164
G0 X93.031 Y137.14
G0 X91.902 Y137.599
G1 F750 X91.69 Y137.708 E2.914
G1 F760.7 X91.289 Y137.941 E3.0162
G1 F765.6 X90.779 Y138.349 E3.15921
G1 F767.4 X90.369 Y138.817 E3.29513
G1 X90.047 Y139.341 E3.42948
G1 X89.811 Y139.926 E3.56727
G1 X89.686 Y140.513 E3.69837
G1 X89.658 Y141.148 E3.83722
G1 F766.8 X89.736 Y141.754 E3.9708
G1 F766.2 X89.917 Y142.347 E4.10645
G1 X90.194 Y142.897 E4.24119
G1 X90.561 Y143.392 E4.37601
G1 F767.4 X91.015 Y143.828 E4.51351
G1 X91.524 Y144.172 E4.64771
G1 F766.2 X92.087 Y144.425 E4.78276
G1 X92.692 Y144.582 E4.91951
G1 X93.302 Y144.634 E5.05346
G1 X93.924 Y144.581 E5.19004
G1 F766.8 X94.52 Y144.426 E5.32467
G1 F764.9 X95.129 Y144.147 E5.47147
G1 F754.1 X95.51 Y143.91 E5.57121
G1 F733.9 X95.715 Y143.769 E5.62804
G0 F6000 X96.471 Y143.152
G0 X98.207 Y142.137
G0 X102.227 Y146.03
G0 X111.427 Y150.633
G0 X114.049 Y151.284
G0 X114.386 Y152.115
G1 F1200 X114.576 Y151.908 E5.66729
G1 X115.091 Y151.478 E5.76101
G1 X115.72 Y151.122 E5.86197
G1 X116.266 Y150.922 E5.9432
G1 X116.596 Y150.835 E5.99087
G1 X117.16 Y150.742 E6.07072
G1 X117.759 Y150.741 E6.1544
G1 X118.029 Y150.769 E6.19232
G1 X118.39 Y150.831 E6.24349
G1 X118.721 Y150.918 E6.2913
G1 X119.281 Y151.122 E6.37455
G1 X119.898 Y151.473 E6.47371
G1 X120.411 Y151.896 E6.5666
G1 X120.612 Y152.113 E6.60792
G1 X120.776 Y151.682 E6.67233
G1 X120.931 Y151.415 E6.71546
G1 X121.217 Y151.068 E6.77828
G1 X121.575 Y150.819 E6.83919
G1 X121.972 Y150.64 E6.90003
G1 X124.728 Y149.934 E7.29745
G1 X127.187 Y149.008 E7.66451
G1 X129.522 Y147.825 E8.03016
G1 X131.723 Y146.385 E8.39758
G1 X133.763 Y144.708 E8.76649
G1 X135.748 Y142.683 E9.1626
G1 X136.032 Y142.474 E9.21186
G1 X136.295 Y142.34 E9.25309
G1 X136.728 Y142.201 E9.31662
G1 X137.128 Y142.183 E9.37255
G1 X137.456 Y142.219 E9.41865
G1 X137.687 Y142.287 E9.45229
G1 X137.556 Y141.829 E9.51883
G1 X137.468 Y141.15 E9.61448
G1 X137.509 Y140.449 E9.71257
G1 X137.61 Y139.935 E9.78574
G1 X137.71 Y139.603 E9.83418
G1 X137.934 Y139.042 E9.91856
G1 X138.234 Y138.571 E9.99657
G1 X138.407 Y138.343 E10.03655
G1 X138.75 Y137.953 E10.1091
G1 X139.263 Y137.53 E10.20199
G1 X139.477 Y137.397 E10.23718
G1 X139.989 Y137.119 E10.31857
G1 X140.788 Y136.843 E10.43666
G1 X140.567 Y136.605 E10.48203
G1 X140.394 Y136.338 E10.52647
G1 X140.213 Y135.928 E10.58907
G1 X140.154 Y135.461 E10.65483
G1 X140.161 Y135.196 E10.69186
G1 X140.226 Y134.844 E10.74186
G1 X140.957 Y132.233 E11.12063
G1 X141.385 Y129.663 E11.48458
G1 X141.531 Y127.064 E11.84821
G1 X141.388 Y124.398 E12.22117
G1 X140.961 Y121.813 E12.58717
G1 X140.214 Y119.141 E12.97474
G1 X140.139 Y118.598 E13.05131
G1 X140.235 Y118.042 E13.13013
G1 X140.392 Y117.697 E13.18308
G1 X140.571 Y117.423 E13.2288
G1 X140.808 Y117.169 E13.27733
G1 X140.337 Y117.047 E13.3453
G1 X139.646 Y116.749 E13.45042
G1 X139.023 Y116.32 E13.55608
G1 X138.548 Y115.868 E13.64768
G1 X138.125 Y115.308 E13.74571
G1 X137.851 Y114.782 E13.82856
G1 X137.723 Y114.464 E13.87645
G1 X137.567 Y113.954 E13.95095
G1 X137.469 Y113.189 E14.05869
G1 X137.506 Y112.529 E14.15103
G1 X137.655 Y111.76 E14.26045
G1 X137.437 Y111.817 E14.29193
G1 X137.113 Y111.849 E14.33741
G1 X136.662 Y111.822 E14.40052
G1 X136.215 Y111.656 E14.46713
G1 X135.776 Y111.382 E14.53942
G1 X133.716 Y109.279 E14.95066
G1 X131.696 Y107.624 E15.31545
G1 X129.483 Y106.185 E15.6842
G1 X127.156 Y105.01 E16.04835
G1 X124.692 Y104.086 E16.41596
G1 X121.916 Y103.376 E16.81623
G1 X121.623 Y103.238 E16.86147
G1 X121.351 Y103.06 E16.90688
G1 X121.106 Y102.834 E16.95344
G1 X120.94 Y102.629 E16.99029
G1 X120.769 Y102.332 E17.03817
G1 X120.618 Y101.926 E17.09868
G1 X120.198 Y102.331 E17.18018
G1 X119.61 Y102.739 E17.28016
G1 X118.994 Y103.027 E17.37515
G1 X118.745 Y103.107 E17.41168
G1 X118.249 Y103.236 E17.48328
G1 X117.512 Y103.308 E17.58672
G1 X116.794 Y103.244 E17.68742
G1 X116.127 Y103.075 E17.78354
G1 X115.415 Y102.755 E17.89258
G1 X114.814 Y102.341 E17.99453
G1 X114.382 Y101.927 E18.07811
G1 X114.227 Y102.341 E18.13987
G1 X114.052 Y102.639 E18.18814
G1 X113.817 Y102.927 E18.24007
G1 X113.485 Y103.175 E18.29796
G1 X113.1 Y103.372 E18.35837
G1 X110.282 Y104.094 E18.76474
G1 X107.813 Y105.024 E19.13329
G1 X105.49 Y106.201 E19.49708
G1 X103.281 Y107.644 E19.86566
G1 X101.283 Y109.282 E20.22657
G1 X99.221 Y111.386 E20.6381
G1 X98.766 Y111.665 E20.71266
G1 X98.329 Y111.823 E20.77757
G1 X97.869 Y111.849 E20.84193
G1 X97.533 Y111.811 E20.88917
G1 X97.334 Y111.753 E20.91813
G1 X97.488 Y112.454 E21.01839
G1 X97.53 Y113.164 E21.11774
G1 X97.442 Y113.918 E21.22378
G1 X97.278 Y114.46 E21.30289
G1 X97.158 Y114.759 E21.34789
G1 X96.883 Y115.3 E21.43267
G1 X96.458 Y115.86 E21.53088
G1 X95.98 Y116.32 E21.62355
G1 X95.334 Y116.754 E21.73226
G1 X94.677 Y117.043 E21.83253
G1 X94.191 Y117.17 E21.9027
G1 X94.431 Y117.427 E21.95182
G1 X94.615 Y117.713 E21.99932
G1 X94.769 Y118.061 E22.05248
G1 X94.859 Y118.6 E22.12882
G1 X94.784 Y119.141 E22.20512
G1 X94.033 Y121.842 E22.59674
G1 X93.609 Y124.429 E22.96295
G1 X93.468 Y127.024 E23.32598
G1 X93.61 Y129.622 E23.68945
G1 X94.039 Y132.219 E24.05714
G1 X94.82 Y135.014 E24.46254
G1 X94.847 Y135.34 E24.50824
G1 X94.834 Y135.617 E24.54697
G1 X94.739 Y136.035 E24.60686
G1 X94.602 Y136.345 E24.6542
G1 X94.423 Y136.617 E24.69969
G1 X94.212 Y136.846 E24.74318
G1 X94.998 Y137.113 E24.85915
G1 X95.664 Y137.473 E24.9649
G1 X96.241 Y137.945 E25.06904
G1 X96.589 Y138.34 E25.14258
G1 X96.787 Y138.607 E25.18901
G1 X97.063 Y139.053 E25.26228
G1 X97.283 Y139.585 E25.3427
G1 X97.381 Y139.906 E25.38958
G1 X97.488 Y140.401 E25.46033
G1 X97.533 Y141.148 E25.56487
G1 X97.434 Y141.868 E25.66639
G1 X97.314 Y142.286 E25.72714
G1 X97.541 Y142.219 E25.76021
G1 X97.889 Y142.183 E25.80908
G1 X98.186 Y142.199 E25.85063
G1 X98.612 Y142.292 E25.91154
G1 X98.969 Y142.474 E25.96751
G1 X99.268 Y142.697 E26.01962
G1 X101.238 Y144.709 E26.41297
G1 X103.277 Y146.386 E26.78177
G1 X105.471 Y147.82 E27.14791
G1 X107.81 Y149.007 E27.51432
G1 X110.24 Y149.925 E27.87719
G1 X113.068 Y150.65 E28.28501
G1 X113.469 Y150.831 E28.34647
G1 X113.85 Y151.149 E28.4158
G1 X114.081 Y151.434 E28.46705
G1 X114.234 Y151.703 E28.51028
G1 X114.386 Y152.115 E28.57162
G0 F6000 X116.518 Y151.215
G0 X117.166 Y151.103
G0 X117.825 Y151.102
G0 X118.471 Y151.212
G0 X119.091 Y151.431
G0 X119.659 Y151.746
G0 X120.172 Y152.159
G0 X120.59 Y152.633
G0 X120.96 Y153.281
G0 X121.124 Y154.372
G1 F809.4 X121.242 Y154 E28.65244
G1 F976.6 X121.328 Y153.732 E28.70075
G1 F1130.7 X121.377 Y153.302 E28.76491
G1 F1200 X121.384 Y152.438 E28.88561
G1 X121.425 Y152.218 E28.91687
G1 X121.59 Y151.869 E28.9708
G1 X121.815 Y151.624 E29.01727
G1 X122.189 Y151.414 E29.07719
G1 X124.969 Y150.698 E29.4782
G1 X127.509 Y149.742 E29.85732
G1 X129.923 Y148.519 E30.23535
G1 X132.198 Y147.031 E30.61509
G1 X134.305 Y145.298 E30.99619
G1 X136.284 Y143.272 E31.39182
G1 X136.606 Y143.077 E31.44441
G1 X136.813 Y143.01 E31.4748
G1 X137.202 Y142.974 E31.52938
G1 X137.567 Y143.082 E31.58255
G1 X138.28 Y143.492 E31.69744
G1 F1133.4 X138.627 Y143.639 E31.75318
G1 F975.6 X138.905 Y143.696 E31.80194
G1 F801.3 X139.296 Y143.777 E31.88547
G1 X139.107 Y143.424 E31.96923
G1 F975.6 X139.023 Y143.196 E32.01098
G1 F1133.4 X138.839 Y142.867 E32.06673
G1 F1200 X138.735 Y142.697 E32.09457
G1 X138.516 Y142.263 E32.16248
G1 X138.351 Y141.709 E32.24323
G1 X138.274 Y141.159 E32.32081
G1 X138.302 Y140.553 E32.40555
G1 X138.414 Y139.997 E32.48478
G1 X138.667 Y139.372 E32.57897
G1 X138.951 Y138.936 E32.65166
G1 X139.312 Y138.525 E32.72808
G1 X139.798 Y138.132 E32.81539
G1 X140.278 Y137.871 E32.89171
G1 X140.825 Y137.675 E32.97288
G1 X141.386 Y137.573 E33.05253
G1 X141.884 Y137.569 E33.1221
G1 X142.091 Y137.587 E33.15113
G1 F1133.4 X142.46 Y137.603 E33.20575
G1 F985.6 X142.691 Y137.583 E33.24519
G1 F819.1 X143.095 Y137.598 E33.32792
G1 X142.821 Y137.301 E33.41062
G1 F985.6 X142.639 Y137.105 E33.45611
G1 F1133.4 X142.345 Y136.882 E33.51068
G1 F1200 X141.524 Y136.407 E33.64318
G1 X141.201 Y136.117 E33.70382
G1 X141.017 Y135.774 E33.75819
G1 X140.953 Y135.43 E33.80707
G1 X140.969 Y135.159 E33.845
G1 X141.739 Y132.407 E34.24419
G1 X142.182 Y129.751 E34.62034
G1 X142.332 Y127.064 E34.99628
G1 X142.184 Y124.312 E35.38127
G1 X141.743 Y121.64 E35.75958
G1 X140.989 Y118.944 E36.15064
G1 X140.953 Y118.678 E36.18814
G1 X141.028 Y118.226 E36.25214
G1 X141.203 Y117.913 E36.30224
G1 X141.514 Y117.632 E36.36079
G1 X142.394 Y117.122 E36.50287
G1 F1124.1 X142.595 Y116.944 E36.54291
G1 F934.8 X142.86 Y116.653 E36.61349
G1 F784.3 X143.036 Y116.462 E36.669
G1 X142.785 Y116.469 E36.72267
G1 F906.5 X142.482 Y116.451 E36.7788
G1 F1083.5 X142.178 Y116.432 E36.82592
G1 F1200 X141.704 Y116.472 E36.89237
G1 X141.11 Y116.422 E36.97564
G1 X140.554 Y116.271 E37.05612
G1 X140.027 Y116.035 E37.13678
G1 X139.531 Y115.7 E37.22039
G1 X139.119 Y115.3 E37.30061
G1 X138.782 Y114.841 E37.38016
G1 X138.518 Y114.328 E37.46075
G1 X138.346 Y113.76 E37.54365
G1 X138.277 Y113.211 E37.62095
G1 X138.301 Y112.625 E37.70288
G1 X138.418 Y112.062 E37.7832
G1 X138.657 Y111.446 E37.8755
G1 X138.904 Y111.068 E37.93858
G1 F1118.9 X138.964 Y110.893 E37.9663
G1 F920.4 X139.115 Y110.529 E38.03807
G1 F764.9 X139.229 Y110.303 E38.09354
G1 X138.972 Y110.355 E38.151
G1 F920.4 X138.586 Y110.431 E38.22265
G1 F1118.9 X138.361 Y110.494 E38.25766
G1 F1200 X137.562 Y110.956 E38.38659
G1 X137.293 Y111.03 E38.42556
G1 X136.905 Y111.038 E38.47977
G1 X136.644 Y110.97 E38.51745
G1 X136.289 Y110.763 E38.57485
G1 X134.257 Y108.688 E38.98056
G1 X132.169 Y106.978 E39.35757
G1 X129.883 Y105.49 E39.7386
G1 X127.478 Y104.276 E40.11493
G1 X124.932 Y103.322 E40.49474
G1 X122.186 Y102.619 E40.89071
G1 X121.842 Y102.429 E40.9456
G1 X121.596 Y102.17 E40.9955
G1 X121.493 Y101.992 E41.02423
G1 X121.385 Y101.604 E41.08049
G1 X121.38 Y100.606 E41.21991
G1 F1092.2 X121.301 Y100.352 E41.26073
G1 F914.3 X121.12 Y99.809 E41.36568
G1 X120.787 Y100.275 E41.47069
G1 F1092.2 X120.639 Y100.433 E41.50392
G1 F1200 X120.426 Y100.862 E41.57082
G1 X120.07 Y101.344 E41.65453
G1 X119.651 Y101.739 E41.73497
G1 X119.202 Y102.048 E41.81111
G1 X118.642 Y102.307 E41.8973
G1 X118.07 Y102.453 E41.97977
G1 X117.498 Y102.504 E42.05999
G1 X116.88 Y102.441 E42.14676
G1 X116.344 Y102.297 E42.22429
G1 X115.82 Y102.062 E42.30452
G1 X115.358 Y101.747 E42.38263
G1 X114.932 Y101.346 E42.46436
G1 X114.583 Y100.878 E42.54591
G1 X114.368 Y100.453 E42.61244
G1 F1081.1 X114.191 Y100.205 E42.65969
G1 F902.3 X114.013 Y99.957 E42.7164
G1 F777.3 X113.88 Y99.736 E42.77203
G1 X113.796 Y99.989 E42.82951
G1 F932 X113.674 Y100.365 E42.90061
G1 F1125.4 X113.621 Y100.631 E42.94101
G1 F1200 X113.62 Y101.573 E43.0726
G1 X113.504 Y101.997 E43.13401
G1 X113.299 Y102.3 E43.18511
G1 X113.145 Y102.438 E43.214
G1 X112.823 Y102.617 E43.26546
G1 X110.041 Y103.33 E43.66664
G1 X107.491 Y104.29 E44.04727
G1 X105.089 Y105.507 E44.42342
G1 X102.807 Y106.997 E44.80413
G1 X100.742 Y108.69 E45.17715
G1 X98.705 Y110.77 E45.58384
G1 X98.43 Y110.939 E45.62893
G1 X98.093 Y111.038 E45.678
G1 X97.69 Y111.026 E45.73432
G1 X97.437 Y110.954 E45.77106
G1 X96.669 Y110.51 E45.89499
G1 F1112.4 X96.409 Y110.433 E45.93585
G1 F910 X96.014 Y110.354 E46.01006
G1 F761.3 X95.781 Y110.308 E46.06235
G1 X95.881 Y110.516 E46.11317
G1 F910 X96.037 Y110.888 E46.18748
G1 F1112.4 X96.108 Y111.089 E46.2196
G1 F1200 X96.363 Y111.503 E46.28753
G1 X96.579 Y112.041 E46.36851
G1 X96.698 Y112.616 E46.45054
G1 X96.727 Y113.159 E46.5265
G1 X96.651 Y113.78 E46.6139
G1 X96.484 Y114.32 E46.69286
G1 X96.222 Y114.837 E46.77382
G1 X95.883 Y115.296 E46.85353
G1 X95.445 Y115.721 E46.93879
G1 X94.956 Y116.045 E47.02073
G1 X94.453 Y116.269 E47.09765
G1 X93.883 Y116.424 E47.18016
G1 X93.412 Y116.463 E47.24618
G1 X93.207 Y116.464 E47.27482
G1 F1125.4 X92.824 Y116.485 E47.33195
G1 F962.9 X92.592 Y116.537 E47.37334
G1 F788.2 X92.197 Y116.569 E47.45763
G1 X92.456 Y116.87 E47.54208
G1 F962.9 X92.638 Y117.08 E47.59046
G1 F1125.4 X92.94 Y117.316 E47.64755
G1 F1200 X93.49 Y117.635 E47.73637
G1 X93.864 Y117.976 E47.80707
G1 X94.008 Y118.347 E47.86266
G1 X94.045 Y118.679 E47.90933
G1 X94.009 Y118.944 E47.94669
G1 X93.25 Y121.669 E48.34184
G1 X92.813 Y124.342 E48.72019
G1 X92.667 Y127.024 E49.0954
G1 X92.814 Y129.709 E49.47104
G1 X93.257 Y132.392 E49.85091
G1 X94.057 Y135.253 E50.2659
G1 X94.02 Y135.641 E50.32035
G1 X93.949 Y135.862 E50.35277
G1 X93.793 Y136.124 E50.39537
G1 X93.473 Y136.409 E50.45523
G1 X92.65 Y136.884 E50.58797
G1 F1128.1 X92.351 Y137.115 E50.64412
G1 F978.6 X92.17 Y137.311 E50.68982
G1 F816.3 X91.902 Y137.599 E50.7706
G1 X92.294 Y137.582 E50.85118
G1 F978.6 X92.527 Y137.603 E50.89125
G1 F1128.1 X92.905 Y137.589 E50.94746
G1 F1200 X93.107 Y137.572 E50.97578
G1 X93.6 Y137.571 E51.04464
G1 X94.165 Y137.673 E51.12485
G1 X94.719 Y137.869 E51.20694
G1 X95.199 Y138.131 E51.28333
G1 X95.68 Y138.519 E51.36966
G1 X96.051 Y138.939 E51.44794
G1 X96.352 Y139.422 E51.52744
G1 X96.576 Y139.972 E51.6104
G1 X96.702 Y140.548 E51.69276
G1 X96.724 Y141.111 E51.77147
G1 X96.646 Y141.74 E51.86001
G1 X96.485 Y142.256 E51.93552
G1 X96.272 Y142.685 E52.00243
G1 X96.162 Y142.863 E52.03166
G1 F1128.1 X95.983 Y143.193 E52.08744
G1 F971.7 X95.903 Y143.415 E52.12815
G1 F799.3 X95.715 Y143.769 E52.21221
G1 X96.107 Y143.688 E52.29616
G1 F971.7 X96.375 Y143.633 E52.34336
G1 F1128.1 X96.723 Y143.492 E52.39915
G1 F1200 X97.433 Y143.082 E52.51368
G1 X97.695 Y143.004 E52.55187
G1 X98.179 Y142.989 E52.61951
G1 X98.552 Y143.157 E52.67666
G1 X98.732 Y143.291 E52.70801
G1 X100.696 Y145.299 E53.10038
G1 X102.803 Y147.032 E53.48148
G1 X105.07 Y148.513 E53.85975
G1 X107.487 Y149.74 E54.2384
G1 X109.998 Y150.689 E54.61338
G1 X112.809 Y151.41 E55.01877
G1 X112.999 Y151.497 E55.04796
G1 X113.279 Y151.709 E55.09702
G1 X113.417 Y151.88 E55.12772
G1 X113.576 Y152.224 E55.18066
G1 X113.617 Y152.446 E55.21219
G1 X113.624 Y153.353 E55.3389
G1 F1130.7 X113.672 Y153.739 E55.39656
G1 F979.6 X113.756 Y153.999 E55.44332
G1 F812.9 X113.875 Y154.377 E55.52504
G1 X114.07 Y154.032 E55.60677
G1 F979.6 X114.213 Y153.843 E55.64732
G1 F1130.7 X114.403 Y153.503 E55.70506
G1 F1200 X114.495 Y153.322 E55.73343
G1 X114.748 Y152.919 E55.7999
G1 X115.129 Y152.487 E55.88036
G1 X115.553 Y152.133 E55.95752
G1 X116.085 Y151.835 E56.0427
G1 X116.633 Y151.64 E56.12396
G1 X117.186 Y151.547 E56.20229
G1 X117.791 Y151.54 E56.28681
G1 X118.354 Y151.637 E56.36662
G1 X118.917 Y151.835 E56.44999
