;FLAVOR:Marlin
;TIME:5000
;Filament used: 14.981m
;Layer height: 0.48
;MINX:18.308
;MINY:31.009
;MINZ:0.4
;MAXX:204.92
;MAXY:207.853
;MAXZ:13.84
;Generated with Cura_SteamEngine 5.3.1
M82 ;absolute extrusion mode
; START G-CODE BEGIN

M104 S220.0 ﻿T0
M140 S60.0

G28 ; Home all axes
G92 E0 ; Reset Extruder
M420 S1 ; Load Mesh

M109 S220.0 ﻿T0
M190 S60.0

G92 E0 ; Reset Extruder

G1 X0.6 Y20 Z0.3 F5000.0 ; Move to start position
G1 X0.6 Y200.0 Z0.3 F1500.0 E15 ; Draw the first line
G1 X0.9 Y200.0 Z0.3 F5000.0 ; Move to side a little
G1 X0.9 Y20 Z0.3 F1500.0 E30 ; Draw the second line
G92 E0 ; Reset Extruder
G1 Z2.0 F3000 ; Move Z Axis up little to prevent scratching of Heat Bed
G1 X5 Y20 Z0.3 F5000.0 ; Move over to prevent blob squish

; START G-CODE END
G92 E0
G92 E0
G1 F1500 E-6
;LAYER_COUNT:29
;LAYER:0
M107
;MESH:Casted Wheel Mold Bottom 2 - TPU.STL(1)
G0 F6000 X40.929 Y40.29 Z0.4
;TYPE:WALL-INNER
G1 F1500 E0
G1 F1200 X40.352 Y40.439 E0.08325
G1 X39.743 Y40.491 E0.16863
G1 X39.148 Y40.439 E0.25206
G1 X38.57 Y40.291 E0.33541
G1 X38.019 Y40.04 E0.41999
G1 X37.61 Y39.764 E0.48892
G1 F1159.4 X37.427 Y39.653 E0.51986
G1 F1021.3 X36.986 Y39.335 E0.6091
G1 F953.3 X36.643 Y38.832 E0.71616
G1 F971.7 X36.371 Y38.288 E0.82109
G1 F973.6 X36.195 Y37.709 E0.92528
G1 F974.6 X36.119 Y37.101 E1.03066
G1 X36.144 Y36.493 E1.13533
G1 F975.6 X36.283 Y35.864 E1.24601
G1 X36.509 Y35.309 E1.34897
G1 X36.821 Y34.8 E1.45155
G1 X37.243 Y34.315 E1.56202
G1 X37.69 Y33.959 E1.6602
G1 X38.245 Y33.638 E1.77037
G1 X38.827 Y33.432 E1.87644
G1 X39.419 Y33.329 E1.97969
G1 X40.045 Y33.323 E2.08726
G1 F974.6 X40.646 Y33.425 E2.19211
G1 F975.6 X41.225 Y33.625 E2.29736
G1 F979.6 X41.761 Y33.92 E2.40205
G1 F982.6 X42.231 Y34.29 E2.5041
G1 X42.644 Y34.747 E2.60918
G1 F966.8 X42.994 Y35.3 E2.72266
G1 F942.1 X43.226 Y35.812 E2.82268
G1 F1027.8 X43.262 Y36.396 E2.91811
G1 F1158 X43.29 Y37.096 E3.01952
G1 F1186.7 X43.214 Y37.701 E3.10565
G1 F1200 X43.035 Y38.277 E3.18991
G1 X42.768 Y38.805 E3.27256
G1 X42.41 Y39.291 E3.35689
G1 X41.951 Y39.721 E3.44475
G1 X41.463 Y40.048 E3.52681
G1 X40.929 Y40.29 E3.6087
G1 F1500 E-2.3913
G0 F6000 X37.456 Y39.981
G0 X36.643 Y39.505
G0 X36.743 Y40.642
G0 X39.583 Y46.663
G0 X35.775 Y50.157
G0 X32.61 Y53.527
G0 X29.802 Y57.26
G0 X24.599 Y65.953
G0 X22.618 Y65.394
G0 X21.811 Y67.617
G0 X20.698 Y72.001
G0 X20.034 Y76.43
G0 X19.808 Y80.942
G0 X20.034 Y85.454
G0 X20.698 Y89.883
G0 X21.81 Y94.27
G0 X22.606 Y96.494
G0 X25.081 Y96.113
G0 X27.482 Y100.725
G0 X29.832 Y104.676
G0 X32.647 Y108.402
G0 X35.77 Y111.723
G0 X39.683 Y115.74
G0 X36.574 Y121.586
G0 X36.363 Y122.397
G0 X40.84 Y121.295
G0 X42.905 Y123.285
G0 X43.468 Y126.335
G0 X43.17 Y126.225
G1 F1500 E3.6087
G1 F961.9 X42.85 Y126.838 E3.72921
G1 F971.7 X42.501 Y127.313 E3.8309
G1 F975.6 X42.058 Y127.747 E3.93746
G1 F979.6 X41.549 Y128.095 E4.04297
G1 F982.6 X40.989 Y128.353 E4.14816
G1 F978.6 X40.409 Y128.51 E4.25108
G1 F975.6 X39.813 Y128.569 E4.35399
G1 F978.6 X39.197 Y128.53 E4.45972
G1 F977.6 X38.584 Y128.378 E4.56802
G1 F973.6 X38.199 Y128.213 E4.64013
G1 F976.6 X37.963 Y128.093 E4.68558
G1 X37.681 Y127.912 E4.7431
G1 F977.6 X37.46 Y127.751 E4.78998
G1 X37.211 Y127.524 E4.84776
G1 F976.6 X37.022 Y127.33 E4.89425
G1 F975.6 X36.827 Y127.08 E4.94872
G1 X36.661 Y126.841 E4.99872
G1 X36.516 Y126.575 E5.05078
G1 X36.385 Y126.294 E5.10405
G1 X36.292 Y126.025 E5.15295
G1 F976.6 X36.204 Y125.711 E5.20893
G1 X36.16 Y125.441 E5.25588
G1 X36.125 Y125.104 E5.31404
G1 F977.6 X36.125 Y124.845 E5.35845
G1 F976.6 X36.149 Y124.494 E5.41884
G1 X36.19 Y124.244 E5.46232
G1 X36.292 Y123.81 E5.53885
G1 F980.6 X36.495 Y123.333 E5.62747
G1 F976.6 X36.704 Y122.952 E5.70206
G1 F960 X36.89 Y122.68 E5.7596
G1 F1000 X37.19 Y122.419 E5.82626
G1 F1111.1 X37.37 Y122.305 E5.8584
G1 F1176.5 X37.781 Y121.991 E5.9321
G1 F1188.1 X38.297 Y121.704 E6.0154
G1 F1197 X38.855 Y121.507 E6.09827
G1 F1200 X39.448 Y121.405 E6.18233
G1 X40.055 Y121.405 E6.26712
G1 X40.645 Y121.507 E6.35076
G1 X41.195 Y121.702 E6.43228
G1 X41.721 Y121.996 E6.51646
G1 X42.202 Y122.376 E6.60209
G1 X42.598 Y122.825 E6.68572
G1 X42.915 Y123.343 E6.77055
G1 X43.142 Y123.904 E6.85509
G1 F1197 X43.263 Y124.479 E6.93738
G1 F1189.6 X43.291 Y125.055 E7.01864
G1 F1177.9 X43.238 Y125.581 E7.09388
G1 F1108.5 X43.238 Y125.799 E7.12684
G1 F1002.1 X43.17 Y126.225 E7.19901
G1 F1500 E1.19901
G0 F6000 X43.468 Y126.335
G0 X43.692 Y126.495
G0 X44.822 Y126.313
G0 X48.093 Y120.659
G0 X62.273 Y124.022
G0 X72.043 Y123.63
G0 X72.715 Y125.882
G1 F1500 E7.19901
G1 F1200 X75.361 Y125.391 E7.57494
G1 X79.694 Y124.169 E8.20384
G1 X83.929 Y122.503 E8.83957
G1 X87.957 Y120.438 E9.47189
G1 X91.751 Y117.987 E10.10286
G1 X95.3 Y115.159 E10.73677
G1 X98.559 Y111.99 E11.37178
G1 X100.289 Y109.968 E11.74351
G1 X99.071 Y109.033 E11.95801
G1 X98.809 Y108.756 E12.01127
G1 X98.644 Y108.398 E12.06634
G1 X98.603 Y108.147 E12.10186
G1 X98.649 Y107.744 E12.15853
G1 X98.779 Y107.451 E12.2033
G1 X101.351 Y103.799 E12.82728
G1 X103.596 Y99.784 E13.46987
G1 X104.139 Y98.522 E13.66179
G1 X105.419 Y95.49 E14.12153
G1 X106.355 Y92.359 E14.57804
G1 X106.759 Y91.046 E14.76994
G1 X107.34 Y87.913 E15.21506
G1 X107.602 Y86.559 E15.40771
G1 X107.791 Y86.156 E15.46989
G1 X108.051 Y85.873 E15.52357
G1 X108.386 Y85.718 E15.57514
G1 X108.697 Y85.659 E15.61936
G1 X113.969 Y85.657 E16.35582
G1 F1186.7 X114.365 Y85.648 E16.41177
G1 F1036.7 X115.092 Y85.539 E16.53064
G1 F949.6 X115.891 Y85.563 E16.67175
G1 F972.6 X116.709 Y85.496 E16.8132
G1 F975.6 X117.448 Y85.309 E16.94418
G1 X118.147 Y85.003 E17.07529
G1 X118.791 Y84.581 E17.20758
G1 X119.343 Y84.073 E17.33648
G1 X119.82 Y83.461 E17.4698
G1 F974.6 X120.176 Y82.802 E17.59863
G1 F973.6 X120.427 Y82.068 E17.73219
G1 F978.6 X120.476 Y81.808 E17.77751
G1 F977.6 X120.551 Y81.327 E17.86099
G1 F971.7 X120.551 Y80.556 E17.994
G1 F976.6 X120.508 Y80.268 E18.04398
G1 X120.427 Y79.816 E18.1228
G1 F977.6 X120.333 Y79.524 E18.1754
G1 X120.175 Y79.083 E18.25573
G1 X120.033 Y78.809 E18.30865
G1 X119.817 Y78.424 E18.38434
G1 X119.62 Y78.159 E18.44096
G1 X119.342 Y77.812 E18.51721
G1 F978.6 X119.103 Y77.583 E18.57391
G1 X118.79 Y77.304 E18.64573
G1 F977.6 X118.5 Y77.107 E18.70585
G1 F978.6 X118.147 Y76.883 E18.77746
G1 X117.823 Y76.734 E18.83855
G1 X117.447 Y76.577 E18.90835
G1 X117.091 Y76.48 E18.97155
G1 X116.708 Y76.39 E19.03895
G1 F976.6 X116.342 Y76.351 E19.10212
G1 F974.6 X115.891 Y76.323 E19.17984
G1 F961.9 X115.442 Y76.329 E19.2581
G1 F1049.2 X114.744 Y76.239 E19.37054
G1 F1182.3 X114.342 Y76.226 E19.42757
G1 F1200 X108.597 Y76.225 E20.2301
G1 X108.261 Y76.115 E20.27949
G1 X108.06 Y75.996 E20.31212
G1 X107.827 Y75.774 E20.35708
G1 X107.702 Y75.581 E20.3892
G1 X107.591 Y75.27 E20.43533
G1 X107.007 Y72.134 E20.88094
G1 X106.751 Y70.815 E21.06863
G1 X105.784 Y67.587 E21.53936
G1 X105.413 Y66.378 E21.71602
G1 X104.291 Y63.723 E22.11866
G1 X103.576 Y62.061 E22.3714
G1 X101.348 Y58.08 E23.00869
G1 X99.546 Y55.536 E23.44418
G1 X98.774 Y54.424 E23.63329
G1 X98.626 Y54.043 E23.69039
G1 X98.604 Y53.739 E23.73296
G1 X98.644 Y53.49 E23.76819
G1 X98.807 Y53.135 E23.82276
G1 X99.072 Y52.852 E23.87692
G1 X100.283 Y51.922 E24.09022
G1 X98.551 Y49.89 E24.46319
G1 X95.301 Y46.723 E25.0971
G1 X91.752 Y43.897 E25.73085
G1 X87.957 Y41.446 E26.36193
G1 X83.929 Y39.382 E26.99418
G1 X79.694 Y37.715 E27.62996
G1 X75.348 Y36.489 E28.26076
G1 X72.717 Y35.998 E28.63464
G1 X72.516 Y37.519 E28.84896
G1 X72.405 Y37.889 E28.90292
G1 X72.29 Y38.076 E28.93359
G1 X72.006 Y38.372 E28.99089
G1 X71.657 Y38.516 E29.04363
G1 X71.346 Y38.569 E29.0877
G1 X66.847 Y38.163 E29.71873
G1 X65.431 Y38.177 E29.91655
G1 X62.297 Y38.225 E30.35439
G1 X60.744 Y38.403 E30.57276
G1 X57.621 Y38.792 E31.01239
G1 X54.436 Y39.547 E31.46964
G1 X53.102 Y39.854 E31.66086
G1 X50.311 Y40.845 E32.07459
G1 X48.776 Y41.372 E32.3013
G1 X48.574 Y41.408 E32.32997
G1 X48.218 Y41.387 E32.37978
G1 X47.876 Y41.259 E32.43079
G1 X47.667 Y41.109 E32.46673
G1 X47.445 Y40.846 E32.51481
G1 X44.741 Y36.163 E33.27021
G1 F1172.2 X44.565 Y35.897 E33.31582
G1 F1027.8 X44.156 Y35.378 E33.42359
G1 F950.5 X43.773 Y34.677 E33.56447
G1 F975.6 X43.495 Y34.264 E33.65001
G1 F977.6 X43.316 Y34.017 E33.70232
G1 F972.6 X42.779 Y33.463 E33.83529
G1 X42.169 Y33.016 E33.96563
G1 X41.492 Y32.673 E34.09643
G1 F973.6 X40.759 Y32.443 E34.22869
G1 F974.6 X40.004 Y32.339 E34.35978
G1 F975.6 X39.243 Y32.359 E34.49058
G1 F974.6 X38.493 Y32.505 E34.622
G1 F975.6 X37.782 Y32.772 E34.75249
G1 X37.122 Y33.153 E34.88343
G1 X36.529 Y33.64 E35.01528
G1 X36.024 Y34.221 E35.14755
G1 X35.631 Y34.862 E35.27674
G1 X35.344 Y35.565 E35.40721
G1 X35.176 Y36.314 E35.5391
G1 F974.6 X35.134 Y37.074 E35.67002
G1 X35.218 Y37.837 E35.80204
G1 X35.424 Y38.562 E35.93168
G1 F972.6 X35.777 Y39.31 E36.07423
G1 F953.3 X36.149 Y39.92 E36.19986
G1 F1021.3 X36.375 Y40.476 E36.29837
G1 F1159.4 X36.519 Y40.784 E36.34753
G1 F1200 X39.27 Y45.549 E37.11613
G1 X39.394 Y45.885 E37.16616
G1 X39.428 Y46.249 E37.21723
G1 X39.291 Y46.696 E37.28254
G1 X39.073 Y46.977 E37.33222
G1 X35.592 Y49.964 E37.97298
G1 X33.323 Y52.37 E38.43496
G1 X32.407 Y53.355 E38.62286
G1 X30.367 Y56.055 E39.09558
G1 X29.581 Y57.113 E39.2797
G1 X27.25 Y61.027 E39.91608
G1 X26.161 Y63.396 E40.2803
G1 X26.15 Y63.398 E40.28186
G1 X25.394 Y65.043 E40.53476
G1 X25.154 Y65.367 E40.59108
G1 X24.861 Y65.593 E40.64278
G1 X24.458 Y65.694 E40.70081
G1 X24.238 Y65.699 E40.73155
G1 X23.862 Y65.61 E40.78553
G1 X22.453 Y65.025 E40.99865
G1 X22.013 Y66.277 E41.18403
G1 X21.558 Y67.538 E41.3713
G1 X20.438 Y71.948 E42.0069
G1 X19.77 Y76.404 E42.63632
G1 X19.544 Y80.942 E43.27103
G1 X19.77 Y85.48 E43.90574
G1 X20.438 Y89.936 E44.53517
G1 X21.556 Y94.347 E45.17084
G1 X22.443 Y96.862 E45.54337
G1 X23.863 Y96.273 E45.75812
G1 X24.234 Y96.186 E45.81136
G1 X24.455 Y96.19 E45.84223
G1 X24.858 Y96.289 E45.9002
G1 X25.154 Y96.517 E45.9524
G1 X25.394 Y96.841 E46.00872
G1 X26.771 Y99.834 E46.46895
G1 X27.248 Y100.85 E46.62574
G1 X29.612 Y104.823 E47.27156
G1 X30.47 Y105.968 E47.47143
G1 X32.446 Y108.574 E47.92828
G1 X34.655 Y110.914 E48.37781
G1 X35.587 Y111.916 E48.56897
G1 X38.02 Y113.994 E49.01593
G1 X39.042 Y114.882 E49.20506
G1 X39.295 Y115.223 E49.26438
G1 X39.431 Y115.633 E49.32472
G1 X39.394 Y116.002 E49.37652
G1 X39.301 Y116.277 E49.41708
G1 X36.535 Y121.076 E50.19084
G1 F1183.7 X36.345 Y121.428 E50.24749
G1 F1046.9 X36.071 Y122.092 E50.36251
G1 F958.1 X35.782 Y122.572 E50.46054
G1 F974.6 X35.61 Y122.915 E50.52653
G1 F976.6 X35.425 Y123.322 E50.60327
G1 X35.33 Y123.634 E50.65925
G1 X35.221 Y124.047 E50.73257
G1 X35.176 Y124.388 E50.79161
G1 X35.136 Y124.81 E50.86437
G1 F977.6 X35.149 Y125.157 E50.92391
G1 F976.6 X35.178 Y125.57 E50.99498
G1 X35.25 Y125.923 E51.05682
G1 X35.345 Y126.318 E51.12655
G1 F975.6 X35.479 Y126.663 E51.19014
G1 X35.632 Y127.022 E51.2572
G1 X35.827 Y127.352 E51.32306
G1 X36.029 Y127.668 E51.3875
G1 X36.286 Y127.974 E51.45616
G1 F976.6 X36.524 Y128.236 E51.51692
G1 F977.6 X36.84 Y128.505 E51.58808
G1 X37.124 Y128.729 E51.6501
G1 F976.6 X37.473 Y128.94 E51.7201
G1 X37.783 Y129.11 E51.78079
G1 X38.18 Y129.266 E51.854
G1 F977.6 X38.493 Y129.377 E51.91095
G1 F976.6 X38.912 Y129.465 E51.98444
G1 X39.244 Y129.523 E52.04229
G1 X39.692 Y129.542 E52.11926
G1 X40.004 Y129.543 E52.17281
G1 X40.459 Y129.488 E52.25148
G1 X40.759 Y129.44 E52.30363
G1 F977.6 X41.203 Y129.307 E52.3831
G1 X41.489 Y129.212 E52.43478
G1 F972.6 X42.169 Y128.868 E52.56612
G1 F973.6 X42.782 Y128.418 E52.69704
G1 X43.315 Y127.869 E52.82878
G1 F977.6 X43.604 Y127.462 E52.91438
G1 F975.6 X43.777 Y127.203 E52.96789
G1 F953.3 X44.107 Y126.598 E53.08907
G1 F1042.3 X44.556 Y126.024 E53.20627
G1 F1185.2 X44.764 Y125.682 E53.26289
G1 F1200 X47.435 Y121.055 E54.00921
G1 X47.666 Y120.775 E54.05991
G1 X47.963 Y120.563 E54.11089
G1 X48.422 Y120.458 E54.17666
G1 X48.766 Y120.508 E54.22522
G1 X53.126 Y122.036 E54.8706
G1 X56.314 Y122.79 E55.32823
G1 X57.653 Y123.096 E55.5201
G1 X61.253 Y123.545 E56.02689
G1 X62.296 Y123.659 E56.17346
G1 X66.843 Y123.722 E56.8087
G1 X69.949 Y123.433 E57.24446
G1 X71.278 Y123.322 E57.43076
G1 X71.507 Y123.335 E57.4628
G1 X71.905 Y123.455 E57.52087
G1 X72.175 Y123.675 E57.56952
G1 X72.4 Y123.99 E57.62359
G1 X72.515 Y124.364 E57.67825
G1 X72.715 Y125.882 E57.89214
G1 F1500 E51.89214
G0 F6000 X79.609 Y123.917
G0 X83.82 Y122.262
G0 X87.824 Y120.208
G0 X91.597 Y117.772
G0 X95.126 Y114.96
G0 X98.366 Y111.809
G0 X99.889 Y110.011
G0 X98.367 Y107.79
G0 X101.126 Y103.658
G0 X103.357 Y99.666
G0 X107.108 Y91.139
G0 X108.081 Y86.028
G0 X113.965 Y86.028
G0 X115.209 Y85.121
G0 X115.975 Y85.173
G0 X115.185 Y84.851
G0 X115.25 Y84.534
G1 F1500 E57.89214
G1 F996.9 X114.854 Y84.365 E57.96454
G1 F1106 X114.668 Y84.248 E57.99784
G1 F1179.4 X114.212 Y84.028 E58.06981
G1 F1191.1 X113.721 Y83.698 E58.15307
G1 F1197 X113.286 Y83.28 E58.23755
G1 F1200 X112.934 Y82.803 E58.32037
G1 X112.658 Y82.255 E58.40608
G1 X112.484 Y81.687 E58.48906
G1 X112.414 Y81.098 E58.57192
G1 X112.437 Y80.487 E58.65733
G1 X112.559 Y79.906 E58.74026
G1 X112.785 Y79.348 E58.82436
G1 X113.105 Y78.829 E58.90954
G1 X113.497 Y78.384 E58.99238
G1 X113.968 Y78.006 E59.07674
G1 F1191.1 X114.465 Y77.725 E59.1571
G1 F1173.6 X114.964 Y77.533 E59.23347
G1 F1111.1 X115.149 Y77.445 E59.26437
G1 F1013.7 X115.579 Y77.311 E59.33885
G1 F974.6 X116.26 Y77.326 E59.45601
G1 F976.6 X116.542 Y77.365 E59.50488
G1 F978.6 X116.853 Y77.427 E59.5592
G1 X117.123 Y77.512 E59.60769
G1 X117.431 Y77.629 E59.66412
G1 X117.671 Y77.75 E59.71016
G1 X117.966 Y77.924 E59.76883
G1 F977.6 X118.177 Y78.079 E59.81373
G1 F978.6 X118.515 Y78.364 E59.88946
G1 F984.6 X118.91 Y78.83 E59.99346
G1 F983.6 X119.221 Y79.354 E60.09731
G1 F980.6 X119.442 Y79.929 E60.20262
G1 F974.6 X119.561 Y80.526 E60.30732
G1 F971.7 X119.579 Y81.143 E60.41381
G1 F975.6 X119.5 Y81.731 E60.51575
G1 F976.6 X119.313 Y82.323 E60.62231
G1 F974.6 X119.031 Y82.87 E60.72816
G1 F975.6 X118.669 Y83.356 E60.83229
G1 X118.194 Y83.798 E60.94377
G1 X117.728 Y84.111 E61.04022
G1 X117.17 Y84.366 E61.14564
G1 X116.551 Y84.523 E61.25536
G1 F973.6 X115.946 Y84.577 E61.35994
G1 F961.9 X115.25 Y84.534 E61.48146
G0 F6000 X115.155 Y84.899
G0 X115.837 Y84.977
G0 X115.948 Y83.682
;TYPE:WALL-OUTER
G1 F1200 X115.451 Y83.634 E61.55121
G1 X115.035 Y83.526 E61.61125
G1 X114.644 Y83.348 E61.67126
G1 X114.227 Y83.075 E61.74089
G1 X113.892 Y82.752 E61.80589
G1 X113.603 Y82.353 E61.87472
G1 X113.396 Y81.93 E61.9405
G1 X113.28 Y81.553 E61.9956
G1 X113.213 Y81.058 E62.06538
G1 X113.232 Y80.606 E62.12858
G1 X113.328 Y80.138 E62.19532
G1 X113.519 Y79.682 E62.26438
G1 X113.771 Y79.283 E62.3303
G1 X114.079 Y78.942 E62.39449
G1 X114.392 Y78.691 E62.45054
G1 X114.819 Y78.444 E62.51945
G1 X115.296 Y78.283 E62.58977
G1 X115.682 Y78.216 E62.6445
G1 X116.184 Y78.212 E62.71463
G1 X116.635 Y78.289 E62.77854
G1 X117.074 Y78.443 E62.84353
G1 X117.48 Y78.668 E62.90837
G1 X117.84 Y78.956 E62.97277
G1 X118.147 Y79.304 E63.0376
G1 X118.393 Y79.7 E63.10272
G1 X118.567 Y80.129 E63.16739
G1 X118.664 Y80.576 E63.23129
G1 X118.687 Y81.038 E63.29591
G1 X118.633 Y81.501 E63.36102
G1 X118.5 Y81.942 E63.42537
G1 X118.291 Y82.364 E63.49115
G1 X118.024 Y82.733 E63.55478
G1 X117.693 Y83.056 E63.61938
G1 X117.275 Y83.339 E63.6899
G1 X116.856 Y83.528 E63.75411
G1 X116.411 Y83.642 E63.81828
G1 X115.948 Y83.682 E63.8832
G1 F1500 E57.8832
G0 F6000 X115.837 Y84.977
G0 X111.849 Y86.028
G0 X108.081 Y86.028
G0 X105.169 Y95.401
G0 X103.357 Y99.666
G0 X98.405 Y108.57
G0 X99.889 Y110.011
G0 X98.366 Y111.809
G0 X95.126 Y114.96
G0 X91.597 Y117.772
G0 X87.824 Y120.208
G0 X83.82 Y122.262
G0 X80.031 Y123.751
G0 X72.431 Y126.27
G0 X72.032 Y126.822
G1 F1500 E63.8832
G1 F1200 X75.543 Y126.171 E64.38202
G1 X79.95 Y124.928 E65.02166
G1 X84.259 Y123.233 E65.66849
G1 X88.357 Y121.132 E66.3118
G1 X92.219 Y118.637 E66.95409
G1 X95.83 Y115.76 E67.59904
G1 X99.143 Y112.538 E68.24462
G1 X101.442 Y109.843 E68.73946
G1 X99.489 Y108.345 E69.08329
G1 X99.416 Y108.186 E69.10773
G1 X99.413 Y107.983 E69.13609
G1 X99.456 Y107.877 E69.15207
G1 X102.03 Y104.224 E69.77633
G1 X104.314 Y100.138 E70.43023
G1 X104.875 Y98.836 E70.62828
