;FLAVOR:Marlin
;TIME:9426
;Filament used: 25.5859m
;Layer height: 0.48
;MINX:76.122
;MINY:57.082
;MINZ:0.4
;MAXX:198.525
;MAXY:177.92
;MAXZ:28.72
;Generated with Cura_SteamEngine 5.3.1
M82 ;absolute extrusion mode
; START G-CODE BEGIN

M104 S220.0 ﻿T0
M140 S60.0

G28 ; Home all axes
G92 E0 ; Reset Extruder
M420 S1 ; Load Mesh

M109 S220.0 ﻿T0
M190 S60.0

G92 E0 ; Reset Extruder

G1 X0.6 Y20 Z0.3 F5000.0 ; Move to start position
G1 X0.6 Y200.0 Z0.3 F1500.0 E15 ; Draw the first line
G1 X0.9 Y200.0 Z0.3 F5000.0 ; Move to side a little
G1 X0.9 Y20 Z0.3 F1500.0 E30 ; Draw the second line
G92 E0 ; Reset Extruder
G1 Z2.0 F3000 ; Move Z Axis up little to prevent scratching of Heat Bed
G1 X5 Y20 Z0.3 F5000.0 ; Move over to prevent blob squish

; START G-CODE END
G92 E0
G92 E0
G1 F1500 E-6
;LAYER_COUNT:60
;LAYER:0
M107
G0 F6000 X124.416 Y60.573 Z0.4
;TYPE:SUPPORT-INTERFACE
G1 F1500 E0
G1 F1200 X125.316 Y60.054 E0.14513
G1 X126.079 Y59.614 E0.26817
G1 X157.594 Y114.2 E9.07304
G1 X158.082 Y115.25 E9.23479
G1 X158.38 Y116.373 E9.39709
G1 X158.477 Y117.506 E9.55594
G1 X158.376 Y118.66 E9.71776
G1 X158.069 Y119.787 E9.88093
G1 X157.597 Y120.795 E10.03641
G1 X126.08 Y175.387 E18.84215
G1 X124.902 Y174.707 E19.03216
G1 X124.314 Y174.367 E19.12704
G1 X124.417 Y174.426 E19.14362
G1 X155.935 Y119.833 E27.94955
G1 X156.113 Y119.456 E28.00779
G1 X156.33 Y118.927 E28.08767
G1 X156.446 Y118.5 E28.14948
G1 X156.52 Y117.932 E28.22949
G1 X156.557 Y117.501 E28.28992
G1 X156.521 Y117.067 E28.35076
G1 X156.445 Y116.501 E28.43053
G1 X156.332 Y116.072 E28.4925
G1 X156.112 Y115.545 E28.57228
G1 X155.935 Y115.168 E28.63046
G1 X124.416 Y60.573 E37.4367
G1 F1500 E31.4367
G0 F6000 X123.885 Y59.652
G0 X126.464 Y58.176
G0 X148.97 Y73.576
G0 X149.886 Y74.118
G1 F1500 E37.4367
G1 F1200 X150.688 Y72.765 E37.65641
G1 X151.559 Y71.482 E37.87304
G1 X152.527 Y70.236 E38.09345
G1 X153.548 Y69.074 E38.30953
G1 X154.395 Y68.228 E38.47676
G1 X155.032 Y67.451 E38.61711
G1 X155.736 Y66.831 E38.74816
G1 X156.976 Y65.869 E38.96739
G1 X157.67 Y65.378 E39.08615
G1 X158.612 Y64.771 E39.24269
G1 X159.698 Y64.142 E39.41801
G1 X160.811 Y63.571 E39.59275
G1 X162.477 Y62.846 E39.84656
G1 X163.944 Y62.317 E40.06441
G1 X164.03 Y62.292 E40.07692
G1 X164.943 Y62.169 E40.20561
G1 X165.492 Y62.01 E40.28545
G1 X167.022 Y61.67 E40.5044
G1 X168.552 Y61.427 E40.72081
G1 X170.095 Y61.284 E40.93727
G1 X171.67 Y61.233 E41.15741
G1 X173.245 Y61.284 E41.37754
G1 X174.789 Y61.427 E41.59415
G1 X176.311 Y61.669 E41.80943
G1 X177.865 Y62.013 E42.03177
G1 X178.4 Y62.17 E42.10965
G1 X178.86 Y62.257 E42.17505
G1 X179.133 Y62.24 E42.21326
G1 X179.397 Y62.317 E42.25168
G1 X180.867 Y62.847 E42.46996
G1 X182.523 Y63.567 E42.72221
G1 X183.643 Y64.142 E42.89808
G1 X184.727 Y64.77 E43.07309
G1 X185.673 Y65.378 E43.23018
G1 X186.357 Y65.863 E43.34731
G1 X187.605 Y66.831 E43.56794
G1 X188.474 Y67.596 E43.72967
G1 X188.652 Y67.896 E43.7784
G1 X188.88 Y68.162 E43.82734
G1 X189.799 Y69.081 E44.00889
G1 X190.808 Y70.229 E44.2224
G1 X191.794 Y71.497 E44.44678
G1 X192.648 Y72.757 E44.65941
G1 X193.455 Y74.118 E44.88044
G1 X194.163 Y75.512 E45.09885
G1 X194.776 Y76.928 E45.31439
G1 X195.312 Y78.413 E45.53493
G1 X195.768 Y79.998 E45.76533
G1 X196.096 Y81.003 E45.91301
G1 X196.127 Y80.981 E45.91832
G1 X196.219 Y81.39 E45.97688
G1 X196.465 Y82.941 E46.19625
G1 X196.6 Y84.258 E46.38119
G1 X196.661 Y85.523 E46.55811
G1 X196.662 Y86.646 E46.71498
G1 X196.602 Y87.899 E46.89022
G1 X196.465 Y89.227 E47.07671
G1 X196.22 Y90.775 E47.29565
G1 X196.069 Y91.451 E47.39241
G1 X195.85 Y91.899 E47.46207
G1 X195.31 Y93.767 E47.7337
G1 X194.778 Y95.241 E47.9526
G1 X194.163 Y96.659 E48.16852
G1 X193.455 Y98.053 E48.38692
G1 X192.648 Y99.414 E48.60796
G1 X191.794 Y100.674 E48.82059
G1 X190.808 Y101.942 E49.04497
G1 X189.798 Y103.091 E49.25867
G1 X188.972 Y103.918 E49.42195
G1 X188.324 Y104.707 E49.56457
G1 X187.605 Y105.34 E49.69839
G1 X186.365 Y106.302 E49.91763
G1 X185.671 Y106.793 E50.03638
G1 X184.729 Y107.401 E50.193
G1 X183.636 Y108.035 E50.36951
G1 X182.537 Y108.597 E50.54194
G1 X180.864 Y109.325 E50.79682
G1 X179.397 Y109.854 E51.01466
G1 X179.315 Y109.878 E51.0266
G1 X178.654 Y109.927 E51.11919
G1 X177.847 Y110.161 E51.23656
G1 X176.319 Y110.501 E51.45523
G1 X174.789 Y110.744 E51.67164
G1 X173.245 Y110.887 E51.88825
G1 X171.67 Y110.938 E52.10838
G1 X170.095 Y110.887 E52.32851
G1 X168.552 Y110.744 E52.54498
G1 X167.038 Y110.503 E52.75914
G1 X165.477 Y110.157 E52.98249
G1 X164.941 Y110.002 E53.06044
G1 X164.486 Y109.916 E53.12512
G1 X164.218 Y109.933 E53.16263
G1 X163.948 Y109.855 E53.20189
G1 X162.474 Y109.324 E53.42075
G1 X160.811 Y108.601 E53.67407
G1 X159.705 Y108.035 E53.84762
G1 X158.614 Y107.402 E54.02382
G1 X157.657 Y106.785 E54.18289
G1 X156.975 Y106.302 E54.29963
G1 X155.736 Y105.34 E54.51875
G1 X154.929 Y104.631 E54.66881
G1 X154.474 Y104.024 E54.77478
G1 X153.542 Y103.091 E54.959
G1 X152.533 Y101.942 E55.17261
G1 X151.627 Y100.779 E55.37855
G1 X151.513 Y100.856 E55.39777
G1 X151.455 Y100.782 E55.41091
G1 X150.561 Y99.467 E55.63303
G1 X149.772 Y98.132 E55.84966
G1 X149.058 Y96.73 E56.06944
G1 X148.811 Y96.16 E56.15622
G1 X148.936 Y96.097 E56.17577
G1 X148.56 Y95.231 E56.30766
G1 X148.03 Y93.769 E56.52489
G1 X147.572 Y92.171 E56.75711
G1 X147.243 Y91.184 E56.90245
G1 X147.217 Y91.203 E56.90694
G1 X147.121 Y90.776 E56.96808
G1 X146.874 Y89.214 E57.18899
G1 X146.74 Y87.899 E57.37364
G1 X146.68 Y86.648 E57.5486
G1 X146.679 Y85.525 E57.70547
G1 X146.74 Y84.259 E57.88253
G1 X146.875 Y82.944 E58.06719
G1 X147.122 Y81.39 E58.287
G1 X147.274 Y80.714 E58.38379
G1 X147.488 Y80.28 E58.45138
G1 X148.028 Y78.409 E58.72341
G1 X148.569 Y76.917 E58.94511
G1 X149.177 Y75.512 E59.15897
G1 X149.886 Y74.118 E59.37744
G0 F6000 X151.042 Y74.744
G1 F1200 X150.371 Y76.063 E59.58417
G1 X149.784 Y77.42 E59.79071
G1 X149.282 Y78.81 E59.99715
G1 X148.869 Y80.23 E60.20374
G1 X148.547 Y81.671 E60.41
G1 X148.215 Y83.604 E60.68398
G1 X149.13 Y83.293 E60.81898
G1 X149.246 Y83.267 E60.83558
G1 X149.165 Y83.775 E60.90744
G1 X150.477 Y84.062 E61.09506
G1 X150.71 Y84.139 E61.12933
G1 X150.942 Y84.251 E61.16532
G1 X151.141 Y84.379 E61.19838
G1 X151.412 Y84.613 E61.24839
G1 X151.644 Y84.892 E61.29908
G1 X151.823 Y85.203 E61.34921
G1 X151.951 Y85.559 E61.40205
G1 X152.012 Y85.921 E61.45334
G1 X152.011 Y86.245 E61.4986
G1 X151.951 Y86.607 E61.54985
G1 X151.82 Y86.975 E61.60442
G1 X151.64 Y87.286 E61.65462
G1 X151.411 Y87.562 E61.70472
G1 X151.14 Y87.795 E61.75464
G1 X150.964 Y87.908 E61.78386
G1 X150.739 Y88.019 E61.81891
G1 X150.516 Y88.099 E61.852
G1 X149.146 Y88.432 E62.04895
G1 X149.227 Y88.898 E62.11503
G1 X148.241 Y88.631 E62.25772
G1 X148.445 Y89.935 E62.4421
G1 X148.548 Y90.502 E62.5226
G1 X148.869 Y91.941 E62.72856
G1 X149.282 Y93.361 E62.93514
G1 X149.784 Y94.751 E63.14159
G1 X150.371 Y96.108 E63.34813
G1 X151.042 Y97.427 E63.55485
G1 X151.794 Y98.699 E63.76127
G1 X152.626 Y99.922 E63.9679
G1 X153.532 Y101.091 E64.1745
G1 X154.51 Y102.2 E64.38106
G1 X155.556 Y103.246 E64.5877
G1 X156.661 Y104.221 E64.79356
G1 X157.795 Y105.15 E64.99834
G1 X157.988 Y104.192 E65.13486
G1 X158.02 Y104.091 E65.14966
G1 X158.422 Y104.408 E65.22117
G1 X159.33 Y103.418 E65.40883
G1 X159.514 Y103.259 E65.4428
G1 X159.723 Y103.116 E65.47817
G1 X159.931 Y103.009 E65.51085
G1 X160.293 Y102.886 E65.56426
G1 X160.616 Y102.832 E65.61
G1 X160.978 Y102.833 E65.66057
G1 X161.339 Y102.896 E65.71176
G1 X161.665 Y103.014 E65.76019
G1 X162.016 Y103.216 E65.81677
G1 X162.256 Y103.416 E65.86041
G1 X162.517 Y103.725 E65.91691
G1 X162.694 Y104.03 E65.96617
G1 X162.816 Y104.362 E66.01558
G1 X162.887 Y104.751 E66.07082
G1 X162.895 Y104.93 E66.09585
G1 X162.879 Y105.18 E66.13084
G1 X162.839 Y105.404 E66.16263
G1 X162.435 Y106.78 E66.36296
G1 X162.877 Y106.936 E66.42844
G1 X162.159 Y107.658 E66.57068
G1 X163.019 Y107.977 E66.69881
G1 X164.395 Y108.474 E66.90318
G1 X165.815 Y108.887 E67.10977
G1 X167.259 Y109.209 E67.31644
G1 X168.719 Y109.44 E67.52292
G1 X170.192 Y109.579 E67.72961
G1 X171.67 Y109.626 E67.93617
G1 X173.149 Y109.579 E68.14288
G1 X174.621 Y109.44 E68.34943
G1 X176.082 Y109.209 E68.55605
G1 X177.525 Y108.887 E68.76259
G1 X178.946 Y108.474 E68.9693
G1 X181.25 Y107.642 E69.3115
G1 X180.504 Y106.983 E69.45055
G1 X180.452 Y106.926 E69.46132
G1 X180.922 Y106.756 E69.53114
G1 X180.508 Y105.427 E69.72559
G1 X180.466 Y105.209 E69.75661
G1 X180.446 Y104.936 E69.79484
G1 X180.453 Y104.741 E69.8221
G1 X180.522 Y104.371 E69.87468
G1 X180.647 Y104.032 E69.92515
G1 X180.83 Y103.715 E69.97628
G1 X181.077 Y103.424 E70.0296
G1 X181.334 Y103.21 E70.07632
G1 X181.648 Y103.026 E70.12716
G1 X182.006 Y102.894 E70.18046
G1 X182.361 Y102.832 E70.2308
G1 X182.726 Y102.833 E70.28179
G1 X183.045 Y102.885 E70.32694
G1 X183.413 Y103.012 E70.38132
G1 X183.61 Y103.112 E70.41219
G1 X183.818 Y103.252 E70.44721
G1 X183.99 Y103.397 E70.47864
G1 X184.956 Y104.415 E70.67468
G1 X185.327 Y104.111 E70.74168
G1 X185.591 Y105.094 E70.88386
G1 X186.42 Y104.44 E71.03137
G1 X186.682 Y104.219 E71.07925
G1 X187.785 Y103.246 E71.28471
G1 X188.831 Y102.2 E71.49136
G1 X189.809 Y101.091 E71.69791
G1 X190.715 Y99.922 E71.90451
G1 X191.547 Y98.699 E72.11114
G1 X192.299 Y97.427 E72.31756
G1 X192.97 Y96.108 E72.52429
G1 X193.557 Y94.751 E72.73083
G1 X194.059 Y93.361 E72.93727
G1 X194.472 Y91.94 E73.14399
G1 X194.793 Y90.5 E73.35009
G1 X195.127 Y88.57 E73.6237
G1 X194.214 Y88.877 E73.75826
G1 X194.092 Y88.904 E73.77571
G1 X194.172 Y88.396 E73.84755
G1 X192.867 Y88.111 E74.03414
G1 X192.629 Y88.03 E74.06926
G1 X192.401 Y87.921 E74.10457
G1 X192.191 Y87.787 E74.13937
G1 X191.933 Y87.565 E74.18691
G1 X191.682 Y87.258 E74.24231
G1 X191.51 Y86.949 E74.29171
G1 X191.39 Y86.609 E74.34207
G1 X191.329 Y86.25 E74.39294
G1 X191.33 Y85.925 E74.43834
G1 X191.391 Y85.558 E74.49031
G1 X191.509 Y85.222 E74.54006
G1 X191.684 Y84.912 E74.58979
G1 X191.935 Y84.607 E74.64497
G1 X192.199 Y84.379 E74.6937
G1 X192.381 Y84.261 E74.724
G1 X192.605 Y84.15 E74.75892
G1 X192.823 Y84.072 E74.79126
G1 X194.195 Y83.743 E74.98835
G1 X194.113 Y83.273 E75.055
G1 X195.101 Y83.537 E75.19786
G1 X194.895 Y82.236 E75.38186
G1 X194.792 Y81.67 E75.46223
G1 X194.472 Y80.231 E75.66816
G1 X194.059 Y78.81 E75.87487
G1 X193.557 Y77.42 E76.08132
G1 X192.97 Y76.063 E76.28786
G1 X192.299 Y74.744 E76.49459
G1 X191.547 Y73.473 E76.70088
G1 X190.715 Y72.249 E76.90763
G1 X189.809 Y71.08 E77.11423
G1 X188.831 Y69.971 E77.32079
G1 X187.785 Y68.925 E77.52743
G1 X186.68 Y67.95 E77.73329
G1 X185.546 Y67.021 E77.93807
G1 X185.353 Y67.979 E78.07458
G1 X185.319 Y68.084 E78.09
G1 X184.916 Y67.77 E78.16137
G1 X184.015 Y68.75 E78.34733
G1 X183.829 Y68.911 E78.3817
G1 X183.609 Y69.06 E78.41881
G1 X183.417 Y69.16 E78.44906
G1 X183.048 Y69.285 E78.50348
G1 X182.725 Y69.339 E78.54923
G1 X182.36 Y69.338 E78.60021
G1 X182.009 Y69.276 E78.65001
G1 X181.644 Y69.143 E78.70427
G1 X181.329 Y68.958 E78.7553
G1 X181.085 Y68.755 E78.79964
G1 X180.821 Y68.443 E78.85674
G1 X180.649 Y68.145 E78.9048
G1 X180.521 Y67.798 E78.95647
G1 X180.454 Y67.433 E79.00831
G1 X180.446 Y67.24 E79.03529
G1 X180.462 Y66.991 E79.07014
G1 X180.503 Y66.764 E79.10237
G1 X180.906 Y65.391 E79.30226
G1 X180.464 Y65.235 E79.36773
G1 X181.182 Y64.513 E79.50997
G1 X180.322 Y64.194 E79.63811
G1 X178.946 Y63.697 E79.84248
G1 X177.524 Y63.284 E80.04933
G1 X176.082 Y62.963 E80.2557
G1 X174.621 Y62.731 E80.46235
G1 X173.149 Y62.592 E80.66889
G1 X171.67 Y62.545 E80.8756
G1 X170.192 Y62.592 E81.08217
G1 X168.719 Y62.731 E81.28885
G1 X167.259 Y62.963 E81.49536
G1 X165.816 Y63.284 E81.70186
G1 X164.395 Y63.697 E81.90858
G1 X162.092 Y64.529 E82.25064
G1 X162.832 Y65.183 E82.3886
G1 X162.888 Y65.245 E82.40027
G1 X162.419 Y65.415 E82.46996
G1 X162.832 Y66.741 E82.66397
G1 X162.875 Y66.961 E82.69528
G1 X162.895 Y67.22 E82.73157
G1 X162.888 Y67.428 E82.76064
G1 X162.818 Y67.804 E82.81407
G1 X162.694 Y68.141 E82.86423
G1 X162.519 Y68.444 E82.91311
G1 X162.259 Y68.752 E82.96942
G1 X162.006 Y68.961 E83.01526
G1 X161.668 Y69.156 E83.06977
G1 X161.339 Y69.275 E83.11864
G1 X160.977 Y69.339 E83.16999
G1 X160.616 Y69.338 E83.22042
G1 X160.289 Y69.284 E83.26672
G1 X159.929 Y69.16 E83.31991
G1 X159.732 Y69.061 E83.35071
G1 X159.525 Y68.921 E83.38562
G1 X159.351 Y68.774 E83.41744
G1 X158.385 Y67.756 E83.61348
G1 X158.014 Y68.06 E83.68048
G1 X157.75 Y67.074 E83.82307
G1 X156.921 Y67.731 E83.97083
G1 X156.659 Y67.952 E84.01871
G1 X155.556 Y68.925 E84.22418
G1 X154.51 Y69.971 E84.43082
G1 X153.532 Y71.08 E84.63738
G1 X152.626 Y72.249 E84.84398
G1 X151.794 Y73.473 E85.05072
G1 X151.042 Y74.744 E85.25702
G1 F1500 E79.25702
G0 F6000 X149.92 Y84.583
G1 F1500 E85.25702
G1 F1200 X149.583 Y84.622 E85.30441
G1 X149.267 Y84.732 E85.35115
G1 X148.987 Y84.908 E85.39735
G1 X148.743 Y85.153 E85.44566
G1 X148.567 Y85.433 E85.49185
G1 X148.456 Y85.755 E85.53943
G1 X148.417 Y86.086 E85.58599
G1 X148.457 Y86.424 E85.63354
G1 X148.567 Y86.739 E85.68015
G1 X148.743 Y87.019 E85.72634
G1 X148.988 Y87.263 E85.77465
G1 X149.268 Y87.439 E85.82085
G1 X149.589 Y87.55 E85.86829
G1 X149.92 Y87.589 E85.91485
G1 X150.259 Y87.549 E85.96254
G1 X150.574 Y87.439 E86.00914
G1 X150.854 Y87.263 E86.05534
G1 X151.098 Y87.018 E86.10365
G1 X151.274 Y86.738 E86.14984
G1 X151.386 Y86.416 E86.19747
G1 X151.423 Y86.083 E86.24427
G1 X151.384 Y85.748 E86.29139
G1 X151.274 Y85.432 E86.33813
G1 X151.098 Y85.152 E86.38433
G1 X150.853 Y84.908 E86.43263
G1 X150.573 Y84.732 E86.47883
G1 X150.251 Y84.62 E86.52645
G1 X149.92 Y84.583 E86.57298
G1 F1500 E80.57298
G0 F6000 X160.146 Y68.605
G1 F1500 E86.57298
G1 F1200 X160.459 Y68.714 E86.61928
G1 X160.796 Y68.753 E86.66667
G1 X161.134 Y68.713 E86.71421
G1 X161.449 Y68.603 E86.76082
G1 X161.729 Y68.427 E86.80702
G1 X161.973 Y68.182 E86.85532
G1 X162.149 Y67.902 E86.90152
G1 X162.261 Y67.58 E86.94915
G1 X162.298 Y67.247 E86.99595
G1 X162.259 Y66.912 E87.04306
G1 X162.149 Y66.596 E87.08981
G1 X161.973 Y66.316 E87.136
G1 X161.728 Y66.072 E87.18431
G1 X161.448 Y65.896 E87.23051
G1 X161.126 Y65.784 E87.27813
G1 X160.795 Y65.747 E87.32466
G1 X160.459 Y65.786 E87.37191
G1 X160.141 Y65.897 E87.41896
G1 X159.862 Y66.072 E87.46497
G1 X159.618 Y66.317 E87.51327
G1 X159.442 Y66.597 E87.55947
G1 X159.331 Y66.919 E87.60705
G1 X159.292 Y67.25 E87.6536
G1 X159.332 Y67.588 E87.70115
G1 X159.442 Y67.903 E87.74776
G1 X159.618 Y68.183 E87.79396
G1 X159.864 Y68.427 E87.84236
G1 X160.146 Y68.605 E87.88894
G1 F1500 E81.88894
G0 F6000 X181.042 Y67.25
G1 F1500 E87.88894
G1 F1200 X181.082 Y67.588 E87.93649
G1 X181.192 Y67.903 E87.9831
G1 X181.368 Y68.183 E88.0293
G1 X181.614 Y68.427 E88.0777
G1 X181.896 Y68.605 E88.12428
G1 X182.209 Y68.714 E88.17058
G1 X182.546 Y68.753 E88.21797
G1 X182.884 Y68.713 E88.26552
G1 X183.199 Y68.603 E88.31213
G1 X183.479 Y68.427 E88.35833
G1 X183.723 Y68.182 E88.40663
G1 X183.899 Y67.902 E88.45283
G1 X184.011 Y67.58 E88.50045
G1 X184.048 Y67.247 E88.54726
G1 X184.009 Y66.912 E88.59437
G1 X183.899 Y66.596 E88.64111
G1 X183.723 Y66.316 E88.68731
G1 X183.478 Y66.072 E88.73561
G1 X183.198 Y65.896 E88.78181
G1 X182.876 Y65.784 E88.82944
G1 X182.545 Y65.747 E88.87596
G1 X182.209 Y65.786 E88.92321
G1 X181.891 Y65.897 E88.97026
G1 X181.612 Y66.072 E89.01627
G1 X181.368 Y66.317 E89.06457
G1 X181.192 Y66.597 E89.11077
G1 X181.081 Y66.919 E89.15835
G1 X181.042 Y67.25 E89.20491
G1 F1500 E83.20491
G0 F6000 X192.487 Y84.908
G1 F1500 E89.20491
G1 F1200 X192.243 Y85.153 E89.25321
G1 X192.067 Y85.433 E89.29941
G1 X191.956 Y85.755 E89.34699
G1 X191.917 Y86.086 E89.39355
G1 X191.957 Y86.424 E89.44109
G1 X192.067 Y86.739 E89.4877
G1 X192.243 Y87.019 E89.5339
G1 X192.489 Y87.263 E89.5823
G1 X192.771 Y87.441 E89.62889
G1 X193.084 Y87.55 E89.67519
G1 X193.421 Y87.589 E89.72258
G1 X193.759 Y87.549 E89.77012
G1 X194.074 Y87.439 E89.81673
G1 X194.354 Y87.263 E89.86293
G1 X194.598 Y87.018 E89.91123
G1 X194.774 Y86.738 E89.95743
G1 X194.886 Y86.416 E90.00506
G1 X194.923 Y86.083 E90.05186
G1 X194.884 Y85.748 E90.09897
G1 X194.774 Y85.432 E90.14571
G1 X194.598 Y85.152 E90.19191
G1 X194.353 Y84.908 E90.24022
G1 X194.073 Y84.732 E90.28641
G1 X193.751 Y84.62 E90.33404
