;FLAVOR:Marlin
;TIME:34841
;Filament used: 186.518m
;Layer height: 0.6
;MINX:10.403
;MINY:82.822
;MINZ:0.3
;MAXX:389.604
;MAXY:317.218
;MAXZ:9.5
;Generated with Cura_SteamEngine 5.3.1
M82 ;absolute extrusion mode
; X5SA Start Code
G21 ; Set units to millimeters
G90 ; Set all axis to Absolute
M82 ; Set extrusion to Absolute
M107 ; Disable all fans
M190 S30 ; Set bed temperature and wait
G28 ; Home all axis
; Uncomment the line below to enable ABL Mesh probing
;G29 ; Probe bed mesh for ABL
; For best results do not run nozzle heater while performing ABL
G1 Z5.0 ; Raise nozzle to prevent scratching of heat bed
G1 X0 Y0 ; Move nozzle to Home before heating
M109 S230.0 T0 ; Set nozzle temp and wait
G92 E0 ; Set Extruder position to zero
; Uncomment the following lines to enable nozzle purge line along left edge of bed
;G1 Z2.0 F3000 ; Raise Z axis
;G1 X1.1 Y20 Z0.2 F3600.0 ; Move to purge line start position
;G1 Y290 F1500.0 E15 ; Draw first purge line
;G1 X1.4 F3600.0 ; Move to side
;G1 Y20 F1500.0 E30 ; Draw second purge line
;G92 E0 ; Reset Extruder
;G1 Z2.0 F3000 ; Move Z Axis up little to prevent scratching of Heat Bed
;G1 X5 Y20 Z0.2 F3600.0 ; Move over to finish nozzle wipe
;G92 E0

G92 E0
G92 E0
G1 F3000 E-10
;LAYER_COUNT:16
;LAYER:0
M107
G1 F300 Z0.5
G0 F2700 X18.953 Y93.124 Z0.5
;TYPE:SKIRT
G1 F300 Z0.3
G1 F3000 E0
G1 F1800 X19.863 Y92.985 E0.1466
G1 X20.38 Y92.942 E0.22921
G1 X21.038 Y92.908 E0.33414
G1 X33.313 Y92.556 E2.28973
G1 X34.136 Y92.544 E2.42081
G1 X35.056 Y92.571 E2.56738
G1 X35.584 Y92.624 E2.65189
G1 X36.27 Y92.71 E2.76199
G1 X37.949 Y92.948 E3.03204
G1 X40.445 Y93.23 E3.43206
G1 X42.964 Y93.443 E3.83464
G1 X45.47 Y93.583 E4.23434
G1 X47.969 Y93.652 E4.63245
G1 X51.89 Y93.622 E5.25689
G1 X120.614 Y91.65 E16.20566
G1 X123.161 Y91.541 E16.61164
G1 X125.667 Y91.362 E17.01174
G1 X128.214 Y91.108 E17.41936
G1 X130.706 Y90.788 E17.81946
G1 X133.212 Y90.394 E18.22345
G1 X135.941 Y89.883 E18.66559
G1 X136.784 Y89.713 E18.80254
G1 X137.694 Y89.57 E18.94924
G1 X138.28 Y89.52 E19.0429
G1 X138.878 Y89.49 E19.13825
G1 X150.574 Y89.155 E21.00159
G1 X151.406 Y89.142 E21.1341
G1 X152.326 Y89.169 E21.28068
G1 X152.901 Y89.226 E21.37269
G1 X153.607 Y89.317 E21.48605
G1 X155.167 Y89.538 E21.73696
G1 X157.699 Y89.825 E22.14277
G1 X160.21 Y90.038 E22.54408
G1 X162.719 Y90.179 E22.94427
G1 X165.256 Y90.249 E23.34844
G1 X167.808 Y90.248 E23.75484
G1 X169.097 Y90.221 E23.96016
G1 X254.198 Y87.779 E37.51803
G1 X254.843 Y87.77 E37.62076
G1 X255.302 Y87.774 E37.69385
G1 X258.255 Y87.861 E38.16432
G1 X262.204 Y87.831 E38.79322
G1 X276.602 Y87.418 E41.08703
G1 X279.154 Y87.309 E41.49381
G1 X281.853 Y87.113 E41.92476
G1 X282.815 Y87.029 E42.07854
G1 X283.787 Y86.973 E42.23358
G1 X341.857 Y85.306 E51.48501
G1 X344.407 Y85.197 E51.89147
G1 X346.905 Y85.019 E52.29029
G1 X349.463 Y84.763 E52.69968
G1 X351.974 Y84.441 E53.10283
G1 X354.444 Y84.053 E53.501
G1 X357.298 Y83.515 E53.9635
G1 X357.79 Y83.415 E54.04346
G1 X358.699 Y83.272 E54.18999
G1 X359.232 Y83.225 E54.2752
G1 X359.861 Y83.191 E54.37552
G1 X372.235 Y82.834 E56.34689
G1 X373.032 Y82.822 E56.47383
G1 X373.952 Y82.849 E56.6204
G1 X374.867 Y82.956 E56.76711
G1 X375.768 Y83.142 E56.91362
G1 X376.651 Y83.405 E57.06034
G1 X377.507 Y83.744 E57.20696
G1 X378.33 Y84.156 E57.35352
G1 X379.115 Y84.637 E57.50014
G1 X379.854 Y85.185 E57.64665
G1 X380.544 Y85.795 E57.79331
G1 X381.178 Y86.463 E57.93998
G1 X381.751 Y87.183 E58.08651
G1 X382.26 Y87.95 E58.23311
G1 X382.701 Y88.759 E58.37984
G1 X383.069 Y89.603 E58.52647
G1 X383.363 Y90.475 E58.67301
G1 X383.581 Y91.37 E58.81971
G1 X383.719 Y92.28 E58.96628
G1 X383.763 Y92.802 E59.0497
G1 X383.797 Y93.467 E59.15574
G1 X384.186 Y107.386 E61.3732
G1 X384.913 Y132.799 E65.42187
G1 X385.509 Y153.183 E68.6694
G1 X389.594 Y295.665 E91.36891
G1 X389.604 Y296.364 E91.48024
G1 X389.577 Y297.285 E91.62697
G1 X389.471 Y298.199 E91.7735
G1 X389.285 Y299.101 E91.92017
G1 X389.022 Y299.983 E92.06674
G1 X388.683 Y300.839 E92.21335
G1 X388.272 Y301.663 E92.35999
G1 X387.79 Y302.447 E92.50655
G1 X387.242 Y303.187 E92.65319
G1 X386.632 Y303.877 E92.79986
G1 X385.965 Y304.511 E92.94641
G1 X385.245 Y305.085 E93.09304
G1 X384.478 Y305.594 E93.23964
G1 X383.669 Y306.035 E93.38637
G1 X382.826 Y306.403 E93.53285
G1 X381.954 Y306.698 E93.67945
G1 X381.059 Y306.915 E93.8261
G1 X380.149 Y307.054 E93.9727
G1 X379.611 Y307.099 E94.05868
G1 X378.958 Y307.132 E94.1628
G1 X366.714 Y307.481 E96.11344
G1 X365.877 Y307.494 E96.24675
G1 X364.957 Y307.467 E96.39332
G1 X364.378 Y307.409 E96.48599
G1 X363.679 Y307.319 E96.59822
G1 X362.119 Y307.098 E96.84913
G1 X359.587 Y306.811 E97.25494
G1 X357.076 Y306.598 E97.65625
G1 X354.567 Y306.457 E98.05643
G1 X352.03 Y306.387 E98.4606
G1 X349.478 Y306.388 E98.86701
G1 X348.189 Y306.415 E99.07233
G1 X263.092 Y308.857 E112.62956
G1 X262.447 Y308.866 E112.73229
G1 X261.988 Y308.862 E112.80539
G1 X259.035 Y308.775 E113.27585
G1 X255.086 Y308.805 E113.90475
G1 X240.688 Y309.218 E116.19857
G1 X238.136 Y309.327 E116.60534
G1 X235.437 Y309.523 E117.03629
G1 X234.475 Y309.607 E117.19007
G1 X233.503 Y309.663 E117.34512
G1 X175.432 Y311.33 E126.59671
G1 X172.882 Y311.439 E127.00316
G1 X170.384 Y311.617 E127.40198
G1 X167.826 Y311.873 E127.81137
G1 X165.315 Y312.195 E128.21452
G1 X162.845 Y312.583 E128.61269
G1 X159.991 Y313.121 E129.07519
G1 X159.499 Y313.221 E129.15515
G1 X158.59 Y313.364 E129.30169
G1 X158.063 Y313.411 E129.38594
G1 X157.463 Y313.443 E129.48163
G1 X145.747 Y313.783 E131.34818
G1 X144.871 Y313.797 E131.4877
G1 X143.951 Y313.771 E131.63427
G1 X143.078 Y313.671 E131.7742
G1 X142.59 Y313.595 E131.85285
G1 X139.99 Y313.226 E132.27105
G1 X137.445 Y312.938 E132.67893
G1 X134.948 Y312.727 E133.07799
G1 X132.444 Y312.587 E133.47738
G1 X129.891 Y312.516 E133.8841
G1 X127.31 Y312.518 E134.29512
G1 X126.105 Y312.545 E134.48706
G1 X123.388 Y312.623 E134.91992
G1 X120.843 Y312.732 E135.32559
G1 X118.104 Y312.931 E135.76292
G1 X116.897 Y313.032 E135.95581
G1 X116.22 Y313.067 E136.06376
G1 X58.15 Y314.734 E145.31519
G1 X55.603 Y314.843 E145.72117
G1 X53.097 Y315.022 E146.12127
G1 X50.551 Y315.276 E146.52873
G1 X48.057 Y315.596 E146.92915
G1 X45.535 Y315.992 E147.3357
G1 X42.65 Y316.536 E147.80323
G1 X42.212 Y316.625 E147.87441
G1 X41.303 Y316.769 E148.02097
G1 X40.784 Y316.815 E148.10395
G1 X40.149 Y316.849 E148.20522
G1 X27.771 Y317.206 E150.17723
G1 X26.977 Y317.218 E150.30368
G1 X26.056 Y317.191 E150.45042
G1 X25.142 Y317.084 E150.59696
G1 X24.24 Y316.898 E150.74363
G1 X23.358 Y316.635 E150.8902
G1 X22.502 Y316.296 E151.03682
G1 X21.678 Y315.885 E151.18346
G1 X20.894 Y315.403 E151.33002
G1 X20.154 Y314.855 E151.47666
G1 X19.465 Y314.245 E151.6232
G1 X18.831 Y313.577 E151.76987
G1 X18.257 Y312.857 E151.9165
G1 X17.748 Y312.09 E152.0631
G1 X17.308 Y311.282 E152.20961
G1 X16.939 Y310.438 E152.3563
G1 X16.645 Y309.566 E152.50285
G1 X16.427 Y308.671 E152.64954
G1 X16.289 Y307.761 E152.79612
G1 X16.245 Y307.238 E152.8797
G1 X16.211 Y306.573 E152.98574
G1 X15.82 Y292.574 E155.21594
G1 X15.095 Y267.235 E159.25282
G1 X14.499 Y246.857 E162.49939
G1 X10.412 Y104.322 E185.20735
G1 X10.403 Y103.671 E185.31103
G1 X10.43 Y102.75 E185.45776
G1 X10.537 Y101.836 E185.60431
G1 X10.723 Y100.934 E185.75098
G1 X10.987 Y100.052 E185.89759
G1 X11.326 Y99.196 E186.04421
G1 X11.738 Y98.373 E186.19078
G1 X12.22 Y97.588 E186.33747
G1 X12.768 Y96.849 E186.48399
G1 X13.378 Y96.159 E186.63065
G1 X14.046 Y95.526 E186.77721
G1 X14.766 Y94.952 E186.92384
G1 X15.534 Y94.443 E187.07057
G1 X16.342 Y94.003 E187.21708
G1 X17.186 Y93.635 E187.36371
G1 X17.615 Y93.49 E187.43583
G0 F1620 X18.058 Y93.341
G0 X18.953 Y93.124
G1 F3000 E177.43583
G1 F300 Z0.5
G0 F2700 X21.609 Y104.097 Z0.5
G1 F300 Z0.3
G1 F3000 E187.43583
G1 F1800 X33.704 Y103.75 E189.36274
G1 X33.714 Y104.148 E189.42614
G1 X32.948 Y104.17 E189.54818
G1 X32.735 Y104.216 E189.58288
G1 X32.552 Y104.335 E189.61764
G1 X32.424 Y104.512 E189.65243
G1 X32.365 Y104.786 E189.69706
G1 X33.662 Y153.859 E197.51464
G1 X36.582 Y255.637 E213.72941
G1 X38.102 Y304.707 E221.54753
G1 X38.149 Y304.92 E221.58227
G1 X38.268 Y305.102 E221.6169
G1 X38.445 Y305.23 E221.65168
G1 X38.719 Y305.288 E221.69629
G1 X39.486 Y305.266 E221.81848
G1 X39.498 Y305.663 E221.88173
G1 X27.4 Y306.012 E223.80913
G1 X27.018 Y292.33 E225.98883
G1 X26.292 Y266.972 E230.02874
G1 X25.695 Y246.536 E233.28455
G1 X21.648 Y105.484 E255.75626
G0 F1620 X21.609 Y104.097
G1 F3000 E245.75626
G1 F300 Z0.5
G0 F2700 X22.843 Y105.261 Z0.5
G1 F300 Z0.3
G1 F3000 E255.75626
G1 F1800 X31.171 Y105.023 E257.08303
G1 X32.463 Y153.891 E264.86796
G1 X35.383 Y255.672 E281.0832
G1 X36.897 Y304.538 E288.86882
G1 X28.566 Y304.778 E290.19608
G1 X28.217 Y292.297 E292.18445
G1 X27.491 Y266.937 E296.22467
G1 X26.894 Y246.5 E299.48064
G1 X22.882 Y106.648 E321.76117
G0 F1620 X22.843 Y105.261
G1 F3000 E311.76117
G1 F300 Z0.5
G0 F2700 X24.077 Y106.427 Z0.5
G1 F300 Z0.3
G1 F3000 E321.76117
G1 F1800 X30.003 Y106.257 E322.70527
G1 X31.263 Y153.922 E330.29855
G1 X31.263 Y153.929 E330.29967
G1 X34.183 Y255.706 E346.51428
G1 X34.183 Y255.713 E346.51539
G1 X35.659 Y303.373 E354.10886
G1 X29.732 Y303.544 E355.05313
G1 X29.417 Y292.263 E356.85032
G1 X28.691 Y266.903 E360.89054
G1 X28.094 Y246.465 E364.14667
G1 X24.116 Y107.814 E386.23586
G0 F1620 X24.077 Y106.427
G1 F3000 E376.23586
G1 F300 Z0.5
G0 F2700 X25.31 Y107.592 Z0.5
G1 F300 Z0.3
G1 F3000 E386.23586
G1 F1800 X28.835 Y107.491 E386.79745
G1 X30.063 Y153.954 E394.19924
G1 X30.064 Y153.963 E394.20069
G1 X32.984 Y255.74 E410.41529
G1 X32.984 Y255.75 E410.41689
G1 X34.423 Y302.208 E417.81885
G1 X30.898 Y302.31 E418.38044
G1 X30.616 Y292.23 E419.9863
G1 X29.89 Y266.869 E424.02668
G1 X29.293 Y246.43 E427.28297
G1 X25.349 Y108.979 E449.18099
G0 F1620 X25.31 Y107.592
G1 F3000 E439.18099
G1 F300 Z0.5
G0 F2700 X139.495 Y100.676 Z0.5
G1 F300 Z0.3
G1 F3000 E449.18099
G1 F1800 X150.984 Y100.348 E451.01135
G1 X150.994 Y100.745 E451.07459
G1 X150.229 Y100.767 E451.19647
G1 X150.016 Y100.813 E451.23117
G1 X149.833 Y100.932 E451.26594
G1 X149.704 Y101.109 E451.30081
G1 X149.646 Y101.383 E451.34542
G1 X150.944 Y150.456 E459.163
G1 X153.864 Y252.233 E475.37761
G1 X155.384 Y301.303 E483.19573
G1 X155.431 Y301.516 E483.23047
G1 X155.55 Y301.698 E483.2651
G1 X155.727 Y301.826 E483.29988
G1 X156.001 Y301.884 E483.34448
G1 X156.768 Y301.862 E483.46668
G1 X156.78 Y302.259 E483.52993
G1 X145.291 Y302.591 E485.36031
G1 X139.534 Y102.063 E517.30746
G0 F1620 X139.495 Y100.676
G1 F3000 E507.30746
G1 F300 Z0.5
G0 F2700 X140.729 Y101.841 Z0.5
G1 F300 Z0.3
G1 F3000 E517.30746
G1 F1800 X148.452 Y101.62 E518.53784
G1 X149.745 Y150.488 E526.32277
G1 X152.665 Y252.268 E542.53786
G1 X154.179 Y301.134 E550.32348
G1 X146.455 Y301.357 E551.55404
G1 X140.768 Y103.228 E583.11898
G0 F1620 X140.729 Y101.841
G1 F3000 E573.11898
G1 F300 Z0.5
G0 F2700 X141.963 Y103.006 Z0.5
G1 F300 Z0.3
G1 F3000 E583.11898
G1 F1800 X147.284 Y102.855 E583.96669
G1 X148.545 Y150.519 E591.55982
G1 X148.545 Y150.526 E591.56093
G1 X151.465 Y252.302 E607.77538
G1 X151.465 Y252.309 E607.77649
G1 X152.941 Y299.969 E615.36997
G1 X147.621 Y300.123 E616.21753
G1 X142.002 Y104.393 E647.40028
G0 F1620 X141.963 Y103.006
G1 F3000 E637.40028
G1 F300 Z0.5
G0 F2700 X143.197 Y104.171 Z0.5
G1 F300 Z0.3
G1 F3000 E647.40028
G1 F1800 X146.116 Y104.088 E647.86532
G1 X147.345 Y150.551 E655.26711
G1 X147.346 Y150.56 E655.26856
G1 X150.266 Y252.336 E671.48301
G1 X150.266 Y252.346 E671.4846
G1 X151.705 Y298.805 E678.88672
G1 X148.786 Y298.889 E679.35176
G1 X143.236 Y105.558 E710.15232
G0 F1620 X143.197 Y104.171
G1 F3000 E700.15232
G1 F300 Z0.5
G0 F2700 X360.521 Y94.774 Z0.5
G1 F300 Z0.3
G1 F3000 E710.15232
G1 F1800 X360.509 Y94.377 E710.21557
G1 X372.608 Y94.028 E712.14313
G1 X372.99 Y107.707 E714.32235
G1 X373.716 Y133.064 E718.3621
G1 X374.313 Y153.505 E721.6187
G1 X378.398 Y295.943 E744.31122
G1 X366.304 Y296.288 E746.23796
G1 X366.294 Y295.891 E746.3012
G1 X367.06 Y295.869 E746.42324
G1 X367.273 Y295.823 E746.45794
G1 X367.456 Y295.704 E746.4927
G1 X367.584 Y295.527 E746.52749
G1 X367.643 Y295.253 E746.57212
G1 X366.345 Y246.18 E754.38971
G1 X363.426 Y144.403 E770.60431
G1 X361.905 Y95.333 E778.42244
G1 X361.858 Y95.12 E778.45718
G1 X361.806 Y95.041 E778.47224
G0 F1620 X361.739 Y94.938
G0 X361.562 Y94.81
G0 X361.288 Y94.752
G0 X360.521 Y94.774
G1 F3000 E768.47224
G1 F300 Z0.5
G0 F2700 X363.11 Y95.502 Z0.5
G1 F300 Z0.3
G1 F3000 E778.47224
G1 F1800 X371.442 Y95.262 E779.79966
G1 X371.791 Y107.74 E781.78755
G1 X372.517 Y133.099 E785.82761
G1 X373.114 Y153.541 E789.08438
G1 X377.164 Y294.778 E811.58555
G1 X368.837 Y295.016 E812.91216
G1 X367.544 Y246.148 E820.69709
G1 X364.625 Y144.368 E836.91217
G1 X363.153 Y96.889 E844.47681
G0 F1620 X363.11 Y95.502
G1 F3000 E834.47681
G1 F300 Z0.5
G0 F2700 X364.348 Y96.667 Z0.5
G1 F300 Z0.3
G1 F3000 E844.47681
G1 F1800 X370.276 Y96.496 E845.42124
G1 X370.591 Y107.774 E847.21795
G1 X371.317 Y133.133 E851.25802
G1 X371.914 Y153.574 E854.51462
G1 X375.93 Y293.613 E876.82494
G1 X370.005 Y293.781 E877.76887
G1 X368.744 Y246.117 E885.362
G1 X368.744 Y246.11 E885.36311
G1 X365.825 Y144.334 E901.57756
G1 X365.825 Y144.327 E901.57867
G1 X364.39 Y98.054 E908.95117
G0 F1620 X364.348 Y96.667
G1 F3000 E898.95117
G1 F300 Z0.5
G0 F2700 X365.584 Y97.832 Z0.5
G1 F300 Z0.3
G1 F3000 E908.95117
G1 F1800 X369.11 Y97.73 E909.51291
G1 X369.392 Y107.807 E911.1183
G1 X370.118 Y133.167 E915.15852
G1 X370.715 Y153.608 E918.41513
G1 X374.697 Y292.448 E940.53443
G1 X371.173 Y292.548 E941.09585
G1 X369.944 Y246.085 E948.49765
G1 X369.943 Y246.076 E948.49909
G1 X367.024 Y144.3 E964.71353
G1 X367.024 Y144.29 E964.71513
G1 X365.584 Y97.832 E972.11709
;TYPE:SUPPORT
G1 X365.972 Y98.181
G1 X368.843 Y101.051 E972.76357
G1 F3000 E962.76357
G1 F300 Z0.5
G0 F2700 X368.886 Y102.577 Z0.5
G1 F300 Z0.3
G1 F3000 E972.76357
G1 F1800 X366.174 Y105.288 E973.37423
G0 F2700 X366.194 Y105.946
G1 F1800 X369.064 Y108.816 E974.02059
G0 F2700 X369.094 Y109.911
G1 F1800 X366.401 Y112.605 E974.6272
G0 F2700 X366.436 Y113.731
G1 F1800 X369.285 Y116.58 E975.26883
G0 F2700 X369.303 Y117.246
G1 F1800 X366.628 Y119.921 E975.87128
G1 F3000 E965.87128
G1 F300 Z0.5
G0 F2700 X366.677 Y121.516 Z0.5
G1 F300 Z0.3
G1 F3000 E975.87128
G1 F1800 X369.506 Y124.345 E976.50841
G1 X369.512 Y124.581
G1 X366.855 Y127.238 E977.1068
G1 F3000 E967.1068
G1 F300 Z0.5
G0 F2700 X366.798 Y125.408 Z0.5
G1 F300 Z0.3
G1 F3000 E977.1068
G1 F1800 X369.616 Y128.227 E977.74156
G1 X369.616 Y128.248
G1 X366.968 Y130.896 E978.33792
G1 F3000 E968.33792
G1 F300 Z0.5
G0 F2700 X366.918 Y129.3 Z0.5
G1 F300 Z0.3
G1 F3000 E978.33792
G1 F1800 X369.727 Y132.109 E978.97055
G1 X369.721 Y131.915
G1 X367.082 Y134.554 E979.56488
G0 F2700 X367.039 Y133.193
G1 F1800 X369.84 Y135.994 E980.1957
G1 X369.827 Y135.581
G1 X367.195 Y138.213 E980.78846
G0 F2700 X367.16 Y137.086
G1 F1800 X369.953 Y139.879 E981.41748
G0 F2700 X369.934 Y139.246
G1 F1800 X367.309 Y141.871 E982.00867
G0 F2700 X367.281 Y140.978
G1 F1800 X370.067 Y143.764 E982.63611
G0 F2700 X370.04 Y142.911
G1 F1800 X367.419 Y145.532 E983.22639
G0 F2700 X367.399 Y144.869
G1 F1800 X370.18 Y147.649 E983.8526
G0 F2700 X370.148 Y146.575
G1 F1800 X367.525 Y149.198 E984.44333
G1 X367.511 Y148.752
G1 X370.293 Y151.534 E985.06987
G0 F2700 X370.255 Y150.24
G1 F1800 X367.629 Y152.865 E985.66117
G1 X367.622 Y152.635
G1 X370.405 Y155.418 E986.28794
G1 F3000 E976.28794
G1 F300 Z0.5
G0 F2700 X370.362 Y153.905 Z0.5
G1 F300 Z0.3
G1 F3000 E986.28794
G1 F1800 X367.735 Y156.532 E986.87957
G1 X367.734 Y156.518
G1 X370.517 Y159.301 E987.50634
G1 F3000 E977.50634
G1 F300 Z0.5
G0 F2700 X370.467 Y157.571 Z0.5
G1 F300 Z0.3
G1 F3000 E987.50634
G1 F1800 X367.84 Y160.198 E988.09797
G1 X367.845 Y160.401
G1 X370.628 Y163.184 E988.72474
G1 F3000 E978.72474
G1 F300 Z0.5
G0 F2700 X370.677 Y164.905 Z0.5
G1 F300 Z0.3
G1 F3000 E988.72474
G1 F1800 X368.05 Y167.531 E989.31626
G0 F2700 X368.068 Y168.167
G1 F1800 X370.851 Y170.95 E989.94303
G0 F2700 X370.887 Y172.238
G1 F1800 X368.26 Y174.865 E990.53466
G0 F2700 X368.29 Y175.933
G1 F1800 X371.074 Y178.716 E991.16154
