;FLAVOR:Marlin
;TIME:16620
;Filament used: 50.6917m
;Layer height: 0.48
;MINX:35.848
;MINY:100.03
;MINZ:0.4
;MAXX:197.54
;MAXY:137.77
;MAXZ:75.76
;Generated with Cura_SteamEngine 5.3.1
M82 ;absolute extrusion mode
; START G-CODE BEGIN

M104 S230.0 ﻿T0
M140 S60.0

G28 ; Home all axes
G92 E0 ; Reset Extruder
M420 S1 ; Load Mesh

M109 S230.0 ﻿T0
M190 S60.0

G92 E0 ; Reset Extruder

G1 X0.6 Y20 Z0.3 F5000.0 ; Move to start position
G1 X0.6 Y200.0 Z0.3 F1500.0 E15 ; Draw the first line
G1 X0.9 Y200.0 Z0.3 F5000.0 ; Move to side a little
G1 X0.9 Y20 Z0.3 F1500.0 E30 ; Draw the second line
G92 E0 ; Reset Extruder
G1 Z2.0 F3000 ; Move Z Axis up little to prevent scratching of Heat Bed
G1 X5 Y20 Z0.3 F5000.0 ; Move over to prevent blob squish

; START G-CODE END
G92 E0
G92 E0
G1 F1500 E-6
;LAYER_COUNT:159
;LAYER:0
M107
G0 F6000 X39.313 Y129.015 Z0.4
;TYPE:SUPPORT-INTERFACE
G1 F1500 E0
G1 F1200 X195.687 Y129.015 E21.84429
G1 X195.687 Y131.662 E22.21405
G1 X39.313 Y131.662 E44.05834
G1 X39.313 Y129.015 E44.4281
G0 F6000 X39.713 Y129.992
G1 F1200 X40.291 Y129.413 E44.54239
G0 F6000 X41.167 Y129.414
G1 F1200 X43.014 Y131.26 E44.90717
G1 F1500 E38.90717
G0 F6000 X45.232 Y131.261
G1 F1500 E44.90717
G1 F1200 X47.079 Y129.413 E45.27216
G0 F6000 X47.955 Y129.414
G1 F1200 X49.802 Y131.26 E45.63694
G1 F1500 E39.63694
G0 F6000 X52.02 Y131.261
G1 F1500 E45.63694
G1 F1200 X53.868 Y129.413 E46.00203
G0 F6000 X54.744 Y129.414
G1 F1200 X56.59 Y131.26 E46.36671
G1 F1500 E40.36671
G0 F6000 X58.808 Y131.261
G1 F1500 E46.36671
G1 F1200 X60.656 Y129.413 E46.73179
G0 F6000 X61.532 Y129.414
G1 F1200 X63.378 Y131.26 E47.09648
G1 F1500 E41.09648
G0 F6000 X65.596 Y131.261
G1 F1500 E47.09648
G1 F1200 X67.444 Y129.413 E47.46156
G0 F6000 X68.32 Y129.414
G1 F1200 X70.166 Y131.26 E47.82625
G1 F1500 E41.82625
G0 F6000 X72.385 Y131.261
G1 F1500 E47.82625
G1 F1200 X74.232 Y129.413 E48.19123
G0 F6000 X75.108 Y129.414
G1 F1200 X76.955 Y131.26 E48.55602
G1 F1500 E42.55602
G0 F6000 X79.173 Y131.261
G1 F1500 E48.55602
G1 F1200 X81.021 Y129.413 E48.9211
G0 F6000 X81.897 Y129.414
G1 F1200 X83.743 Y131.26 E49.28579
G1 F1500 E43.28579
G0 F6000 X85.961 Y131.261
G1 F1500 E49.28579
G1 F1200 X87.809 Y129.413 E49.65087
G0 F6000 X88.685 Y129.414
G1 F1200 X90.531 Y131.26 E50.01556
G1 F1500 E44.01556
G0 F6000 X92.749 Y131.261
G1 F1500 E50.01556
G1 F1200 X94.597 Y129.413 E50.38064
G0 F6000 X95.473 Y129.414
G1 F1200 X97.319 Y131.26 E50.74532
G1 F1500 E44.74532
G0 F6000 X99.538 Y131.261
G1 F1500 E50.74532
G1 F1200 X101.385 Y129.413 E51.11031
G0 F6000 X102.261 Y129.414
G1 F1200 X104.108 Y131.26 E51.47509
G1 F1500 E45.47509
G0 F6000 X106.326 Y131.261
G1 F1500 E51.47509
G1 F1200 X108.173 Y129.413 E51.84008
G0 F6000 X109.05 Y129.414
G1 F1200 X110.896 Y131.26 E52.20476
G1 F1500 E46.20476
G0 F6000 X113.114 Y131.261
G1 F1500 E52.20476
G1 F1200 X114.962 Y129.413 E52.56984
G0 F6000 X115.838 Y129.414
G1 F1200 X117.685 Y131.261 E52.93473
G1 F1500 E46.93473
G0 F6000 X119.901 Y131.262
G1 F1500 E52.93473
G1 F1200 X121.75 Y129.413 E53.30001
G0 F6000 X122.626 Y129.414
G1 F1200 X124.473 Y131.261 E53.66489
G1 F1500 E47.66489
G0 F6000 X126.69 Y131.262
G1 F1500 E53.66489
G1 F1200 X128.538 Y129.413 E54.03007
G0 F6000 X129.414 Y129.414
G1 F1200 X131.261 Y131.261 E54.39496
G1 F1500 E48.39496
G0 F6000 X133.478 Y131.262
G1 F1500 E54.39496
G1 F1200 X135.326 Y129.413 E54.76014
G0 F6000 X136.202 Y129.414
G1 F1200 X138.049 Y131.261 E55.12502
G1 F1500 E49.12502
G0 F6000 X140.266 Y131.262
G1 F1500 E55.12502
G1 F1200 X142.115 Y129.413 E55.4903
G0 F6000 X142.991 Y129.414
G1 F1200 X144.838 Y131.261 E55.85519
G1 F1500 E49.85519
G0 F6000 X147.054 Y131.262
G1 F1500 E55.85519
G1 F1200 X148.903 Y129.413 E56.22047
G0 F6000 X149.779 Y129.414
G1 F1200 X151.626 Y131.261 E56.58535
G1 F1500 E50.58535
G0 F6000 X153.843 Y131.262
G1 F1500 E56.58535
G1 F1200 X155.691 Y129.413 E56.95053
G0 F6000 X156.567 Y129.414
G1 F1200 X158.414 Y131.261 E57.31541
G1 F1500 E51.31541
G0 F6000 X160.631 Y131.262
G1 F1500 E57.31541
G1 F1200 X162.479 Y129.413 E57.6806
G0 F6000 X163.355 Y129.414
G1 F1200 X165.202 Y131.261 E58.04548
G1 F1500 E52.04548
G0 F6000 X167.419 Y131.262
G1 F1500 E58.04548
G1 F1200 X169.267 Y129.413 E58.41066
G0 F6000 X170.144 Y129.414
G1 F1200 X171.99 Y131.261 E58.77545
G1 F1500 E52.77545
G0 F6000 X174.207 Y131.262
G1 F1500 E58.77545
G1 F1200 X176.056 Y129.413 E59.14073
G0 F6000 X176.932 Y129.414
G1 F1200 X178.779 Y131.261 E59.50561
G1 F1500 E53.50561
G0 F6000 X180.996 Y131.262
G1 F1500 E59.50561
G1 F1200 X182.844 Y129.413 E59.87079
G0 F6000 X183.72 Y129.414
G1 F1200 X185.567 Y131.261 E60.23567
G1 F1500 E54.23567
G0 F6000 X187.784 Y131.262
G1 F1500 E60.23567
G1 F1200 X189.632 Y129.413 E60.60086
G0 F6000 X190.508 Y129.414
G1 F1200 X192.355 Y131.261 E60.96574
G1 F1500 E54.96574
G0 F6000 X194.572 Y131.262
G1 F1500 E60.96574
G1 F1200 X195.285 Y130.548 E61.1067
G1 F1500 E55.1067
;MESH:parasite butt.stl
G0 F6000 X196.752 Y130.548
G0 X196.74 Y126.662
G0 X194.473 Y126.556
G0 X194.473 Y125.077
G0 X192.487 Y123.091
;TYPE:WALL-INNER
G1 F1500 E61.1067
G1 F1200 X192.487 Y103.495 E63.84411
G1 X42.513 Y103.495 E84.79436
G1 X42.513 Y123.091 E87.53178
G1 X192.487 Y123.091 E108.48203
G0 F6000 X193.287 Y123.891
G1 F1200 X193.287 Y102.695 E111.44296
G1 X41.713 Y102.695 E132.61672
G1 X41.713 Y123.891 E135.57764
G1 X193.287 Y123.891 E156.7514
G0 F6000 X193.617 Y124.221
G0 X194.087 Y124.691
G1 F1200 X194.087 Y101.895 E159.93583
G1 X40.913 Y101.895 E181.3331
G1 X40.913 Y124.691 E184.51753
G1 X194.087 Y124.691 E205.9148
G1 F1500 E199.9148
G0 F6000 X193.617 Y124.221
G0 X136.556 Y122.787
G0 X137.291 Y117.251
G0 X136.556 Y116.842
G1 F1500 E205.9148
G1 F1200 X136.214 Y116.726 E205.96525
G1 X135.712 Y116.52 E206.04105
G1 X135.376 Y116.354 E206.09341
G1 X135.075 Y116.153 E206.14397
G1 X134.643 Y115.821 E206.22008
G1 X134.359 Y115.572 E206.27284
G1 X134.124 Y115.302 E206.32284
G1 X133.792 Y114.869 E206.39906
G1 X133.645 Y114.658 E206.43498
G1 X133.487 Y114.381 E206.47953
G1 X133.219 Y113.731 E206.57775
G1 X133.131 Y113.487 E206.61398
G1 X133.049 Y113.173 E206.65931
G1 X132.936 Y112.281 E206.78492
G1 X132.941 Y111.901 E206.838
G1 X133.051 Y111.072 E206.95482
G1 X133.131 Y110.762 E206.99955
G1 X133.219 Y110.519 E207.03565
G1 X133.426 Y110.017 E207.1115
G1 X133.581 Y109.699 E207.16092
G1 X133.792 Y109.381 E207.21423
G1 X134.124 Y108.948 E207.29045
G1 X134.36 Y108.678 E207.34055
G1 X134.643 Y108.429 E207.3932
G1 X135.076 Y108.097 E207.46943
G1 X135.376 Y107.896 E207.51987
G1 X135.712 Y107.731 E207.57216
G1 X136.214 Y107.524 E207.64801
G1 X136.66 Y107.373 E207.71379
G1 X137.453 Y107.265 E207.82559
G1 X137.82 Y107.242 E207.87696
G1 X138.187 Y107.265 E207.92833
G1 X138.725 Y107.336 E208.00413
G1 X139.085 Y107.408 E208.05542
G1 X139.426 Y107.524 E208.10573
G1 X139.928 Y107.731 E208.18159
G1 X140.264 Y107.896 E208.23388
G1 X140.564 Y108.097 E208.28432
G1 X140.997 Y108.429 E208.36054
G1 X141.281 Y108.679 E208.4134
G1 X141.516 Y108.948 E208.46329
G1 X141.848 Y109.381 E208.53951
G1 X142.059 Y109.699 E208.59283
G1 X142.214 Y110.017 E208.64224
G1 X142.421 Y110.519 E208.7181
G1 X142.509 Y110.762 E208.7542
G1 X142.589 Y111.072 E208.79892
G1 X142.699 Y111.9 E208.9156
G1 X142.704 Y112.281 E208.96883
G1 X142.591 Y113.173 E209.09443
G1 X142.509 Y113.488 E209.1399
G1 X142.421 Y113.731 E209.17601
G1 X142.155 Y114.377 E209.2736
G1 X141.995 Y114.658 E209.31877
G1 X141.848 Y114.869 E209.35469
G1 X141.516 Y115.302 E209.43091
G1 X141.28 Y115.572 E209.48101
G1 X140.997 Y115.821 E209.53366
G1 X140.565 Y116.153 E209.60977
G1 X140.264 Y116.354 E209.66033
G1 X139.928 Y116.519 E209.71262
G1 X139.426 Y116.726 E209.78848
G1 X138.986 Y116.875 E209.85337
G1 X138.187 Y116.985 E209.96604
G1 X137.82 Y117.008 E210.01741
G1 X137.453 Y116.985 E210.06877
G1 X136.915 Y116.914 E210.14458
G1 X136.556 Y116.842 E210.19573
G0 F6000 X136.763 Y116.069
G1 F1200 X136.519 Y115.987 E210.23169
G1 X136.017 Y115.78 E210.30754
G1 X135.777 Y115.661 E210.34496
G1 X135.562 Y115.518 E210.38103
G1 X135.13 Y115.186 E210.45714
G1 X134.927 Y115.008 E210.49486
G1 X134.759 Y114.815 E210.5306
G1 X134.354 Y114.287 E210.62356
G1 X134.207 Y114.031 E210.6648
G1 X133.869 Y113.211 E210.78869
G1 X133.745 Y112.311 E210.9156
G1 X133.738 Y111.977 E210.96227
G1 X133.87 Y111.038 E211.09473
G1 X134.166 Y110.322 E211.20296
G1 X134.276 Y110.095 E211.2382
G1 X134.427 Y109.868 E211.27629
G1 X134.759 Y109.434 E211.35262
G1 X134.927 Y109.242 E211.38826
G1 X135.129 Y109.064 E211.42587
G1 X135.563 Y108.732 E211.5022
G1 X135.777 Y108.588 E211.53823
G1 X136.017 Y108.47 E211.57559
G1 X136.519 Y108.263 E211.65144
G1 X136.842 Y108.155 E211.69902
G1 X137.558 Y108.059 E211.79993
G1 X137.82 Y108.042 E211.83661
G1 X138.082 Y108.059 E211.87329
G1 X138.62 Y108.129 E211.94907
G1 X138.877 Y108.181 E211.9857
G1 X139.121 Y108.263 E212.02166
G1 X139.623 Y108.47 E212.09751
G1 X139.863 Y108.588 E212.13487
G1 X140.077 Y108.732 E212.17091
G1 X140.511 Y109.064 E212.24724
G1 X140.713 Y109.242 E212.28485
G1 X140.881 Y109.434 E212.32049
G1 X141.213 Y109.868 E212.39682
G1 X141.364 Y110.095 E212.4349
G1 X141.474 Y110.322 E212.47014
G1 X141.77 Y111.038 E212.57837
G1 X141.902 Y111.977 E212.71083
G1 X141.895 Y112.311 E212.7575
G1 X141.771 Y113.211 E212.88441
G1 X141.433 Y114.03 E213.00818
G1 X141.289 Y114.283 E213.04884
G1 X140.881 Y114.815 E213.1425
G1 X140.713 Y115.008 E213.17824
G1 X140.51 Y115.186 E213.21596
G1 X140.078 Y115.518 E213.29207
G1 X139.863 Y115.662 E213.32822
G1 X139.623 Y115.78 E213.36558
G1 X139.121 Y115.987 E213.44143
G1 X138.804 Y116.093 E213.48812
G1 X138.082 Y116.191 E213.5899
G1 X137.82 Y116.208 E213.62658
G1 X137.558 Y116.191 E213.66326
G1 X137.02 Y116.121 E213.73905
G1 X136.763 Y116.069 E213.77567
G0 F6000 X137.753 Y115.914
G0 X137.819 Y115.419
G1 F1200 X136.966 Y115.305 E213.89589
G1 X136.174 Y114.979 E214.01553
G1 X135.486 Y114.451 E214.13668
G1 X134.968 Y113.764 E214.25687
G1 X134.645 Y112.994 E214.37352
G1 X134.528 Y112.136 E214.49448
G1 X134.644 Y111.26 E214.61792
G1 X134.967 Y110.478 E214.73611
G1 X135.489 Y109.796 E214.85609
G1 X136.174 Y109.271 E214.97665
G1 X136.824 Y109.003 E215.07486
G1 X137.074 Y108.93 E215.11125
G1 X137.818 Y108.832 E215.21607
G1 X138.67 Y108.943 E215.3361
G1 X139.466 Y109.271 E215.45636
G1 X140.151 Y109.796 E215.57693
G1 X140.673 Y110.478 E215.6969
G1 X140.996 Y111.26 E215.81509
G1 X141.112 Y112.136 E215.93853
G1 X140.995 Y112.994 E216.05949
G1 X140.672 Y113.764 E216.17614
G1 X140.154 Y114.451 E216.29633
G1 X139.466 Y114.979 E216.41748
G1 X138.679 Y115.304 E216.53642
G1 X137.819 Y115.419 E216.65763
G1 F1500 E210.65763
G0 F6000 X137.753 Y115.914
G0 X133.57 Y115.047
G0 X101.43 Y115.047
G0 X98.346 Y116.875
G1 F1500 E216.65763
G1 F1200 X97.547 Y116.985 E216.77029
G1 X97.18 Y117.008 E216.82166
G1 X96.813 Y116.985 E216.87303
G1 X96.275 Y116.914 E216.94884
G1 X95.916 Y116.842 E216.99998
G1 X95.574 Y116.726 E217.05043
G1 X95.072 Y116.52 E217.12623
G1 X94.736 Y116.354 E217.17859
G1 X94.435 Y116.153 E217.22915
G1 X94.003 Y115.821 E217.30526
G1 X93.719 Y115.572 E217.35802
G1 X93.484 Y115.302 E217.40802
G1 X93.152 Y114.869 E217.48424
G1 X93.005 Y114.658 E217.52016
G1 X92.847 Y114.381 E217.56471
G1 X92.579 Y113.731 E217.66293
G1 X92.491 Y113.487 E217.69916
G1 X92.409 Y113.173 E217.74449
G1 X92.296 Y112.281 E217.8701
G1 X92.301 Y111.901 E217.92318
G1 X92.411 Y111.072 E218.04
G1 X92.491 Y110.762 E218.08473
G1 X92.579 Y110.519 E218.12083
G1 X92.786 Y110.017 E218.19668
G1 X92.941 Y109.699 E218.2461
G1 X93.152 Y109.381 E218.29941
G1 X93.484 Y108.948 E218.37563
G1 X93.72 Y108.678 E218.42573
G1 X94.003 Y108.429 E218.47838
G1 X94.436 Y108.097 E218.55461
G1 X94.736 Y107.896 E218.60505
G1 X95.072 Y107.731 E218.65734
G1 X95.574 Y107.524 E218.73319
G1 X96.02 Y107.373 E218.79897
G1 X96.813 Y107.265 E218.91077
G1 X97.18 Y107.242 E218.96214
G1 X97.547 Y107.265 E219.01351
G1 X98.085 Y107.336 E219.08931
G1 X98.445 Y107.408 E219.1406
G1 X98.786 Y107.524 E219.19091
G1 X99.288 Y107.731 E219.26677
G1 X99.624 Y107.896 E219.31906
G1 X99.924 Y108.097 E219.3695
G1 X100.357 Y108.429 E219.44572
G1 X100.641 Y108.679 E219.49858
G1 X100.876 Y108.948 E219.54847
G1 X101.208 Y109.381 E219.62469
G1 X101.419 Y109.699 E219.67801
G1 X101.574 Y110.017 E219.72742
G1 X101.781 Y110.519 E219.80328
G1 X101.869 Y110.762 E219.83938
G1 X101.949 Y111.072 E219.8841
G1 X102.059 Y111.9 E220.00078
G1 X102.064 Y112.281 E220.05401
G1 X101.951 Y113.173 E220.17961
G1 X101.869 Y113.488 E220.22508
G1 X101.781 Y113.731 E220.26119
G1 X101.515 Y114.377 E220.35878
G1 X101.355 Y114.658 E220.40395
G1 X101.208 Y114.869 E220.43987
G1 X100.876 Y115.302 E220.51609
G1 X100.64 Y115.572 E220.56619
G1 X100.357 Y115.821 E220.61884
G1 X99.925 Y116.153 E220.69495
G1 X99.624 Y116.354 E220.74551
G1 X99.288 Y116.519 E220.7978
G1 X98.786 Y116.726 E220.87366
G1 X98.346 Y116.875 E220.93855
G0 F6000 X98.164 Y116.093
G1 F1200 X97.442 Y116.191 E221.04033
G1 X97.18 Y116.208 E221.07701
G1 X96.918 Y116.191 E221.11369
G1 X96.38 Y116.121 E221.18948
G1 X96.123 Y116.069 E221.2261
G1 X95.879 Y115.987 E221.26206
G1 X95.377 Y115.78 E221.33792
G1 X95.137 Y115.661 E221.37534
G1 X94.922 Y115.518 E221.41141
G1 X94.49 Y115.186 E221.48752
G1 X94.287 Y115.008 E221.52523
G1 X94.119 Y114.815 E221.56098
G1 X93.714 Y114.287 E221.65393
G1 X93.567 Y114.031 E221.69517
G1 X93.229 Y113.211 E221.81907
G1 X93.105 Y112.311 E221.94598
G1 X93.098 Y111.977 E221.99265
G1 X93.23 Y111.038 E222.12511
G1 X93.526 Y110.322 E222.23334
G1 X93.636 Y110.095 E222.26858
G1 X93.787 Y109.868 E222.30666
G1 X94.119 Y109.434 E222.38299
G1 X94.287 Y109.242 E222.41863
G1 X94.489 Y109.064 E222.45624
G1 X94.923 Y108.732 E222.53257
G1 X95.137 Y108.588 E222.5686
G1 X95.377 Y108.47 E222.60596
G1 X95.879 Y108.263 E222.68182
G1 X96.202 Y108.155 E222.72939
G1 X96.918 Y108.059 E222.83031
G1 X97.18 Y108.042 E222.86699
G1 X97.442 Y108.059 E222.90366
G1 X97.98 Y108.129 E222.97945
G1 X98.237 Y108.181 E223.01608
G1 X98.481 Y108.263 E223.05204
G1 X98.983 Y108.47 E223.12789
G1 X99.223 Y108.588 E223.16525
G1 X99.437 Y108.732 E223.20128
G1 X99.871 Y109.064 E223.27761
G1 X100.073 Y109.242 E223.31522
G1 X100.241 Y109.434 E223.35086
G1 X100.573 Y109.868 E223.42719
G1 X100.724 Y110.095 E223.46528
G1 X100.834 Y110.322 E223.50052
G1 X101.13 Y111.038 E223.60875
G1 X101.262 Y111.977 E223.74121
G1 X101.255 Y112.311 E223.78787
G1 X101.131 Y113.211 E223.91479
G1 X100.793 Y114.03 E224.03855
G1 X100.649 Y114.283 E224.07922
G1 X100.241 Y114.815 E224.17287
G1 X100.073 Y115.008 E224.20862
G1 X99.87 Y115.186 E224.24633
G1 X99.438 Y115.518 E224.32244
G1 X99.223 Y115.662 E224.35859
G1 X98.983 Y115.78 E224.39595
G1 X98.481 Y115.987 E224.4718
G1 X98.164 Y116.093 E224.5185
G0 F6000 X97.113 Y115.914
G0 X97.179 Y115.419
G1 F1200 X96.326 Y115.305 E224.63871
G1 X95.534 Y114.979 E224.75836
G1 X94.846 Y114.451 E224.87951
G1 X94.328 Y113.764 E224.9997
G1 X94.005 Y112.994 E225.11634
G1 X93.888 Y112.136 E225.23731
G1 X94.004 Y111.26 E225.36075
G1 X94.327 Y110.478 E225.47894
G1 X94.849 Y109.796 E225.59891
G1 X95.534 Y109.271 E225.71947
G1 X96.184 Y109.003 E225.81769
G1 X96.434 Y108.93 E225.85407
G1 X97.178 Y108.832 E225.9589
G1 X98.03 Y108.943 E226.07892
G1 X98.826 Y109.271 E226.19919
G1 X99.511 Y109.796 E226.31975
G1 X100.033 Y110.478 E226.43972
G1 X100.356 Y111.26 E226.55791
G1 X100.472 Y112.136 E226.68135
G1 X100.355 Y112.994 E226.80232
G1 X100.032 Y113.764 E226.91896
G1 X99.514 Y114.451 E227.03915
G1 X98.826 Y114.979 E227.1603
G1 X98.039 Y115.304 E227.27925
G1 X97.179 Y115.419 E227.40045
G0 F6000 X97.18 Y114.612
;TYPE:WALL-OUTER
G1 F1200 X96.538 Y114.524 E227.49097
G1 X95.939 Y114.277 E227.58148
G1 X95.421 Y113.884 E227.67231
G1 X95.022 Y113.361 E227.7642
G1 X94.776 Y112.748 E227.85647
G1 X94.694 Y112.13 E227.94356
G1 X94.776 Y111.502 E228.03203
G1 X95.027 Y110.887 E228.12482
G1 X95.421 Y110.366 E228.21607
G1 X95.939 Y109.973 E228.3069
G1 X96.538 Y109.722 E228.39763
G1 X97.181 Y109.638 E228.48821
G1 X97.822 Y109.726 E228.57859
G1 X98.421 Y109.973 E228.6691
G1 X98.939 Y110.366 E228.75993
G1 X99.333 Y110.887 E228.85118
G1 X99.584 Y111.502 E228.94397
G1 X99.666 Y112.13 E229.03244
