;FLAVOR:Marlin
;TIME:18579
;Filament used: 70.8125m
;Layer height: 0.6
;MINX:8.501
;MINY:43.392
;MINZ:0.4
;MAXX:226.7
;MAXY:191.605
;MAXZ:67.6
;Generated with Cura_SteamEngine 5.3.1
M82 ;absolute extrusion mode
; START G-CODE BEGIN

M104 S230.0 ﻿T0
M140 S60.0

G28 ; Home all axes
G92 E0 ; Reset Extruder
M420 S1 ; Load Mesh

M109 S230.0 ﻿T0
M190 S60.0

G92 E0 ; Reset Extruder

G1 X0.6 Y20 Z0.3 F5000.0 ; Move to start position
G1 X0.6 Y200.0 Z0.3 F1500.0 E15 ; Draw the first line
G1 X0.9 Y200.0 Z0.3 F5000.0 ; Move to side a little
G1 X0.9 Y20 Z0.3 F1500.0 E30 ; Draw the second line
G92 E0 ; Reset Extruder
G1 Z2.0 F3000 ; Move Z Axis up little to prevent scratching of Heat Bed
G1 X5 Y20 Z0.3 F5000.0 ; Move over to prevent blob squish

; START G-CODE END
G92 E0
G92 E0
G1 F2100 E-10
;LAYER_COUNT:113
;LAYER:0
M107
;MESH:plusle tpu wheel guard.stl
G0 F6000 X95.339 Y168.636 Z0.4
;TYPE:WALL-INNER
G1 F2100 E0
G1 F1200 X95.163 Y168.058 E0.13263
G1 X95.049 Y167.483 E0.26131
G1 X94.943 Y166.419 E0.49603
G1 X94.929 Y166.121 E0.56152
G1 X94.929 Y136.48 E7.06822
G1 X18.301 Y136.48 E23.88936
G1 X18.3 Y137.105 E24.02656
G1 X18.245 Y137.68 E24.15336
G1 X18.119 Y138.132 E24.25636
G1 X17.965 Y138.483 E24.3405
G1 X17.805 Y138.756 E24.40997
G1 X17.628 Y138.997 E24.4756
G1 X17.415 Y139.233 E24.54539
G1 X17.16 Y139.459 E24.62019
G1 X16.864 Y139.665 E24.69935
G1 X16.527 Y139.843 E24.78301
G1 X16.152 Y139.982 E24.87081
G1 X15.744 Y140.072 E24.96252
G1 X15.316 Y140.104 E25.05674
G1 X14.877 Y140.075 E25.15332
G1 X14.444 Y139.98 E25.25063
G1 X10.901 Y138.927 E26.062
G1 X10.901 Y143.515 E27.06914
G1 X95.339 Y168.636 E46.40762
G0 F6000 X97.7 Y170.59
G1 F1200 X97.458 Y170.296 E46.49121
G1 X97.261 Y170.002 E46.5689
G1 X96.757 Y169.057 E46.804
G1 X96.623 Y168.732 E46.88117
G1 X96.312 Y167.709 E47.11588
G1 X96.243 Y167.364 E47.19312
G1 X96.129 Y166.22 E47.44549
G1 X96.129 Y135.28 E54.23734
G1 X17.101 Y135.28 E71.58532
G1 X17.1 Y137.105 E71.98594
G1 X17.067 Y137.45 E72.06202
G1 X16.992 Y137.721 E72.12374
G1 X16.803 Y138.096 E72.21593
G1 X16.569 Y138.382 E72.29704
G1 X16.239 Y138.641 E72.38913
G1 X15.714 Y138.874 E72.51522
G1 X15.31 Y138.904 E72.60415
G1 X15.046 Y138.887 E72.66222
G1 X14.786 Y138.83 E72.72065
G1 X9.701 Y137.317 E73.88526
G1 X9.701 Y144.411 E75.44251
G1 X97.7 Y170.59 E95.59646
G0 F6000 X100.978 Y171.944
G0 X101.935 Y172.233
G0 X118.719 Y174.524
G1 F1323.5 X124.817 Y175.607 E96.82913
G1 F1307.9 X125.198 Y175.648 E96.90631
G1 F1275.5 X125.58 Y175.689 E96.98566
G1 F1244.6 X125.962 Y175.731 E97.06699
G1 F1216.2 X126.344 Y175.772 E97.15021
G1 F1188.1 X126.725 Y175.814 E97.23519
G1 F1162.2 X127.107 Y175.855 E97.32227
G1 F1136.5 X127.489 Y175.897 E97.41134
G1 F1112 X127.871 Y175.938 E97.50235
G1 F1089.3 X128.252 Y175.98 E97.59505
G1 F1066.7 X128.634 Y176.021 E97.68993
G1 F1045.8 X129.016 Y176.063 E97.78673
G1 F1024.9 X129.398 Y176.104 E97.88548
G1 F1004.9 X129.78 Y176.146 E97.98622
G1 F986.3 X130.161 Y176.187 E98.08856
G1 F967.7 X130.543 Y176.229 E98.19317
G1 F950.5 X130.925 Y176.27 E98.29965
G1 F933.2 X131.307 Y176.312 E98.40812
G1 F916.6 X131.688 Y176.353 E98.51825
G1 F894.4 X132.584 Y176.428 E98.78306
G1 F866.9 X133.488 Y176.504 E99.0587
G1 F841.6 X134.392 Y176.58 E99.34265
G1 F817.3 X135.296 Y176.655 E99.63503
G1 F852.1 X135.55 Y176.782 E99.72282
G1 F963.9 X135.803 Y176.909 E99.80019
G1 F1109.4 X136.056 Y177.036 E99.86741
G1 F1200 X138.489 Y177.311 E100.40489
G1 X145.388 Y177.864 E101.9242
G1 X152.324 Y178.197 E103.44852
G1 X159.233 Y178.308 E104.96536
G1 X205.081 Y178.307 E115.02977
G1 X206.23 Y178.23 E115.28256
G1 X207.261 Y178.015 E115.51375
G1 X207.601 Y177.904 E115.59226
G1 X208.006 Y177.735 E115.6886
G1 X208.305 Y177.577 E115.76283
G1 X208.75 Y177.291 E115.87895
G1 X209.114 Y176.935 E115.99072
G1 X209.341 Y176.586 E116.08211
G1 X209.44 Y176.246 E116.15985
G1 X209.462 Y175.961 E116.2226
G1 X209.462 Y172.349 E117.01549
G1 X208.645 Y173.025 E117.24827
G1 X208.157 Y173.351 E117.3771
G1 X207.261 Y173.83 E117.60013
G1 X206.875 Y174.003 E117.69298
G1 X205.604 Y174.394 E117.98489
G1 X205.17 Y174.465 E118.08143
G1 X204.15 Y174.566 E118.30643
G1 X203.854 Y174.58 E118.37148
G1 X136.194 Y174.581 E133.22399
G1 F1109.4 X135.929 Y174.678 E133.291
G1 F963.9 X135.663 Y174.776 E133.36847
G1 F852.1 X135.397 Y174.873 E133.456
G1 F817.3 X134.49 Y174.849 E133.74845
G1 F841.6 X133.583 Y174.824 E134.03245
G1 F866.9 X132.676 Y174.798 E134.30815
G1 F894.4 X131.769 Y174.773 E134.57538
G1 F916.6 X131.387 Y174.759 E134.68524
G1 F933.2 X131.005 Y174.745 E134.79313
G1 F950.5 X130.623 Y174.731 E134.89907
G1 F967.7 X130.241 Y174.718 E135.00311
G1 F986.3 X129.86 Y174.704 E135.10494
G1 F1004.9 X129.478 Y174.69 E135.20514
G1 F1024.9 X129.096 Y174.676 E135.30339
G1 F1045.8 X128.714 Y174.663 E135.39967
G1 F1066.7 X128.332 Y174.649 E135.49407
G1 F1089.3 X127.951 Y174.635 E135.58627
G1 F1112 X127.569 Y174.622 E135.67682
G1 F1136.5 X127.187 Y174.608 E135.76541
G1 F1162.2 X126.805 Y174.594 E135.85205
G1 F1188.1 X126.424 Y174.58 E135.93658
G1 F1216.2 X126.042 Y174.567 E136.01937
G1 F1244.6 X125.66 Y174.553 E136.10027
G1 F1275.5 X125.278 Y174.539 E136.17922
G1 F1307.9 X124.896 Y174.526 E136.2562
G1 F1323.5 X118.719 Y174.524 E137.4856
G0 F6000 X124.626 Y176.736
G1 F1200 X131.489 Y177.732 E139.00793
G1 X138.374 Y178.505 E140.5288
G1 X145.312 Y179.062 E142.05671
G1 X152.256 Y179.396 E143.58279
G1 X159.223 Y179.508 E145.11236
G1 X205.121 Y179.507 E155.18775
G1 X206.393 Y179.422 E155.4676
G1 X207.57 Y179.176 E155.73155
G1 X208.018 Y179.03 E155.83499
G1 X208.518 Y178.822 E155.95386
G1 X208.91 Y178.614 E156.05128
G1 X209.342 Y178.338 E156.16381
G1 X209.621 Y178.117 E156.24194
G1 X209.939 Y177.808 E156.33928
G1 X210.137 Y177.564 E156.40826
G1 X210.352 Y177.232 E156.49508
G1 X210.468 Y176.992 E156.5536
G1 X210.582 Y176.658 E156.63107
G1 X210.632 Y176.406 E156.68747
G1 X210.662 Y176.005 E156.77574
G1 X210.662 Y168.935 E158.32772
G1 F1217.2 X210.693 Y167.762 E158.58166
G1 X210.383 Y168.894 E158.83565
G1 F1200 X210.247 Y169.22 E158.91319
G1 X209.768 Y170.116 E159.13622
G1 X209.572 Y170.409 E159.2136
G1 X208.925 Y171.199 E159.43776
G1 X208.674 Y171.449 E159.51552
G1 X207.884 Y172.097 E159.73982
G1 X207.591 Y172.293 E159.8172
G1 X206.695 Y172.772 E160.04023
G1 X206.463 Y172.876 E160.09604
G1 X205.201 Y173.256 E160.38536
G1 X203.951 Y173.38 E160.6611
G1 X108.136 Y173.38 E181.69411
G1 X110.992 Y174.08 E182.33961
G1 X117.792 Y175.52 E183.86543
G1 X124.626 Y176.736 E185.38917
G1 F2100 E175.38917
G0 F6000 X136.15 Y175.047
G0 X203.937 Y173.219
G0 X205.192 Y173.096
G0 X206.476 Y172.705
G0 X207.661 Y172.074
G0 X208.697 Y171.222
G0 X209.549 Y170.186
G0 X210.059 Y169.227
G0 X210.695 Y167.703
G1 F2100 E185.38917
G1 F1298.5 X210.72 Y167.256 E185.47999
G1 F2100 E175.47999
G0 F6000 X210.18 Y169.001
G0 X209.549 Y170.186
G0 X208.697 Y171.222
G0 X207.661 Y172.074
G0 X206.476 Y172.705
G0 X205.192 Y173.096
G0 X203.937 Y173.219
G0 X136.15 Y175.047
G0 X124.622 Y176.839
G0 X124.435 Y177.921
;TYPE:WALL-OUTER
G1 F2100 E185.47999
G1 F1200 X131.336 Y178.922 E187.01073
G1 X138.259 Y179.7 E188.54001
G1 X145.235 Y180.26 E190.07629
G1 X152.218 Y180.596 E191.61095
G1 X159.213 Y180.708 E193.14667
G1 X205.161 Y180.707 E203.23303
G1 X206.557 Y180.614 E203.54015
G1 X207.88 Y180.337 E203.83687
G1 X208.434 Y180.156 E203.96481
G1 X209.03 Y179.909 E204.10643
G1 X209.516 Y179.652 E204.22712
G1 X210.04 Y179.316 E204.36376
G1 X210.413 Y179.02 E204.46829
G1 X210.826 Y178.62 E204.5945
G1 X211.109 Y178.27 E204.6933
G1 X211.4 Y177.822 E204.81057
G1 X211.58 Y177.448 E204.90169
G1 X211.744 Y176.969 E205.01283
G1 X211.824 Y176.566 E205.10302
G1 X211.862 Y176.049 E205.21681
G1 X211.862 Y167.256 E207.14703
G1 F1121.5 X211.778 Y166.99 E207.21255
G1 F991.1 X211.694 Y166.724 E207.28669
G1 F888.3 X211.609 Y166.458 E207.3695
G1 F844.6 X211.609 Y105.151 E226.49096
G1 F845.1 X211.61 Y43.844 E245.60121
G1 X209.906 Y43.844 E246.13237
G1 X209.906 Y44.696 E246.39795
G1 X209.906 Y105.56 E265.37011
G1 F844.6 X209.905 Y166.424 E284.35341
G1 F859.7 X209.871 Y166.471 E284.37118
G1 F939.3 X209.727 Y166.807 E284.47369
G1 F1098.4 X209.583 Y167.144 E284.56158
G1 F1200 X209.546 Y167.502 E284.64059
G1 X209.218 Y168.6 E284.89214
G1 X208.683 Y169.6 E285.1411
G1 X207.962 Y170.481 E285.391
G1 X207.075 Y171.208 E285.64276
G1 X206.083 Y171.739 E285.88976
G1 X205.006 Y172.065 E286.13677
G1 X203.914 Y172.178 E286.37776
G1 F1201 X103.326 Y172.176 E308.44013
G1 F1245.7 X102.226 Y172.019 E308.6751
G1 F1289.2 X101.038 Y171.661 E308.92863
G1 F1241.4 X100.027 Y171.168 E309.16731
G1 F1200 X99.102 Y170.406 E309.43039
G1 X98.347 Y169.486 E309.69164
G1 X97.788 Y168.439 E309.95219
G1 X97.443 Y167.304 E310.21259
G1 X97.331 Y166.181 E310.46033
G1 X97.329 Y134.08 E317.50704
G1 X15.901 Y134.08 E335.38187
G1 X15.9 Y137.189 E336.06434
G1 X15.766 Y137.483 E336.13527
G1 X15.613 Y137.617 E336.17992
G1 X15.389 Y137.698 E336.2322
G1 X15.192 Y137.699 E336.27545
G1 X8.501 Y135.708 E337.80788
G1 X8.501 Y145.306 E339.91481
G1 X97.301 Y171.723 E360.25219
G1 X99.598 Y172.367 E360.77586
G1 F1247.8 X100.832 Y172.76 E361.04925
G1 F1305.5 X101.876 Y173.059 E361.26837
G1 F1254.4 X103.105 Y173.35 E361.5336
G1 F1201 X103.991 Y173.598 E361.7354
G1 F1200 X110.743 Y175.254 E363.26151
G1 X117.582 Y176.702 E364.79607
G1 X124.435 Y177.921 E366.32403
G0 F6000 X124.622 Y176.839
G0 X142.23 Y177.204
G0 X142.318 Y176.097
;TYPE:SKIN
G1 F775.4 X142.584 Y175.934 E366.43001
G1 F940.6 X142.85 Y175.771 E366.51738
G1 F1195 X143.116 Y175.607 E366.58626
G1 F1352.1 X144.3 Y175.63 E366.81697
G1 F1293.8 X145.484 Y175.654 E367.05809
G1 F1252.2 X146.633 Y175.667 E367.29982
G1 F1222.4 X147.783 Y175.681 E367.54765
G1 F1194 X148.933 Y175.695 E367.80138
G1 F1166.9 X150.083 Y175.709 E368.061
G1 F1141 X151.233 Y175.723 E368.3265
G1 F1116.3 X152.383 Y175.737 E368.5979
G1 F1092.6 X155.818 Y175.75 E369.42609
G1 F1069.8 X159.253 Y175.764 E370.27188
G1 F1058.8 X203.89 Y175.764 E381.37694
G1 F1055.7 X204.223 Y175.752 E381.46008
G1 F1036 X205.338 Y175.664 E381.74448
G1 F1010.5 X205.806 Y175.599 E381.86764
G1 F997.9 X206.111 Y175.523 E381.95062
G1 F987.7 X206.543 Y175.402 E382.07027
G1 F986.3 X207.258 Y175.177 E382.27046
G1 F991.7 X207.795 Y174.938 E382.42659
G1 X208.232 Y174.706 E382.55801
G1 X208.232 Y176.029 E382.90941
G1 X208.136 Y176.165 E382.95363
G1 X207.911 Y176.367 E383.03395
G1 X207.569 Y176.586 E383.14182
G1 F989 X207.033 Y176.795 E383.29505
G1 F993.8 X206.06 Y177.015 E383.55947
G1 F1013.4 X205.046 Y177.101 E383.824
G1 F1042 X203.922 Y177.123 E384.10821
G1 F1058.8 X159.247 Y177.124 E395.22272
G1 F1069.8 X155.81 Y177.083 E396.06905
G1 F1092.6 X152.373 Y177.041 E396.89778
G1 F1116.3 X151.22 Y177 E397.17004
G1 F1141 X150.067 Y176.958 E397.4364
G1 F1166.9 X148.914 Y176.917 E397.69684
G1 F1194 X147.76 Y176.875 E397.95159
G1 F1222.4 X146.607 Y176.834 E398.20021
G1 F1252.2 X145.454 Y176.792 E398.44293
G1 F1293.8 X144.265 Y176.72 E398.68546
G1 F1352.1 X143.074 Y176.648 E398.91791
G1 F1195 X142.822 Y176.465 E398.98656
G1 F940.6 X142.57 Y176.281 E399.07395
G1 F775.4 X142.318 Y176.097 E399.17995
G1 F721.8 X141.704 Y176.073 E399.4042
G1 F740 X141.089 Y176.048 E399.62331
G1 F759.1 X140.475 Y176.023 E399.83655
G1 F779.2 X139.86 Y175.999 E400.04462
G1 F800.4 X139.245 Y175.974 E400.24717
G1 F822.9 X138.631 Y175.949 E400.4439
G1 F855.1 X137.889 Y175.908 E400.67282
G1 F899.4 X137.147 Y175.867 E400.89046
G1 F949.2 X136.405 Y175.826 E401.09669
G1 F2100 E391.09669
G0 F6000 X136.311 Y176.659
G0 X102.161 Y172.302
G0 X100.978 Y171.944
G0 X100.669 Y171.779
G0 X93.697 Y167.725
G0 X93.896 Y167.056
G1 F2100 E401.09669
G1 F1200 X15.593 Y143.759 E419.03017
G1 F1193 X15.111 Y143.608 E419.1417
G1 F1104.3 X14.882 Y143.447 E419.20847
G1 F920.7 X14.445 Y143.138 E419.3616
G1 F840.1 X13.561 Y142.897 E419.64888
G1 F850.1 X12.253 Y142.508 E420.07176
G1 X12.253 Y140.739 E420.61994
G1 F849.6 X14.107 Y141.29 E421.21966
G1 F839.2 X14.751 Y141.441 E421.4273
G1 F920.7 X15.268 Y141.304 E421.58032
G1 F1104.3 X15.364 Y141.215 E421.61155
G1 F1193 X15.949 Y141.156 E421.74137
G1 F1200 X16.422 Y141.052 E421.84768
G1 X16.94 Y140.868 E421.96835
G1 X17.409 Y140.626 E422.0842
G1 X17.815 Y140.349 E422.19209
G1 X18.172 Y140.036 E422.29632
G1 X18.507 Y139.667 E422.40572
G1 X18.725 Y139.367 E422.48713
G1 X18.928 Y139.022 E422.575
G1 X19.163 Y138.498 E422.70106
G1 X19.331 Y137.894 E422.83868
G1 X19.36 Y137.584 E422.90703
G1 X93.825 Y137.584 E439.25336
G1 X93.825 Y166.166 E445.52759
G1 X93.842 Y166.51 E445.60319
G1 X93.896 Y167.056 E445.72364
G1 F2100 E435.72364
G0 F6000 X93.697 Y167.725
G0 X94.608 Y167.916
G0 X94.525 Y139.046
G0 X93.225 Y139.046
G1 F2100 E445.72364
G1 F1200 X92.362 Y138.183 E445.99155
G0 F6000 X92.362 Y136.884
G0 X90.665 Y136.884
G0 X90.665 Y138.183
G1 F1200 X93.225 Y140.743 E446.78628
G0 F6000 X94.525 Y140.743
G0 X94.525 Y142.44
G0 X93.225 Y142.44
G1 F1200 X88.968 Y138.183 E448.10784
G0 F6000 X88.968 Y136.884
G0 X87.271 Y136.884
G0 X87.271 Y138.183
G1 F1200 X93.225 Y144.137 E449.95623
G0 F6000 X94.525 Y144.137
G0 X94.525 Y145.834
G0 X93.225 Y145.834
G1 F1200 X85.574 Y138.183 E452.33143
G0 F6000 X85.574 Y136.884
G0 X83.877 Y136.884
G0 X83.877 Y138.183
G1 F1200 X93.225 Y147.531 E455.23346
G0 F6000 X94.525 Y147.531
G0 X94.525 Y149.229
G0 X93.226 Y149.229
G1 F1200 X82.18 Y138.183 E458.66262
G0 F6000 X82.18 Y136.884
G0 X80.483 Y136.884
G0 X80.483 Y138.183
G1 F1200 X93.226 Y150.926 E462.61861
G0 F6000 X94.525 Y150.926
G0 X94.525 Y152.623
G0 X93.226 Y152.623
G1 F1200 X78.786 Y138.183 E467.10141
G0 F6000 X78.786 Y136.884
G0 X77.089 Y136.884
G0 X77.089 Y138.183
G1 F1200 X93.226 Y154.32 E472.11104
G0 F6000 X94.525 Y154.32
G0 X94.525 Y156.017
G0 X93.226 Y156.017
G1 F1200 X75.392 Y138.183 E477.6475
G0 F6000 X75.392 Y136.884
G0 X73.695 Y136.884
G0 X73.695 Y138.183
G1 F1200 X93.227 Y157.715 E483.71109
G0 F6000 X94.525 Y157.715
G0 X94.525 Y159.412
G0 X93.227 Y159.412
G1 F1200 X71.998 Y138.183 E490.3015
G0 F6000 X71.998 Y136.884
G0 X70.301 Y136.884
G0 X70.301 Y138.183
G1 F1200 X93.227 Y161.109 E497.41873
G0 F6000 X94.525 Y161.109
G0 X94.525 Y162.806
G0 X93.227 Y162.806
G1 F1200 X68.604 Y138.183 E505.06279
G0 F6000 X68.604 Y136.884
G0 X66.907 Y136.884
G0 X66.907 Y138.183
G1 F1200 X93.227 Y164.503 E513.23367
G0 F6000 X94.525 Y164.503
G0 X94.524 Y166.119
G0 X93.227 Y166.2
G1 F1200 X65.21 Y138.183 E521.93137
G0 F6000 X65.21 Y136.884
G0 X63.513 Y136.884
G0 X63.513 Y138.183
G1 F1200 X90.853 Y165.523 E530.4189
G0 F6000 X90.482 Y166.769
G0 X88.066 Y166.05
G0 X88.437 Y164.804
G1 F1200 X61.815 Y138.183 E538.68338
G0 F6000 X61.815 Y136.884
G0 X60.118 Y136.884
G0 X60.118 Y138.183
G1 F1200 X86.021 Y164.086 E546.72481
G0 F6000 X85.65 Y165.331
G0 X83.234 Y164.613
G0 X83.605 Y163.367
G1 F1200 X58.421 Y138.183 E554.54302
G0 F6000 X58.421 Y136.884
G0 X56.724 Y136.884
G0 X56.724 Y138.183
G1 F1200 X81.19 Y162.648 E562.13818
G0 F6000 X80.819 Y163.894
G0 X78.402 Y163.175
G0 X78.773 Y161.929
G1 F1200 X55.027 Y138.183 E569.50998
G0 F6000 X55.027 Y136.884
G0 X53.33 Y136.884
G0 X53.33 Y138.183
G1 F1200 X76.358 Y161.211 E576.65888
G0 F6000 X75.987 Y162.457
G0 X73.571 Y161.738
G0 X73.942 Y160.492
G1 F1200 X51.633 Y138.183 E583.58457
G0 F6000 X51.633 Y136.884
G0 X49.936 Y136.884
G0 X49.936 Y138.183
G1 F1200 X71.526 Y159.773 E590.28705
G0 F6000 X71.155 Y161.019
G0 X68.739 Y160.3
G0 X69.11 Y159.054
G1 F1200 X48.239 Y138.183 E596.76632
G0 F6000 X48.239 Y136.884
G0 X46.542 Y136.884
G0 X46.542 Y138.183
G1 F1200 X66.695 Y158.336 E603.0227
G0 F6000 X66.324 Y159.582
G0 X63.907 Y158.863
G0 X64.278 Y157.616
G1 F1200 X44.845 Y138.183 E609.05555
G0 F6000 X44.845 Y136.884
G0 X43.148 Y136.884
G0 X43.148 Y138.183
G1 F1200 X61.862 Y156.897 E614.8652
G0 F6000 X61.491 Y158.144
G0 X59.076 Y157.425
G0 X59.447 Y156.179
G1 F1200 X41.451 Y138.183 E620.45194
G0 F6000 X41.451 Y136.884
G0 X39.754 Y136.884
G0 X39.754 Y138.183
G1 F1200 X57.03 Y155.46 E625.81532
G0 F6000 X56.659 Y156.706
G0 X54.244 Y155.988
G0 X54.615 Y154.741
G1 F1200 X38.057 Y138.183 E630.95565
G0 F6000 X38.057 Y136.884
G0 X36.36 Y136.884
G0 X36.36 Y138.183
G1 F1200 X52.199 Y154.022 E635.87277
G0 F6000 X51.828 Y155.269
G0 X49.412 Y154.55
