;FLAVOR:Marlin
;TIME:18656
;Filament used: 70.7489m
;Layer height: 0.6
;MINX:8.5
;MINY:43.397
;MINZ:0.4
;MAXX:226.701
;MAXY:191.608
;MAXZ:67.6
;Generated with Cura_SteamEngine 5.3.1
M82 ;absolute extrusion mode
; START G-CODE BEGIN

M104 S230.0 ﻿T0
M140 S60.0

G28 ; Home all axes
G92 E0 ; Reset Extruder
M420 S1 ; Load Mesh

M109 S230.0 ﻿T0
M190 S60.0

G92 E0 ; Reset Extruder

G1 X0.6 Y20 Z0.3 F5000.0 ; Move to start position
G1 X0.6 Y200.0 Z0.3 F1500.0 E15 ; Draw the first line
G1 X0.9 Y200.0 Z0.3 F5000.0 ; Move to side a little
G1 X0.9 Y20 Z0.3 F1500.0 E30 ; Draw the second line
G92 E0 ; Reset Extruder
G1 Z2.0 F3000 ; Move Z Axis up little to prevent scratching of Heat Bed
G1 X5 Y20 Z0.3 F5000.0 ; Move over to prevent blob squish

; START G-CODE END
G92 E0
G92 E0
G1 F2100 E-10
;LAYER_COUNT:113
;LAYER:0
M107
;MESH:plusle tpu wheel guard.stl
G0 F6000 X118.722 Y60.475 Z0.4
;TYPE:WALL-INNER
G1 F2100 E0
G1 F1321.1 X124.894 Y60.475 E1.23066
G1 F1305.5 X125.276 Y60.462 E1.30778
G1 F1273.2 X125.659 Y60.448 E1.38708
G1 F1242.5 X126.042 Y60.434 E1.46833
G1 F1214.2 X126.425 Y60.42 E1.55148
G1 F1186.2 X126.807 Y60.407 E1.63637
G1 F1160.4 X127.19 Y60.393 E1.72337
G1 F1134.8 X127.573 Y60.379 E1.81234
G1 F1110.3 X127.956 Y60.365 E1.90327
G1 F1087.6 X128.339 Y60.352 E1.99609
G1 F1065.1 X128.721 Y60.338 E2.09063
G1 F1044.2 X129.104 Y60.324 E2.18731
G1 F1023.5 X129.487 Y60.31 E2.28595
G1 F1003.5 X129.87 Y60.296 E2.38656
G1 F985 X130.252 Y60.283 E2.48878
G1 F966.4 X130.635 Y60.269 E2.59325
G1 F949.2 X131.018 Y60.255 E2.6996
G1 F932 X131.401 Y60.241 E2.80792
G1 F915.4 X131.784 Y60.228 E2.91819
G1 F893.3 X132.688 Y60.202 E3.18488
G1 F866.4 X133.589 Y60.177 E3.45892
G1 F840.6 X134.49 Y60.152 E3.74136
G1 F816.8 X135.39 Y60.127 E4.03173
G1 F852.1 X135.655 Y60.224 E4.11897
G1 F963.9 X135.921 Y60.322 E4.19645
G1 F1109.4 X136.187 Y60.42 E4.26376
G1 F1200 X203.863 Y60.421 E19.11978
G1 X204.159 Y60.435 E19.18483
G1 X205.169 Y60.535 E19.40763
G1 X205.584 Y60.601 E19.49987
G1 X206.848 Y60.984 E19.7898
G1 X207.26 Y61.17 E19.88903
G1 X208.156 Y61.649 E20.11206
G1 X208.644 Y61.975 E20.24089
G1 X209.461 Y62.649 E20.47339
G1 X209.461 Y58.887 E21.29921
G1 X209.411 Y58.619 E21.35905
G1 X209.269 Y58.278 E21.44014
G1 X208.977 Y57.913 E21.54275
G1 X208.616 Y57.621 E21.64467
G1 X208.367 Y57.461 E21.70964
G1 X207.998 Y57.262 E21.80167
G1 X207.662 Y57.122 E21.88158
G1 X207.24 Y56.981 E21.97925
G1 X206.23 Y56.769 E22.20579
G1 X205.082 Y56.693 E22.45835
G1 X159.219 Y56.693 E32.52605
G1 X152.323 Y56.803 E34.04003
G1 X145.361 Y57.137 E35.57007
G1 X138.489 Y57.689 E37.08345
G1 X136.051 Y57.962 E37.62197
G1 F1109.4 X135.798 Y58.089 E37.68919
G1 F963.9 X135.545 Y58.216 E37.76656
G1 F852.1 X135.292 Y58.343 E37.85407
G1 F816.8 X134.387 Y58.42 E38.147
G1 F840.6 X133.483 Y58.496 E38.43128
G1 F866.4 X132.579 Y58.572 E38.70709
G1 F893.3 X131.675 Y58.649 E38.97463
G1 F915.4 X131.294 Y58.69 E39.0849
G1 F932 X130.912 Y58.731 E39.19348
G1 F949.2 X130.53 Y58.773 E39.30013
G1 F966.4 X130.148 Y58.814 E39.40484
G1 F985 X129.767 Y58.855 E39.50733
G1 F1003.5 X129.385 Y58.897 E39.60821
G1 F1023.5 X129.003 Y58.938 E39.7071
G1 F1044.2 X128.621 Y58.979 E39.80401
G1 F1065.1 X128.24 Y59.021 E39.89881
G1 F1087.6 X127.858 Y59.062 E39.99186
G1 F1110.3 X127.476 Y59.103 E40.08302
G1 F1134.8 X127.094 Y59.145 E40.17223
G1 F1160.4 X126.712 Y59.186 E40.25945
G1 F1186.2 X126.331 Y59.228 E40.34457
G1 F1214.2 X125.949 Y59.269 E40.42793
G1 F1242.5 X125.567 Y59.31 E40.50938
G1 F1273.2 X125.185 Y59.352 E40.58889
G1 F1305.5 X124.804 Y59.393 E40.66621
G1 F1321.1 X118.722 Y60.475 E41.89797
G0 F6000 X108.132 Y61.62
G1 F1200 X203.96 Y61.621 E62.93383
G1 X205.203 Y61.744 E63.20803
G1 X206.553 Y62.152 E63.51761
G1 X207.591 Y62.707 E63.776
G1 X207.884 Y62.903 E63.85338
G1 X208.674 Y63.551 E64.07767
G1 X208.924 Y63.801 E64.15529
G1 X209.573 Y64.591 E64.37972
G1 X209.768 Y64.884 E64.45698
G1 X210.247 Y65.78 E64.68001
G1 X210.382 Y66.107 E64.75767
G1 F1224.5 X210.654 Y67.088 E64.97667
G1 F1269.8 X210.703 Y67.43 E65.04834
G1 X210.685 Y67.084 E65.12021
G1 F1224.5 X210.661 Y66.066 E65.33927
G1 F1200 X210.661 Y58.967 E66.89762
G1 X210.642 Y58.678 E66.9612
G1 X210.577 Y58.32 E67.04107
G1 X210.497 Y58.079 E67.09681
G1 X210.343 Y57.749 E67.17675
G1 X210.187 Y57.506 E67.24014
G1 X209.922 Y57.174 E67.33339
G1 X209.691 Y56.947 E67.40449
G1 X209.321 Y56.647 E67.50905
G1 X208.978 Y56.427 E67.5985
G1 X208.516 Y56.178 E67.71371
G1 X208.084 Y55.997 E67.81653
G1 X207.554 Y55.82 E67.93919
G1 X206.394 Y55.577 E68.19936
G1 X205.122 Y55.493 E68.47919
G1 X159.2 Y55.493 E78.55984
G1 X152.304 Y55.603 E80.07383
G1 X145.311 Y55.937 E81.61066
G1 X138.356 Y56.496 E83.14232
G1 X131.51 Y57.265 E84.65458
G1 X124.652 Y58.258 E86.17573
G1 X117.785 Y59.48 E87.70683
G1 X111.007 Y60.916 E89.22775
G1 X108.132 Y61.62 E89.8775
G1 F2100 E79.8775
G0 F6000 X102.161 Y62.698
G0 X100.977 Y63.057
G0 X99.886 Y63.64
G0 X98.932 Y64.424
G0 X98.149 Y65.378
G0 X97.566 Y66.468
G0 X97.207 Y67.653
G0 X94.929 Y98.52
G1 F2100 E89.8775
G1 F1200 X94.93 Y68.875 E96.38508
G1 X94.944 Y68.579 E96.45013
G1 X95.049 Y67.518 E96.68418
G1 X95.163 Y66.944 E96.81264
G1 X95.338 Y66.365 E96.94542
G1 X10.9 Y91.484 E116.28377
G1 X10.9 Y96.074 E117.29136
G1 X14.444 Y95.02 E118.103
G1 X14.877 Y94.925 E118.20031
G1 X15.316 Y94.896 E118.29689
G1 X15.745 Y94.928 E118.39132
G1 X16.152 Y95.018 E118.48283
G1 X16.526 Y95.157 E118.57041
G1 X16.864 Y95.335 E118.65427
G1 X17.161 Y95.541 E118.73361
G1 X17.415 Y95.767 E118.80825
G1 X17.629 Y96.003 E118.87818
G1 X17.805 Y96.244 E118.94369
G1 X17.965 Y96.517 E119.01315
G1 X18.119 Y96.868 E119.09729
G1 X18.245 Y97.32 E119.20029
G1 X18.3 Y97.895 E119.32709
G1 X18.301 Y98.52 E119.46429
G1 X94.929 Y98.52 E136.28543
G0 F6000 X96.129 Y99.72
G1 F1200 X96.13 Y68.778 E143.07772
G1 X96.243 Y67.636 E143.32964
G1 X96.311 Y67.292 E143.40661
G1 X96.62 Y66.271 E143.64078
G1 X96.756 Y65.943 E143.71872
G1 X97.262 Y64.997 E143.95423
G1 X97.458 Y64.704 E144.03161
G1 X97.699 Y64.412 E144.11472
G1 X9.7 Y90.589 E164.26854
G1 X9.7 Y97.683 E165.8258
G1 X14.786 Y96.17 E166.99061
G1 X15.046 Y96.113 E167.04904
G1 X15.31 Y96.096 E167.10712
G1 X15.714 Y96.126 E167.19605
G1 X16.239 Y96.359 E167.32213
G1 X16.569 Y96.618 E167.41422
G1 X16.803 Y96.904 E167.49534
G1 X16.992 Y97.279 E167.58752
G1 X17.067 Y97.55 E167.64925
G1 X17.1 Y97.895 E167.72533
G1 X17.101 Y99.72 E168.12594
G1 X96.129 Y99.72 E185.47392
G1 F2100 E175.47392
G0 F6000 X97.091 Y68.832
G0 X97.207 Y67.653
G0 X97.566 Y66.468
G0 X98.149 Y65.378
G0 X98.932 Y64.424
G0 X99.886 Y63.64
G0 X100.977 Y63.057
G0 X102.161 Y62.698
G0 X103.346 Y62.581
G0 X203.906 Y62.582
G0 X205.035 Y62.693
G0 X206.169 Y63.037
G0 X207.214 Y63.595
G0 X208.128 Y64.347
G0 X208.34 Y64.605
G0 X210.717 Y67.726
G1 F2100 E185.47392
G1 F1306.7 X210.703 Y67.43 E185.53366
G1 F2100 E175.53366
G0 F6000 X210.724 Y190.338
G0 X209.906 Y191.156
;TYPE:WALL-OUTER
G1 F2100 E185.53366
G1 F845.1 X211.609 Y191.156 E186.06451
G1 X211.609 Y129.84 E205.17757
G1 F844.6 X211.608 Y68.524 E224.30184
G1 F888.3 X211.692 Y68.259 E224.38427
G1 F991.1 X211.776 Y67.993 E224.45841
G1 F1121.5 X211.86 Y67.727 E224.52393
G1 F1200 X211.861 Y58.93 E226.45502
G1 X211.836 Y58.533 E226.54235
G1 X211.743 Y58.022 E226.65636
G1 X211.614 Y57.635 E226.74591
G1 X211.397 Y57.169 E226.85875
G1 X211.163 Y56.805 E226.95374
G1 X210.814 Y56.368 E227.07651
G1 X210.491 Y56.051 E227.17586
G1 X210.026 Y55.674 E227.30726
G1 X209.589 Y55.393 E227.42131
G1 X209.033 Y55.093 E227.56
G1 X208.506 Y54.873 E227.68536
G1 X207.868 Y54.66 E227.83301
G1 X206.558 Y54.385 E228.12685
G1 X205.162 Y54.293 E228.43396
G1 X159.181 Y54.293 E238.52756
G1 X152.219 Y54.405 E240.05604
G1 X145.234 Y54.739 E241.59111
G1 X138.28 Y55.298 E243.12256
G1 X131.41 Y56.068 E244.64008
G1 X124.48 Y57.07 E246.17715
G1 X117.572 Y58.298 E247.71735
G1 X110.721 Y59.75 E249.25467
G1 X103.992 Y61.401 E250.77561
G1 F1201 X103.108 Y61.649 E250.97698
G1 F1254.4 X101.857 Y61.947 E251.24705
G1 F1299.6 X100.669 Y62.289 E251.49762
G1 F1242.5 X99.599 Y62.633 E251.73591
G1 F1200 X97.269 Y63.285 E252.26704
G1 X8.5 Y89.694 E272.5974
G1 X8.5 Y99.292 E274.70432
G1 X15.192 Y97.301 E276.23696
G1 X15.389 Y97.302 E276.28021
G1 X15.613 Y97.383 E276.3325
G1 X15.766 Y97.517 E276.37714
G1 X15.9 Y97.811 E276.44807
G1 X15.901 Y100.92 E277.13055
G1 X97.329 Y100.92 E295.00537
G1 X97.332 Y68.815 E302.05296
G1 X97.443 Y67.698 E302.29937
G1 X97.787 Y66.56 E302.56034
G1 X98.345 Y65.515 E302.82039
G1 X99.102 Y64.594 E303.08209
G1 X100.026 Y63.833 E303.34486
G1 F1242.5 X101.06 Y63.33 E303.58865
G1 F1291.5 X102.228 Y62.981 E303.83729
G1 F1246.8 X103.328 Y62.823 E304.07209
G1 F1201 X203.923 Y62.823 E326.13599
G1 F1200 X205.006 Y62.935 E326.375
G1 X206.083 Y63.262 E326.62207
G1 X207.075 Y63.792 E326.86897
G1 X207.958 Y64.516 E327.11963
G1 X208.681 Y65.396 E327.36964
G1 F1201 X209.217 Y66.398 E327.61888
G1 X209.545 Y67.487 E327.86833
G1 X209.58 Y67.838 E327.9457
G1 F1095.9 X209.729 Y68.185 E328.03647
G1 F933.9 X209.878 Y68.532 E328.143
G1 F856.6 X209.905 Y68.569 E328.15708
G1 F844.6 X209.905 Y129.863 E347.27449
G1 F845.1 X209.906 Y191.157 E366.38069
G1 F2100 E356.38069
G0 F6000 X210.724 Y190.338
G0 X210.693 Y68.534
G0 X210.571 Y67.283
G0 X210.18 Y65.999
G0 X209.549 Y64.814
G0 X208.697 Y63.778
G0 X207.661 Y62.926
G0 X206.476 Y62.295
G0 X205.192 Y61.904
G0 X204.487 Y61.836
G0 X142.244 Y60.017
G0 X142.244 Y58.907
;TYPE:SKIN
G1 F2100 E366.38069
G1 F774.2 X142.496 Y58.723 E366.48685
G1 F938.7 X142.748 Y58.539 E366.57441
G1 F1193 X143.001 Y58.355 E366.64349
G1 F1349.6 X144.21 Y58.282 E366.8799
G1 F1291.5 X145.42 Y58.209 E367.12715
G1 F1250 X146.575 Y58.168 E367.3707
G1 F1220.3 X147.73 Y58.127 E367.62017
G1 F1192.1 X148.886 Y58.085 E367.8758
G1 F1165 X150.041 Y58.044 E368.13711
G1 F1139.2 X151.196 Y58.002 E368.40435
G1 F1114.6 X152.352 Y57.961 E368.67774
G1 F1091.7 X155.793 Y57.919 E369.50806
G1 F1069.8 X159.233 Y57.877 E370.35514
G1 F1058.8 X203.866 Y57.877 E381.4592
G1 F1042 X205.049 Y57.9 E381.75833
G1 F1013.4 X206.059 Y57.983 E382.02176
G1 F991.7 X206.917 Y58.178 E382.25547
G1 F984.3 X207.376 Y58.327 E382.38462
G1 F988.3 X207.847 Y58.582 E382.52737
G1 F990.4 X208.098 Y58.785 E382.61323
G1 X208.23 Y58.958 E382.67111
G1 X208.23 Y60.292 E383.02593
G1 X207.833 Y60.08 E383.14564
G1 X207.25 Y59.82 E383.31543
G1 F986.3 X206.513 Y59.589 E383.52171
G1 F992.4 X205.852 Y59.407 E383.70369
G1 F1011.2 X205.341 Y59.337 E383.83804
G1 F1034.5 X204.266 Y59.25 E384.11268
G1 F1054.9 X203.899 Y59.237 E384.20437
G1 F1058.8 X159.243 Y59.237 E395.31415
G1 F1069.8 X155.813 Y59.25 E396.15871
G1 F1091.7 X152.383 Y59.264 E396.98633
G1 F1114.6 X151.23 Y59.277 E397.25885
G1 F1139.2 X150.077 Y59.291 E397.52547
G1 F1165 X148.924 Y59.305 E397.78619
G1 F1192.1 X147.771 Y59.319 E398.041
G1 F1220.3 X146.618 Y59.333 E398.2899
G1 F1250 X145.465 Y59.347 E398.5329
G1 F1291.5 X144.253 Y59.371 E398.78015
G1 F1349.6 X143.041 Y59.396 E399.01677
G1 F1193 X142.776 Y59.233 E399.08547
G1 F938.7 X142.51 Y59.07 E399.17301
G1 F774.2 X142.244 Y58.907 E399.27916
G0 F6000 X142.244 Y60.017
G0 X136.402 Y60.017
G0 X136.402 Y59.176
G1 F945.5 X137.144 Y59.135 E399.4862
G1 F896.1 X137.886 Y59.094 E399.70465
G1 F852.1 X138.628 Y59.052 E399.93441
G1 F820 X139.23 Y59.028 E400.12795
G1 F797.8 X139.833 Y59.004 E400.32721
G1 F777.1 X140.436 Y58.98 E400.53177
G1 F757.1 X141.038 Y58.956 E400.74139
G1 F738.1 X141.641 Y58.932 E400.95677
G1 F720.4 X142.244 Y58.907 E401.17746
G1 F2100 E391.17746
G0 F6000 X142.244 Y60.017
G0 X102.161 Y62.698
G0 X100.977 Y63.057
G0 X99.886 Y63.64
G0 X98.932 Y64.424
G0 X98.149 Y65.378
G0 X97.566 Y66.468
G0 X97.243 Y67.534
G0 X94.525 Y97.416
G0 X93.825 Y97.415
G1 F2100 E401.17746
G1 F1200 X19.36 Y97.416 E417.52379
G1 X19.331 Y97.105 E417.59236
G1 X19.164 Y96.504 E417.72928
G1 X18.925 Y95.969 E417.85791
G1 X18.711 Y95.612 E417.94928
G1 X18.465 Y95.282 E418.03963
G1 X18.17 Y94.961 E418.13534
G1 X17.817 Y94.653 E418.23818
G1 X17.467 Y94.409 E418.33183
G1 X16.945 Y94.134 E418.46135
G1 X16.425 Y93.948 E418.58258
G1 X15.949 Y93.843 E418.68958
G1 F1176.5 X15.367 Y93.768 E418.82098
G1 F1081.1 X15.276 Y93.684 E418.85115
G1 F913.1 X14.792 Y93.55 E418.99603
G1 F838.2 X14.112 Y93.708 E419.21543
G1 F849.1 X12.251 Y94.262 E419.81785
G1 F849.6 X12.251 Y92.492 E420.36667
G1 F849.1 X13.691 Y92.065 E420.83265
G1 F838.2 X14.493 Y91.848 E421.09377
G1 F913.1 X14.903 Y91.558 E421.23864
G1 F1081.1 X15.116 Y91.407 E421.30226
G1 F1176.5 X15.591 Y91.241 E421.41492
G1 F1200 X93.897 Y67.943 E439.3491
G1 X93.843 Y68.488 E439.46932
G1 X93.826 Y68.834 E439.54537
G1 X93.825 Y97.415 E445.81938
G1 F2100 E435.81938
G0 F6000 X94.525 Y97.416
G0 X94.608 Y67.083
G0 X92.318 Y67.683
G0 X92.688 Y68.93
G1 F2100 E445.81938
G1 F1200 X93.227 Y69.468 E445.98655
G0 F6000 X94.525 Y69.469
G0 X94.525 Y71.167
G0 X93.227 Y71.166
G1 F1200 X91.38 Y69.319 E446.55994
G0 F6000 X91.01 Y68.072
G0 X89.702 Y68.461
G0 X90.072 Y69.708
G1 F1200 X93.227 Y72.863 E447.53939
G0 F6000 X94.525 Y72.864
G0 X94.525 Y74.561
G0 X93.227 Y74.56
G1 F1200 X88.764 Y70.096 E448.92506
G0 F6000 X88.394 Y68.851
G0 X87.087 Y69.239
G0 X87.457 Y70.486
G1 F1200 X93.227 Y76.256 E450.71632
G0 F6000 X94.525 Y76.257
G0 X94.525 Y77.954
G0 X93.227 Y77.953
G1 F1200 X86.148 Y70.875 E452.91379
G0 F6000 X85.778 Y69.629
G0 X84.47 Y70.018
G0 X84.84 Y71.264
G1 F1200 X93.227 Y79.65 E455.51733
G0 F6000 X94.525 Y79.651
G0 X94.525 Y81.348
G0 X93.227 Y81.347
G1 F1200 X83.533 Y71.653 E458.52677
G0 F6000 X83.163 Y70.407
G0 X81.855 Y70.796
G0 X82.225 Y72.042
G1 F1200 X93.226 Y83.044 E461.94212
G0 F6000 X94.525 Y83.045
G0 X94.525 Y84.742
G0 X93.226 Y84.741
G1 F1200 X80.917 Y72.431 E465.76353
G0 F6000 X80.547 Y71.185
G0 X79.239 Y71.574
G0 X79.609 Y72.821
G1 F1200 X93.226 Y86.438 E469.99084
G0 F6000 X94.525 Y86.439
G0 X94.525 Y88.136
G0 X93.226 Y88.135
G1 F1200 X78.301 Y73.21 E474.62421
G0 F6000 X77.931 Y71.964
G0 X76.623 Y72.353
G0 X76.993 Y73.599
G1 F1200 X93.225 Y89.831 E479.66334
G0 F6000 X94.525 Y89.832
G0 X94.525 Y91.529
G0 X93.225 Y91.528
G1 F1200 X75.685 Y73.988 E485.10852
G0 F6000 X75.315 Y72.742
G0 X74.007 Y73.131
G0 X74.377 Y74.377
G1 F1200 X93.225 Y93.225 E490.95976
G0 F6000 X94.525 Y93.226
G0 X94.525 Y94.923
G0 X93.225 Y94.922
G1 F1200 X73.069 Y74.766 E497.21707
G0 F6000 X72.699 Y73.52
G0 X71.391 Y73.909
G0 X71.761 Y75.155
G1 F1200 X93.225 Y96.619 E503.88043
G0 F6000 X94.525 Y96.62
G0 X94.453 Y98.044
G0 X91.723 Y98.116
G0 X91.723 Y96.814
G1 F1200 X70.453 Y75.545 E510.48342
G0 F6000 X70.083 Y74.298
G0 X68.775 Y74.688
G0 X69.145 Y75.934
G1 F1200 X90.026 Y96.814 E516.96564
G0 F6000 X90.026 Y98.116
G0 X88.328 Y98.116
G0 X88.328 Y96.814
G1 F1200 X67.837 Y76.322 E523.3271
G0 F6000 X67.467 Y75.077
G0 X66.16 Y75.466
G0 X66.53 Y76.712
G1 F1200 X86.631 Y96.814 E529.56748
G0 F6000 X86.631 Y98.116
G0 X84.934 Y98.116
G0 X84.934 Y96.814
G1 F1200 X65.222 Y77.101 E535.6871
G0 F6000 X64.852 Y75.855
G0 X63.543 Y76.244
G0 X63.913 Y77.49
G1 F1200 X83.237 Y96.814 E541.68612
G0 F6000 X83.237 Y98.116
G0 X81.54 Y98.116
G0 X81.54 Y96.814
G1 F1200 X62.606 Y77.88 E547.56406
G0 F6000 X62.236 Y76.633
G0 X60.928 Y77.022
G0 X61.298 Y78.268
G1 F1200 X79.843 Y96.814 E553.3214
G0 F6000 X79.843 Y98.116
G0 X78.146 Y98.116
G0 X78.146 Y96.814
G1 F1200 X59.99 Y78.657 E558.95797
G0 F6000 X59.62 Y77.411
G0 X58.312 Y77.8
G0 X58.682 Y79.047
G1 F1200 X76.449 Y96.814 E564.47362
G0 F6000 X76.449 Y98.116
G0 X74.752 Y98.116
G0 X74.752 Y96.814
G1 F1200 X57.374 Y79.436 E569.86852
G0 F6000 X57.004 Y78.19
G0 X55.696 Y78.579
G0 X56.066 Y79.825
G1 F1200 X73.055 Y96.814 E575.14264
G0 F6000 X73.055 Y98.116
G0 X71.358 Y98.116
G0 X71.358 Y96.814
G1 F1200 X54.759 Y80.214 E580.29586
G0 F6000 X54.389 Y78.968
G0 X53.08 Y79.357
G0 X53.45 Y80.603
G1 F1200 X69.661 Y96.814 E585.32846
G0 F6000 X69.661 Y98.116
G0 X67.964 Y98.116
G0 X67.964 Y96.814
G1 F1200 X52.142 Y80.992 E590.2403
G0 F6000 X51.772 Y79.746
G0 X50.464 Y80.135
G0 X50.834 Y81.381
G1 F1200 X66.267 Y96.814 E595.03138
G0 F6000 X66.267 Y98.116
G0 X64.57 Y98.116
G0 X64.57 Y96.814
G1 F1200 X49.527 Y81.771 E599.70138
G0 F6000 X49.157 Y80.524
G0 X47.849 Y80.913
G0 X48.219 Y82.16
G1 F1200 X62.873 Y96.814 E604.25063
