;FLAVOR:Marlin
;TIME:18613
;Filament used: 70.5931m
;Layer height: 0.6
;MINX:8.5
;MINY:43.396
;MINZ:0.4
;MAXX:226.7
;MAXY:191.608
;MAXZ:67.6
;Generated with Cura_SteamEngine 5.3.1
M82 ;absolute extrusion mode
; START G-CODE BEGIN

M104 S230.0 ﻿T0
M140 S60.0

G28 ; Home all axes
G92 E0 ; Reset Extruder
M420 S1 ; Load Mesh

M109 S230.0 ﻿T0
M190 S60.0

G92 E0 ; Reset Extruder

G1 X0.6 Y20 Z0.3 F5000.0 ; Move to start position
G1 X0.6 Y200.0 Z0.3 F1500.0 E15 ; Draw the first line
G1 X0.9 Y200.0 Z0.3 F5000.0 ; Move to side a little
G1 X0.9 Y20 Z0.3 F1500.0 E30 ; Draw the second line
G92 E0 ; Reset Extruder
G1 Z2.0 F3000 ; Move Z Axis up little to prevent scratching of Heat Bed
G1 X5 Y20 Z0.3 F5000.0 ; Move over to prevent blob squish

; START G-CODE END
G92 E0
G92 E0
G1 F2100 E-10
;LAYER_COUNT:113
;LAYER:0
M107
;MESH:minun tpu wheel guard.stl
G0 F6000 X118.708 Y60.477 Z0.4
;TYPE:WALL-INNER
G1 F2100 E0
G1 F1322.3 X124.895 Y60.476 E1.23252
G1 F1306.7 X125.276 Y60.463 E1.30937
G1 F1274.3 X125.658 Y60.449 E1.38839
G1 F1244.6 X126.04 Y60.435 E1.46929
G1 F1215.2 X126.422 Y60.421 E1.55216
G1 F1187.1 X126.803 Y60.408 E1.63675
G1 F1161.3 X127.185 Y60.394 E1.72346
G1 F1135.6 X127.567 Y60.38 E1.81212
G1 F1112 X127.949 Y60.366 E1.90268
G1 F1088.4 X128.331 Y60.353 E1.99518
G1 F1066.7 X128.712 Y60.339 E2.08934
G1 F1045 X129.094 Y60.325 E2.1857
G1 F1024.9 X129.476 Y60.311 E2.28394
G1 F1004.9 X129.858 Y60.297 E2.38415
G1 F985.6 X130.239 Y60.284 E2.48603
G1 F967.7 X130.621 Y60.27 E2.59008
G1 F949.9 X131.003 Y60.256 E2.69609
G1 F933.2 X131.385 Y60.242 E2.80399
G1 F916.6 X131.767 Y60.229 E2.91383
G1 F894.4 X132.672 Y60.203 E3.18048
G1 F866.9 X133.577 Y60.178 E3.45557
G1 F841.1 X134.482 Y60.153 E3.7391
G1 F816.8 X135.386 Y60.127 E4.03077
G1 F852.1 X135.65 Y60.225 E4.11783
G1 F963.9 X135.916 Y60.323 E4.1953
G1 F1109.4 X136.182 Y60.421 E4.26261
G1 F1200 X203.854 Y60.42 E19.11776
G1 X204.15 Y60.434 E19.18281
G1 X205.17 Y60.534 E19.40779
G1 X205.598 Y60.604 E19.50299
G1 X206.888 Y61.002 E19.79934
G1 X207.261 Y61.17 E19.88914
G1 X208.157 Y61.649 E20.11217
G1 X208.645 Y61.975 E20.241
G1 X209.462 Y62.651 E20.47378
G1 X209.462 Y59.039 E21.26667
G1 X209.437 Y58.693 E21.34282
G1 X209.304 Y58.357 E21.42215
G1 X209.114 Y58.062 E21.49917
G1 X208.748 Y57.707 E21.6111
G1 X208.305 Y57.423 E21.72662
G1 X208.006 Y57.265 E21.80085
G1 X207.601 Y57.096 E21.89719
G1 X207.26 Y56.986 E21.97584
G1 X206.23 Y56.771 E22.20682
G1 X205.081 Y56.694 E22.45961
G1 X159.218 Y56.693 E32.52731
G1 X152.266 Y56.804 E34.05359
G1 X145.363 Y57.137 E35.57067
G1 X138.468 Y57.691 E37.08912
G1 X136.046 Y57.963 E37.62413
G1 F1109.4 X135.793 Y58.089 E37.69124
G1 F963.9 X135.54 Y58.216 E37.76861
G1 F852.1 X135.287 Y58.343 E37.85613
G1 F816.8 X134.379 Y58.42 E38.15001
G1 F841.1 X133.471 Y58.497 E38.4354
G1 F866.9 X132.563 Y58.574 E38.71228
G1 F894.4 X131.655 Y58.651 E38.98067
G1 F916.6 X131.275 Y58.692 E39.09051
G1 F933.2 X130.894 Y58.733 E39.19867
G1 F949.9 X130.513 Y58.774 E39.30494
G1 F967.7 X130.132 Y58.816 E39.40928
G1 F985.6 X129.752 Y58.857 E39.51143
G1 F1004.9 X129.371 Y58.898 E39.61188
G1 F1024.9 X128.99 Y58.939 E39.71037
G1 F1045 X128.609 Y58.981 E39.80699
G1 F1066.7 X128.229 Y59.022 E39.90138
G1 F1088.4 X127.848 Y59.063 E39.99412
G1 F1112 X127.467 Y59.104 E40.0849
G1 F1135.6 X127.086 Y59.146 E40.17381
G1 F1161.3 X126.705 Y59.187 E40.26073
G1 F1187.1 X126.325 Y59.228 E40.34554
G1 F1215.2 X125.944 Y59.27 E40.42863
G1 F1244.6 X125.563 Y59.311 E40.50974
G1 F1274.3 X125.182 Y59.352 E40.58895
G1 F1306.7 X124.802 Y59.393 E40.666
G1 F1322.3 X118.708 Y60.477 E41.89905
G0 F6000 X108.132 Y61.62
G1 F1200 X203.951 Y61.62 E62.93294
G1 X205.202 Y61.744 E63.2089
G1 X206.463 Y62.124 E63.498
G1 X206.695 Y62.228 E63.55382
G1 X207.591 Y62.707 E63.77684
G1 X207.884 Y62.903 E63.85423
G1 X208.674 Y63.551 E64.07852
G1 X208.925 Y63.801 E64.15629
G1 X209.572 Y64.591 E64.38044
G1 X209.768 Y64.884 E64.45783
G1 X210.247 Y65.78 E64.68086
G1 X210.383 Y66.106 E64.7584
G1 F1224.5 X210.653 Y67.086 E64.97707
G1 F1269.8 X210.704 Y67.43 E65.04922
G1 X210.686 Y67.082 E65.1215
G1 F1224.5 X210.662 Y66.065 E65.34035
G1 F1200 X210.662 Y58.995 E66.89233
G1 X210.632 Y58.594 E66.9806
G1 X210.583 Y58.342 E67.03696
G1 X210.468 Y58.008 E67.1145
G1 X210.352 Y57.768 E67.17302
G1 X210.138 Y57.436 E67.25972
G1 X209.94 Y57.192 E67.3287
G1 X209.621 Y56.883 E67.42619
G1 X209.342 Y56.662 E67.50433
G1 X208.91 Y56.385 E67.61698
G1 X208.518 Y56.178 E67.71429
G1 X208.018 Y55.97 E67.83317
G1 X207.57 Y55.825 E67.93653
G1 X206.393 Y55.579 E68.20049
G1 X205.121 Y55.494 E68.48033
G1 X159.199 Y55.493 E78.56099
G1 X152.304 Y55.602 E80.07475
G1 X145.267 Y55.941 E81.62128
G1 X138.334 Y56.498 E83.14809
G1 X131.489 Y57.268 E84.66016
G1 X124.6 Y58.268 E86.18826
G1 X117.758 Y59.486 E87.71381
G1 X110.981 Y60.923 E89.23455
G1 X108.132 Y61.62 E89.8784
G1 F2100 E79.8784
G0 F6000 X102.161 Y62.698
G0 X100.978 Y63.056
G0 X99.886 Y63.64
G0 X98.932 Y64.424
G0 X98.149 Y65.378
G0 X97.567 Y66.467
G0 X97.207 Y67.653
G0 X94.929 Y98.52
G1 F2100 E89.8784
G1 F1200 X94.929 Y68.879 E96.3851
G1 X94.943 Y68.581 E96.45059
G1 X95.049 Y67.517 E96.68531
G1 X95.163 Y66.942 E96.81399
G1 X95.339 Y66.364 E96.94662
G1 X10.9 Y91.484 E116.28525
G1 X10.9 Y96.074 E117.29283
G1 X14.444 Y95.02 E118.10448
G1 X14.877 Y94.925 E118.20179
G1 X15.316 Y94.896 E118.29837
G1 X15.745 Y94.928 E118.3928
G1 X16.152 Y95.018 E118.4843
G1 X16.526 Y95.157 E118.57189
G1 X16.864 Y95.335 E118.65575
G1 X17.161 Y95.541 E118.73509
G1 X17.415 Y95.767 E118.80972
G1 X17.629 Y96.003 E118.87966
G1 X17.805 Y96.244 E118.94517
G1 X17.965 Y96.517 E119.01463
G1 X18.119 Y96.868 E119.09877
G1 X18.245 Y97.32 E119.20177
G1 X18.3 Y97.895 E119.32857
G1 X18.301 Y98.52 E119.46577
G1 X94.929 Y98.52 E136.28691
G0 F6000 X96.129 Y99.72
G1 F1200 X96.129 Y68.78 E143.07876
G1 X96.243 Y67.636 E143.33113
G1 X96.312 Y67.291 E143.40837
G1 X96.623 Y66.268 E143.64308
G1 X96.757 Y65.943 E143.72025
G1 X97.261 Y64.998 E143.95535
G1 X97.458 Y64.704 E144.03304
G1 X97.7 Y64.41 E144.11663
G1 X9.7 Y90.589 E164.27079
G1 X9.7 Y97.683 E165.82804
G1 X14.786 Y96.17 E166.99286
G1 X15.046 Y96.113 E167.05129
G1 X15.31 Y96.096 E167.10936
G1 X15.714 Y96.126 E167.19829
G1 X16.239 Y96.359 E167.32438
G1 X16.569 Y96.618 E167.41646
G1 X16.803 Y96.904 E167.49758
G1 X16.992 Y97.279 E167.58977
G1 X17.067 Y97.55 E167.65149
G1 X17.1 Y97.895 E167.72757
G1 X17.101 Y99.72 E168.12819
G1 X96.129 Y99.72 E185.47617
G1 F2100 E175.47617
G0 F6000 X97.09 Y68.836
G0 X97.207 Y67.653
G0 X97.567 Y66.467
G0 X98.149 Y65.378
G0 X98.932 Y64.424
G0 X99.886 Y63.64
G0 X100.978 Y63.056
G0 X102.161 Y62.698
G0 X103.341 Y62.582
G0 X203.897 Y62.581
G0 X205.035 Y62.693
G0 X206.169 Y63.037
G0 X207.214 Y63.595
G0 X208.128 Y64.347
G0 X208.34 Y64.605
G0 X210.719 Y67.743
G1 F2100 E185.47617
G1 F1307.9 X210.704 Y67.43 E185.53928
G1 F2100 E175.53928
G0 F6000 X210.724 Y190.338
G0 X209.906 Y191.156
;TYPE:WALL-OUTER
G1 F2100 E185.53928
G1 F845.1 X211.61 Y191.156 E186.07044
G1 X211.61 Y129.849 E205.18069
G1 F844.1 X211.609 Y68.542 E224.31337
G1 F887.8 X211.693 Y68.276 E224.39614
G1 F991.1 X211.777 Y68.01 E224.47028
G1 F1121.5 X211.861 Y67.744 E224.5358
G1 F1200 X211.862 Y58.951 E226.46602
G1 X211.824 Y58.434 E226.57981
G1 X211.745 Y58.031 E226.66996
G1 X211.58 Y57.552 E226.78117
G1 X211.4 Y57.178 E226.87229
G1 X211.11 Y56.73 E226.98944
G1 X210.826 Y56.38 E227.08838
G1 X210.413 Y55.98 E227.21459
G1 X210.04 Y55.684 E227.31912
G1 X209.516 Y55.348 E227.45576
G1 X209.03 Y55.091 E227.57644
G1 X208.434 Y54.844 E227.71807
G1 X207.88 Y54.663 E227.84601
G1 X206.557 Y54.387 E228.14268
G1 X205.161 Y54.294 E228.4498
G1 X159.18 Y54.293 E238.54341
G1 X152.218 Y54.404 E240.07188
G1 X145.235 Y54.74 E241.60654
G1 X138.259 Y55.3 E243.14282
G1 X131.336 Y56.078 E244.6721
G1 X124.39 Y57.086 E246.21283
G1 X117.545 Y58.304 E247.73903
G1 X110.695 Y59.757 E249.27618
G1 X103.969 Y61.407 E250.79643
G1 F1201 X103.106 Y61.649 E250.99301
G1 F1254.4 X101.856 Y61.946 E251.26283
G1 F1300.8 X100.67 Y62.288 E251.51278
G1 F1243.5 X99.599 Y62.633 E251.75114
G1 F1200 X97.283 Y63.281 E252.27906
G1 X8.5 Y89.694 E272.61262
G1 X8.5 Y99.292 E274.71954
G1 X15.192 Y97.301 E276.25219
G1 X15.389 Y97.302 E276.29543
G1 X15.613 Y97.383 E276.34772
G1 X15.766 Y97.517 E276.39236
G1 X15.9 Y97.811 E276.46329
G1 X15.901 Y100.92 E277.14577
G1 X97.329 Y100.92 E295.02059
G1 X97.331 Y68.819 E302.0673
G1 X97.443 Y67.696 E302.31504
G1 X97.788 Y66.561 E302.57545
G1 X98.347 Y65.514 E302.83599
G1 X99.102 Y64.594 E303.09725
G1 X100.027 Y63.832 E303.36032
G1 F1241.4 X101.038 Y63.339 E303.59901
G1 F1289.2 X102.226 Y62.981 E303.85254
G1 F1245.7 X103.326 Y62.824 E304.08751
G1 F1201 X203.914 Y62.822 E326.14987
G1 F1200 X205.006 Y62.935 E326.39087
G1 X206.083 Y63.262 E326.63794
G1 X207.075 Y63.792 E326.88483
G1 X207.962 Y64.519 E327.13659
G1 X208.683 Y65.4 E327.38649
G1 X209.217 Y66.399 E327.63515
G1 X209.547 Y67.489 E327.88515
G1 X209.582 Y67.854 E327.96564
G1 F1098.4 X209.726 Y68.191 E328.05353
G1 F939.3 X209.871 Y68.529 E328.15667
G1 F859.2 X209.904 Y68.576 E328.17428
G1 F844.1 X209.905 Y129.866 E347.30165
G1 F845.1 X209.906 Y191.156 E366.4066
G1 F2100 E356.4066
G0 F6000 X210.724 Y190.338
G0 X210.692 Y68.529
G0 X210.571 Y67.284
G0 X210.18 Y65.999
G0 X209.549 Y64.814
G0 X208.697 Y63.778
G0 X207.661 Y62.926
G0 X206.476 Y62.295
G0 X205.192 Y61.904
G0 X204.481 Y61.835
G0 X142.246 Y60.018
G0 X142.246 Y58.908
;TYPE:SKIN
G1 F2100 E366.4066
G1 F774.2 X142.498 Y58.724 E366.51277
G1 F938.7 X142.75 Y58.54 E366.60033
G1 F1193 X143.003 Y58.356 E366.6694
G1 F1349.6 X144.212 Y58.283 E366.90582
G1 F1291.5 X145.421 Y58.21 E367.15286
G1 F1248.9 X146.576 Y58.169 E367.39663
G1 F1219.3 X147.731 Y58.127 E367.64632
G1 F1191.1 X148.887 Y58.085 E367.90215
G1 F1164.1 X150.042 Y58.043 E368.16368
G1 F1138.3 X151.197 Y58.001 E368.43114
G1 F1113.7 X152.353 Y57.959 E368.70475
G1 F1090.9 X155.793 Y57.918 E369.53546
G1 F1069.8 X159.233 Y57.877 E370.38253
G1 F1059.6 X203.857 Y57.877 E381.47618
G1 F1042.7 X205.046 Y57.901 E381.77662
G1 F1014.1 X206.06 Y57.985 E382.04092
G1 F994.5 X207.027 Y58.204 E382.30355
G1 F989.7 X207.572 Y58.414 E382.459
G1 F991.7 X207.91 Y58.632 E382.56584
G1 X208.133 Y58.829 E382.64487
G1 X208.232 Y58.972 E382.69107
G1 X208.232 Y60.294 E383.04221
G1 X207.801 Y60.065 E383.17185
G1 X207.253 Y59.822 E383.33107
G1 F987 X206.538 Y59.596 E383.53121
G1 F991.7 X205.806 Y59.401 E383.73242
G1 F1010.5 X205.341 Y59.337 E383.85478
G1 F1035.2 X204.258 Y59.25 E384.13124
G1 F1055.7 X203.89 Y59.237 E384.22312
G1 F1059.6 X159.243 Y59.238 E395.3225
G1 F1069.8 X155.813 Y59.251 E396.16705
G1 F1090.9 X152.383 Y59.265 E396.9953
G1 F1113.7 X151.23 Y59.278 E397.26803
G1 F1138.3 X150.077 Y59.292 E397.53487
G1 F1164.1 X148.924 Y59.306 E397.79579
G1 F1191.1 X147.771 Y59.32 E398.05081
G1 F1219.3 X146.618 Y59.334 E398.29993
G1 F1248.9 X145.465 Y59.348 E398.54313
G1 F1291.5 X144.255 Y59.372 E398.78998
G1 F1349.6 X143.044 Y59.397 E399.0264
G1 F1193 X142.778 Y59.234 E399.09529
G1 F938.7 X142.512 Y59.071 E399.18283
G1 F774.2 X142.246 Y58.908 E399.28898
G0 F6000 X142.246 Y60.018
G0 X136.396 Y60.018
G0 X136.396 Y59.177
G1 F945.5 X137.133 Y59.136 E399.49463
G1 F896.6 X137.87 Y59.095 E399.71148
G1 F853.1 X138.607 Y59.053 E399.93943
G1 F821 X139.213 Y59.029 E400.13402
G1 F798.7 X139.82 Y59.005 E400.33438
G1 F777.5 X140.426 Y58.981 E400.53985
G1 F757.5 X141.033 Y58.957 E400.7511
G1 F738.5 X141.64 Y58.933 E400.96779
G1 F720.4 X142.246 Y58.908 E401.18958
G1 F2100 E391.18958
G0 F6000 X142.246 Y60.018
G0 X102.161 Y62.698
G0 X100.978 Y63.056
G0 X99.886 Y63.64
G0 X98.932 Y64.424
G0 X98.149 Y65.378
G0 X97.567 Y66.467
G0 X97.243 Y67.534
G0 X94.525 Y97.416
G0 X93.825 Y97.416
G1 F2100 E401.18958
G1 F1200 X19.36 Y97.416 E417.53591
G1 X19.331 Y97.105 E417.60447
G1 X19.164 Y96.504 E417.7414
G1 X18.925 Y95.969 E417.87003
G1 X18.711 Y95.612 E417.9614
G1 X18.465 Y95.282 E418.05175
G1 X18.17 Y94.961 E418.14745
G1 X17.817 Y94.653 E418.25029
G1 X17.467 Y94.409 E418.34395
G1 X16.945 Y94.134 E418.47347
G1 X16.425 Y93.948 E418.5947
G1 X15.949 Y93.843 E418.7017
G1 F1176.5 X15.367 Y93.768 E418.83309
G1 F1081.1 X15.276 Y93.684 E418.86327
G1 F913.1 X14.792 Y93.55 E419.00815
G1 F838.2 X14.112 Y93.708 E419.22755
G1 F849.1 X12.251 Y94.262 E419.82996
G1 F849.6 X12.251 Y92.492 E420.37878
G1 F850.1 X13.566 Y92.101 E420.80391
G1 F839.2 X14.493 Y91.848 E421.10555
G1 F913.1 X14.903 Y91.558 E421.25042
G1 F1081.1 X15.116 Y91.407 E421.31404
G1 F1176.5 X15.591 Y91.241 E421.42671
G1 F1200 X93.896 Y67.944 E439.36061
G1 X93.842 Y68.491 E439.48127
G1 X93.825 Y68.838 E439.55753
G1 X93.825 Y97.416 E445.83089
G1 F2100 E435.83089
G0 F6000 X94.525 Y97.416
G0 X94.608 Y67.084
G0 X92.318 Y67.684
G0 X92.688 Y68.93
G1 F2100 E445.83089
G1 F1200 X93.227 Y69.468 E445.99806
G0 F6000 X94.525 Y69.468
G0 X94.525 Y71.166
G0 X93.227 Y71.166
G1 F1200 X91.38 Y69.319 E446.57145
G0 F6000 X91.01 Y68.073
G0 X89.702 Y68.462
G0 X90.072 Y69.708
G1 F1200 X93.227 Y72.863 E447.5509
G0 F6000 X94.525 Y72.863
G0 X94.525 Y74.56
G0 X93.227 Y74.56
G1 F1200 X88.764 Y70.096 E448.93657
G0 F6000 X88.395 Y68.851
G0 X87.087 Y69.24
G0 X87.457 Y70.486
G1 F1200 X93.227 Y76.256 E450.72783
G0 F6000 X94.525 Y76.256
G0 X94.525 Y77.953
G0 X93.227 Y77.953
G1 F1200 X86.148 Y70.875 E452.9253
G0 F6000 X85.778 Y69.63
G0 X84.47 Y70.019
G0 X84.84 Y71.264
G1 F1200 X93.227 Y79.65 E455.52884
G0 F6000 X94.525 Y79.65
G0 X94.525 Y81.347
G0 X93.227 Y81.347
G1 F1200 X83.533 Y71.653 E458.53828
G0 F6000 X83.163 Y70.408
G0 X81.855 Y70.797
G0 X82.225 Y72.042
G1 F1200 X93.226 Y83.044 E461.95363
G0 F6000 X94.525 Y83.044
G0 X94.525 Y84.741
G0 X93.226 Y84.741
G1 F1200 X80.917 Y72.431 E465.77504
G0 F6000 X80.547 Y71.186
G0 X79.239 Y71.575
G0 X79.609 Y72.821
G1 F1200 X93.226 Y86.438 E470.00235
G0 F6000 X94.525 Y86.438
G0 X94.525 Y88.135
G0 X93.226 Y88.135
G1 F1200 X78.301 Y73.21 E474.63572
G0 F6000 X77.931 Y71.964
G0 X76.623 Y72.353
G0 X76.993 Y73.599
G1 F1200 X93.225 Y89.831 E479.67484
G0 F6000 X94.525 Y89.831
G0 X94.525 Y91.528
G0 X93.225 Y91.528
G1 F1200 X75.685 Y73.988 E485.12003
G0 F6000 X75.315 Y72.742
G0 X74.007 Y73.132
G0 X74.377 Y74.377
G1 F1200 X93.225 Y93.225 E490.97127
G0 F6000 X94.525 Y93.225
G0 X94.525 Y94.922
G0 X93.225 Y94.922
G1 F1200 X73.069 Y74.766 E497.22858
G0 F6000 X72.699 Y73.521
G0 X71.391 Y73.91
G0 X71.761 Y75.155
G1 F1200 X93.225 Y96.619 E503.89194
G0 F6000 X94.525 Y96.619
G0 X94.453 Y98.044
G0 X91.723 Y98.116
G0 X91.723 Y96.814
G1 F1200 X70.453 Y75.545 E510.49493
G0 F6000 X70.083 Y74.299
G0 X68.775 Y74.688
G0 X69.145 Y75.934
G1 F1200 X90.026 Y96.814 E516.97715
G0 F6000 X90.026 Y98.116
G0 X88.329 Y98.116
G0 X88.329 Y96.814
G1 F1200 X67.837 Y76.322 E523.33876
G0 F6000 X67.468 Y75.077
G0 X66.16 Y75.466
G0 X66.53 Y76.712
G1 F1200 X86.632 Y96.814 E529.5793
G0 F6000 X86.632 Y98.116
G0 X84.935 Y98.116
G0 X84.935 Y96.814
G1 F1200 X65.222 Y77.101 E535.69908
G0 F6000 X64.852 Y75.855
G0 X63.543 Y76.245
G0 X63.913 Y77.49
G1 F1200 X83.238 Y96.814 E541.69825
G0 F6000 X83.238 Y98.116
G0 X81.541 Y98.116
G0 X81.541 Y96.814
G1 F1200 X62.606 Y77.88 E547.57635
G0 F6000 X62.236 Y76.634
G0 X60.928 Y77.023
G0 X61.298 Y78.268
G1 F1200 X79.844 Y96.814 E553.33384
G0 F6000 X79.844 Y98.116
G0 X78.147 Y98.116
G0 X78.147 Y96.814
G1 F1200 X59.99 Y78.657 E558.97056
G0 F6000 X59.62 Y77.412
G0 X58.312 Y77.801
G0 X58.682 Y79.047
G1 F1200 X76.45 Y96.814 E564.48637
G0 F6000 X76.45 Y98.116
G0 X74.753 Y98.116
G0 X74.753 Y96.814
G1 F1200 X57.374 Y79.436 E569.88142
G0 F6000 X57.004 Y78.19
G0 X55.696 Y78.579
G0 X56.066 Y79.825
G1 F1200 X73.056 Y96.814 E575.15571
G0 F6000 X73.056 Y98.116
G0 X71.359 Y98.116
G0 X71.359 Y96.814
G1 F1200 X54.759 Y80.214 E580.30907
G0 F6000 X54.389 Y78.968
G0 X53.08 Y79.357
G0 X53.45 Y80.603
G1 F1200 X69.662 Y96.814 E585.34183
G0 F6000 X69.662 Y98.116
G0 X67.964 Y98.116
G0 X67.964 Y96.814
G1 F1200 X52.142 Y80.992 E590.25367
G0 F6000 X51.772 Y79.747
G0 X50.464 Y80.136
G0 X50.834 Y81.381
G1 F1200 X66.267 Y96.814 E595.04475
G0 F6000 X66.267 Y98.116
G0 X64.57 Y98.116
G0 X64.57 Y96.814
G1 F1200 X49.527 Y81.771 E599.71476
G0 F6000 X49.157 Y80.525
G0 X47.849 Y80.914
G0 X48.219 Y82.16
