;FLAVOR:Marlin
;TIME:18437
;Filament used: 70.6587m
;Layer height: 0.6
;MINX:8.501
;MINY:43.392
;MINZ:0.4
;MAXX:226.7
;MAXY:191.604
;MAXZ:67.6
;Generated with Cura_SteamEngine 5.3.1
M82 ;absolute extrusion mode
; START G-CODE BEGIN

M104 S230.0 ﻿T0
M140 S60.0

G28 ; Home all axes
G92 E0 ; Reset Extruder
M420 S1 ; Load Mesh

M109 S230.0 ﻿T0
M190 S60.0

G92 E0 ; Reset Extruder

G1 X0.6 Y20 Z0.3 F5000.0 ; Move to start position
G1 X0.6 Y200.0 Z0.3 F1500.0 E15 ; Draw the first line
G1 X0.9 Y200.0 Z0.3 F5000.0 ; Move to side a little
G1 X0.9 Y20 Z0.3 F1500.0 E30 ; Draw the second line
G92 E0 ; Reset Extruder
G1 Z2.0 F3000 ; Move Z Axis up little to prevent scratching of Heat Bed
G1 X5 Y20 Z0.3 F5000.0 ; Move over to prevent blob squish

; START G-CODE END
G92 E0
G92 E0
G1 F2100 E-10
;LAYER_COUNT:113
;LAYER:0
M107
;MESH:minun tpu wheel guard.stl
G0 F6000 X95.338 Y168.635 Z0.4
;TYPE:WALL-INNER
G1 F2100 E0
G1 F1200 X95.163 Y168.056 E0.13278
G1 X95.049 Y167.482 E0.26124
G1 X94.944 Y166.421 E0.49529
G1 X94.93 Y166.125 E0.56034
G1 X94.929 Y136.48 E7.06792
G1 X18.301 Y136.48 E23.88906
G1 X18.3 Y137.105 E24.02625
G1 X18.245 Y137.68 E24.15305
G1 X18.119 Y138.132 E24.25606
G1 X17.965 Y138.483 E24.3402
G1 X17.805 Y138.756 E24.40966
G1 X17.629 Y138.997 E24.47517
G1 X17.415 Y139.233 E24.5451
G1 X17.16 Y139.459 E24.6199
G1 X16.864 Y139.665 E24.69906
G1 X16.527 Y139.843 E24.78273
G1 X16.152 Y139.982 E24.87052
G1 X15.745 Y140.072 E24.96202
G1 X15.316 Y140.104 E25.05645
G1 X14.877 Y140.075 E25.15303
G1 X14.444 Y139.98 E25.25034
G1 X10.901 Y138.927 E26.06171
G1 X10.901 Y143.515 E27.06886
G1 X95.338 Y168.635 E46.40706
G0 F6000 X97.697 Y170.587
G1 F1200 X97.458 Y170.296 E46.48973
G1 X97.262 Y170.003 E46.56711
G1 X96.756 Y169.057 E46.80261
G1 X96.62 Y168.729 E46.88056
G1 X96.311 Y167.708 E47.11472
G1 X96.243 Y167.364 E47.1917
G1 X96.13 Y166.222 E47.44361
G1 X96.129 Y135.28 E54.2359
G1 X17.101 Y135.28 E71.58388
G1 X17.1 Y137.105 E71.9845
G1 X17.067 Y137.45 E72.06058
G1 X16.992 Y137.721 E72.12231
G1 X16.803 Y138.096 E72.21449
G1 X16.569 Y138.382 E72.29561
G1 X16.239 Y138.641 E72.3877
G1 X15.714 Y138.874 E72.51378
G1 X15.31 Y138.904 E72.60271
G1 X15.046 Y138.887 E72.66078
G1 X14.786 Y138.83 E72.71921
G1 X9.701 Y137.317 E73.88382
G1 X9.701 Y144.411 E75.44107
G1 X97.697 Y170.587 E95.5942
G0 F6000 X100.977 Y171.943
G0 X101.935 Y172.233
G0 X118.732 Y174.526
G1 F1321.1 X124.816 Y175.608 E96.82636
G1 F1305.5 X125.198 Y175.649 E96.90388
G1 F1273.2 X125.581 Y175.691 E96.98359
G1 F1242.5 X125.964 Y175.732 E97.06526
G1 F1214.2 X126.347 Y175.774 E97.14885
G1 F1186.2 X126.729 Y175.815 E97.23417
G1 F1160.4 X127.112 Y175.857 E97.32164
G1 F1134.8 X127.495 Y175.898 E97.41106
G1 F1110.3 X127.878 Y175.94 E97.50247
G1 F1087.6 X128.26 Y175.981 E97.59552
G1 F1065.1 X128.643 Y176.023 E97.69082
G1 F1044.2 X129.026 Y176.064 E97.78799
G1 F1023.5 X129.409 Y176.106 E97.88715
G1 F1003.5 X129.792 Y176.147 E97.98827
G1 F985 X130.174 Y176.189 E98.09105
G1 F966.4 X130.557 Y176.231 E98.19607
G1 F949.2 X130.94 Y176.272 E98.30296
G1 F932 X131.323 Y176.314 E98.41185
G1 F915.4 X131.705 Y176.355 E98.52241
G1 F893.3 X132.6 Y176.43 E98.78725
G1 F866.4 X133.5 Y176.505 E99.06183
G1 F841.1 X134.4 Y176.581 E99.34469
G1 F817.3 X135.3 Y176.656 E99.63579
G1 F852.6 X135.554 Y176.783 E99.72353
G1 F964.5 X135.807 Y176.91 E99.80085
G1 F1110.3 X136.061 Y177.037 E99.86822
G1 F1200 X138.51 Y177.313 E100.40922
G1 X145.387 Y177.865 E101.9237
G1 X152.324 Y178.196 E103.44822
G1 X159.234 Y178.307 E104.96527
G1 X205.082 Y178.308 E115.02969
G1 X206.231 Y178.231 E115.28248
G1 X207.24 Y178.019 E115.5088
G1 X207.662 Y177.879 E115.60641
G1 X207.998 Y177.738 E115.68639
G1 X208.368 Y177.539 E115.77862
G1 X208.616 Y177.379 E115.8434
G1 X208.977 Y177.087 E115.94533
G1 X209.269 Y176.722 E116.04794
G1 X209.411 Y176.381 E116.12902
G1 X209.461 Y175.996 E116.21425
G1 X209.461 Y172.351 E117.01439
G1 X208.644 Y173.025 E117.24688
G1 X208.156 Y173.351 E117.37571
G1 X207.26 Y173.83 E117.59874
G1 X206.847 Y174.016 E117.69817
G1 X205.592 Y174.396 E117.98602
G1 X205.169 Y174.465 E118.0801
G1 X204.159 Y174.565 E118.3029
G1 X203.863 Y174.579 E118.36795
G1 X136.198 Y174.582 E133.22156
G1 F1110.3 X135.933 Y174.679 E133.28851
G1 F964.5 X135.667 Y174.777 E133.36593
G1 F852.6 X135.401 Y174.874 E133.45341
G1 F817.3 X134.498 Y174.85 E133.74457
G1 F841.1 X133.595 Y174.824 E134.02749
G1 F866.4 X132.692 Y174.798 E134.30214
G1 F893.3 X131.789 Y174.773 E134.56853
G1 F915.4 X131.406 Y174.759 E134.67881
G1 F932 X131.023 Y174.745 E134.78713
G1 F949.2 X130.64 Y174.731 E134.89348
G1 F966.4 X130.257 Y174.717 E134.99795
G1 F985 X129.875 Y174.704 E135.10017
G1 F1003.5 X129.492 Y174.69 E135.20078
G1 F1023.5 X129.109 Y174.676 E135.29942
G1 F1044.2 X128.726 Y174.662 E135.3961
G1 F1065.1 X128.343 Y174.649 E135.49088
G1 F1087.6 X127.961 Y174.635 E135.58346
G1 F1110.3 X127.578 Y174.621 E135.67439
G1 F1134.8 X127.195 Y174.607 E135.76336
G1 F1160.4 X126.812 Y174.593 E135.85037
G1 F1186.2 X126.43 Y174.58 E135.93525
G1 F1214.2 X126.047 Y174.566 E136.0184
G1 F1242.5 X125.664 Y174.552 E136.09966
G1 F1273.2 X125.281 Y174.538 E136.17895
G1 F1305.5 X124.898 Y174.525 E136.25627
G1 F1321.1 X118.732 Y174.526 E137.48574
G0 F6000 X124.652 Y176.741
G1 F1200 X131.544 Y177.739 E139.01443
G1 X138.395 Y178.507 E140.52776
G1 X145.311 Y179.063 E142.05084
G1 X152.257 Y179.395 E143.57734
G1 X159.224 Y179.507 E145.10691
G1 X205.122 Y179.508 E155.1823
G1 X206.394 Y179.423 E155.46215
G1 X207.554 Y179.18 E155.72232
G1 X208.084 Y179.003 E155.84498
G1 X208.516 Y178.823 E155.94771
G1 X208.978 Y178.573 E156.06302
G1 X209.321 Y178.352 E156.15259
G1 X209.691 Y178.053 E156.25702
G1 X209.922 Y177.826 E156.32811
G1 X210.187 Y177.494 E156.42136
G1 X210.343 Y177.251 E156.48475
G1 X210.497 Y176.921 E156.56469
G1 X210.577 Y176.68 E156.62043
G1 X210.642 Y176.322 E156.70031
G1 X210.661 Y176.033 E156.76388
G1 X210.661 Y168.934 E158.32223
G1 F1217.2 X210.693 Y167.766 E158.57509
G1 X210.382 Y168.893 E158.8281
G1 F1200 X210.247 Y169.22 E158.90576
G1 X209.768 Y170.116 E159.12879
G1 X209.573 Y170.409 E159.20605
G1 X208.924 Y171.199 E159.43048
G1 X208.674 Y171.449 E159.50809
G1 X207.884 Y172.097 E159.73239
G1 X207.591 Y172.293 E159.80977
G1 X206.553 Y172.848 E160.06815
G1 X205.201 Y173.256 E160.37816
G1 X203.96 Y173.379 E160.65192
G1 X108.135 Y173.38 E181.68712
G1 X111.018 Y174.087 E182.33874
G1 X117.819 Y175.526 E183.86473
G1 X124.652 Y176.741 E185.38822
G1 F2100 E175.38822
G0 F6000 X136.155 Y175.049
G0 X203.946 Y173.218
G0 X205.192 Y173.096
G0 X206.476 Y172.705
G0 X207.661 Y172.074
G0 X208.697 Y171.222
G0 X209.549 Y170.186
G0 X210.059 Y169.227
G0 X210.695 Y167.702
G1 F2100 E185.38822
G1 F1298.5 X210.718 Y167.273 E185.47537
G1 F2100 E175.47537
G0 F6000 X210.18 Y169.001
G0 X209.549 Y170.186
G0 X208.697 Y171.222
G0 X207.661 Y172.074
G0 X206.476 Y172.705
G0 X205.192 Y173.096
G0 X203.946 Y173.218
G0 X136.155 Y175.049
G0 X124.621 Y176.84
G0 X124.434 Y177.922
;TYPE:WALL-OUTER
G1 F2100 E185.47537
G1 F1200 X131.357 Y178.925 E187.01095
G1 X138.28 Y179.702 E188.54021
G1 X145.234 Y180.261 E190.07166
G1 X152.219 Y180.595 E191.60673
G1 X159.214 Y180.707 E193.14245
G1 X205.162 Y180.708 E203.22881
G1 X206.558 Y180.615 E203.53594
G1 X207.868 Y180.34 E203.82977
G1 X208.506 Y180.127 E203.97742
G1 X209.033 Y179.907 E204.10278
G1 X209.589 Y179.607 E204.24147
G1 X210.026 Y179.326 E204.35552
G1 X210.491 Y178.949 E204.48693
G1 X210.814 Y178.632 E204.58627
G1 X211.163 Y178.195 E204.70904
G1 X211.397 Y177.831 E204.80403
G1 X211.614 Y177.365 E204.91687
G1 X211.743 Y176.978 E205.00642
G1 X211.836 Y176.467 E205.12044
G1 X211.861 Y176.07 E205.20776
G1 X211.861 Y167.273 E207.13885
G1 F1121.5 X211.777 Y167.007 E207.20437
G1 F991.7 X211.693 Y166.741 E207.27846
G1 F888.9 X211.609 Y166.475 E207.36113
G1 F845.1 X211.609 Y43.844 E245.58692
G1 X209.906 Y43.844 E246.11777
G1 X209.905 Y166.431 E284.32986
G1 F856.6 X209.878 Y166.468 E284.34394
G1 F933.9 X209.73 Y166.814 E284.45009
G1 F1095.9 X209.581 Y167.161 E284.54087
G1 F1200 X209.546 Y167.501 E284.6159
G1 X209.217 Y168.601 E284.86793
G1 X208.681 Y169.604 E285.11758
G1 X207.958 Y170.484 E285.36759
G1 X207.075 Y171.208 E285.61825
G1 X206.076 Y171.742 E285.86691
G1 X205.006 Y172.065 E286.11226
G1 X203.923 Y172.177 E286.35127
G1 F1201 X103.328 Y172.177 E308.41517
G1 F1245.7 X102.227 Y172.019 E308.65038
G1 F1288 X101.037 Y171.66 E308.90459
G1 F1240.3 X100.026 Y171.166 E309.14357
G1 F1200 X99.102 Y170.406 E309.4062
G1 X98.345 Y169.485 E309.6679
G1 X97.787 Y168.44 E309.92795
G1 X97.443 Y167.302 E310.18892
G1 X97.332 Y166.185 E310.43533
G1 X97.329 Y134.08 E317.48292
G1 X15.901 Y134.08 E335.35774
G1 X15.9 Y137.189 E336.04022
G1 X15.766 Y137.483 E336.11115
G1 X15.613 Y137.617 E336.15579
G1 X15.389 Y137.698 E336.20808
G1 X15.192 Y137.699 E336.25133
G1 X8.501 Y135.708 E337.78376
G1 X8.501 Y145.306 E339.89068
G1 X97.287 Y171.718 E360.22481
G1 X99.599 Y172.367 E360.75195
G1 F1247.8 X100.83 Y172.76 E361.02473
G1 F1305.5 X101.877 Y173.059 E361.24444
G1 F1254.4 X103.107 Y173.351 E361.50992
G1 F1201 X104.014 Y173.604 E361.71645
G1 F1200 X110.769 Y175.261 E363.24325
G1 X117.609 Y176.708 E364.77798
G1 X124.434 Y177.922 E366.29969
G0 F6000 X124.621 Y176.84
G0 X142.237 Y177.206
G0 X142.326 Y176.099
;TYPE:SKIN
G1 F775.4 X142.592 Y175.936 E366.40567
G1 F940.6 X142.858 Y175.773 E366.49304
G1 F1195 X143.124 Y175.609 E366.56193
G1 F1352.1 X144.303 Y175.632 E366.79167
G1 F1293.8 X145.482 Y175.655 E367.03176
G1 F1252.2 X146.632 Y175.668 E367.2737
G1 F1222.4 X147.782 Y175.682 E367.52153
G1 F1194 X148.932 Y175.695 E367.77526
G1 F1167.9 X150.082 Y175.709 E368.03466
G1 F1142 X151.232 Y175.723 E368.29996
G1 F1117.1 X152.382 Y175.736 E368.57114
G1 F1093.4 X155.818 Y175.75 E369.39895
G1 F1070.6 X159.253 Y175.764 E370.24411
G1 F1058.8 X203.898 Y175.763 E381.35115
G1 F1054.2 X204.265 Y175.75 E381.44292
G1 F1033.7 X205.327 Y175.664 E381.71443
G1 F1009.8 X205.806 Y175.599 E381.84052
G1 F991.1 X206.52 Y175.408 E382.03698
G1 F985.6 X206.939 Y175.274 E382.15455
G1 F1000.7 X207.295 Y175.146 E382.25413
G1 F1011.9 X207.781 Y174.928 E382.39279
G1 X208.246 Y174.681 E382.52985
G1 X208.246 Y176.045 E382.88491
G1 X208.109 Y176.223 E382.94338
G1 X207.84 Y176.441 E383.03351
G1 F1000.7 X207.463 Y176.627 E383.14417
G1 F987 X207.221 Y176.723 E383.21366
G1 F982.9 X206.922 Y176.82 E383.2979
G1 F991.1 X206.057 Y177.016 E383.53365
G1 F1012.7 X205.047 Y177.101 E383.7973
G1 F1041.2 X203.931 Y177.123 E384.0797
G1 F1058.8 X159.253 Y177.124 E395.19495
G1 F1070.6 X155.813 Y177.083 E396.04139
G1 F1093.4 X152.373 Y177.041 E396.87022
G1 F1117.1 X151.22 Y177 E397.14227
G1 F1142 X150.067 Y176.959 E397.4084
G1 F1167.9 X148.914 Y176.917 E397.66864
G1 F1194 X147.76 Y176.876 E397.92339
G1 F1222.4 X146.607 Y176.835 E398.17201
G1 F1252.2 X145.454 Y176.793 E398.41473
G1 F1293.8 X144.268 Y176.722 E398.65663
G1 F1352.1 X143.082 Y176.65 E398.88811
G1 F1195 X142.83 Y176.467 E398.95677
G1 F940.6 X142.578 Y176.283 E399.04415
G1 F775.4 X142.326 Y176.099 E399.15015
G1 F721.8 X141.714 Y176.075 E399.37367
G1 F740 X141.101 Y176.05 E399.59207
G1 F759.1 X140.489 Y176.025 E399.80462
G1 F779.2 X139.876 Y176.001 E400.01201
G1 F800.4 X139.263 Y175.976 E400.21391
G1 F822.9 X138.651 Y175.951 E400.40999
G1 F855.1 X137.904 Y175.909 E400.64047
G1 F898.9 X137.156 Y175.867 E400.86002
G1 F948 X136.408 Y175.825 E401.0682
G1 F2100 E391.0682
G0 F6000 X135.913 Y175.15
G0 X102.161 Y172.302
G0 X100.977 Y171.943
G0 X100.669 Y171.779
G0 X93.697 Y167.726
G0 X93.897 Y167.057
G1 F2100 E401.0682
G1 F1200 X15.589 Y143.757 E419.00292
G1 F1191.1 X15.106 Y143.605 E419.11491
G1 F1101.8 X14.881 Y143.446 E419.18078
G1 F920.1 X14.446 Y143.138 E419.33337
G1 F840.1 X13.561 Y142.897 E419.62096
G1 F850.1 X12.253 Y142.508 E420.04383
G1 X12.253 Y140.739 E420.59202
G1 F849.6 X14.107 Y141.29 E421.19174
G1 F839.7 X14.752 Y141.441 E421.39956
G1 F920.1 X15.266 Y141.305 E421.55178
G1 F1101.8 X15.361 Y141.217 E421.58274
G1 F1191.1 X15.949 Y141.157 E421.71346
G1 F1200 X16.425 Y141.052 E421.82046
G1 X16.945 Y140.866 E421.94169
G1 X17.404 Y140.629 E422.05509
G1 X17.869 Y140.305 E422.1795
G1 X18.175 Y140.033 E422.26937
G1 X18.5 Y139.675 E422.37551
G1 X18.726 Y139.364 E422.4599
G1 X18.96 Y138.96 E422.56239
G1 X19.175 Y138.455 E422.68287
G1 X19.331 Y137.894 E422.8107
G1 X19.36 Y137.584 E422.87904
G1 X93.825 Y137.584 E439.22537
G1 X93.826 Y166.159 E445.49806
G1 X93.843 Y166.511 E445.57542
G1 X93.897 Y167.057 E445.69586
G1 F2100 E435.69586
G0 F6000 X93.697 Y167.727
G0 X94.608 Y167.917
G0 X94.526 Y139.046
G0 X93.225 Y139.046
G1 F2100 E445.69586
G1 F1200 X92.362 Y138.183 E445.96378
G0 F6000 X92.362 Y136.884
G0 X90.665 Y136.884
G0 X90.665 Y138.183
G1 F1200 X93.225 Y140.743 E446.75851
G0 F6000 X94.526 Y140.743
G0 X94.526 Y142.44
G0 X93.225 Y142.44
G1 F1200 X88.968 Y138.183 E448.08007
G0 F6000 X88.968 Y136.884
G0 X87.271 Y136.884
G0 X87.271 Y138.183
G1 F1200 X93.226 Y144.138 E449.92877
G0 F6000 X94.526 Y144.138
G0 X94.526 Y145.835
G0 X93.226 Y145.835
G1 F1200 X85.574 Y138.183 E452.30428
G0 F6000 X85.574 Y136.884
G0 X83.877 Y136.884
G0 X83.877 Y138.183
G1 F1200 X93.226 Y147.532 E455.20662
G0 F6000 X94.526 Y147.532
G0 X94.526 Y149.229
G0 X93.227 Y149.229
G1 F1200 X82.18 Y138.183 E458.63594
G0 F6000 X82.18 Y136.884
G0 X80.483 Y136.884
G0 X80.483 Y138.183
G1 F1200 X93.227 Y150.926 E462.59208
G0 F6000 X94.526 Y150.926
G0 X94.526 Y152.624
G0 X93.227 Y152.624
G1 F1200 X78.786 Y138.183 E467.0752
G0 F6000 X78.786 Y136.884
G0 X77.089 Y136.884
G0 X77.089 Y138.183
G1 F1200 X93.227 Y154.321 E472.08514
G0 F6000 X94.526 Y154.321
G0 X94.526 Y156.018
G0 X93.227 Y156.018
G1 F1200 X75.392 Y138.183 E477.6219
G0 F6000 X75.392 Y136.884
G0 X73.695 Y136.884
G0 X73.695 Y138.183
G1 F1200 X93.228 Y157.716 E483.6858
G0 F6000 X94.526 Y157.716
G0 X94.526 Y159.413
G0 X93.228 Y159.413
G1 F1200 X71.998 Y138.183 E490.27652
G0 F6000 X71.998 Y136.884
G0 X70.301 Y136.884
G0 X70.301 Y138.183
G1 F1200 X93.228 Y161.11 E497.39406
G0 F6000 X94.526 Y161.11
G0 X94.526 Y162.808
G0 X93.229 Y162.808
G1 F1200 X68.604 Y138.183 E505.03874
G0 F6000 X68.604 Y136.884
G0 X66.907 Y136.884
G0 X66.907 Y138.183
G1 F1200 X93.229 Y164.505 E513.21024
G0 F6000 X94.526 Y164.505
G0 X94.527 Y166.143
G0 X93.229 Y166.202
G1 F1200 X65.21 Y138.183 E521.90857
G0 F6000 X65.21 Y136.884
G0 X63.513 Y136.884
G0 X63.513 Y138.183
G1 F1200 X90.853 Y165.523 E530.3961
G0 F6000 X90.482 Y166.77
G0 X88.066 Y166.051
G0 X88.437 Y164.804
G1 F1200 X61.815 Y138.183 E538.66058
G0 F6000 X61.815 Y136.884
G0 X60.118 Y136.884
G0 X60.118 Y138.183
G1 F1200 X86.021 Y164.086 E546.702
G0 F6000 X85.65 Y165.332
G0 X83.234 Y164.613
G0 X83.605 Y163.367
G1 F1200 X58.421 Y138.183 E554.52022
G0 F6000 X58.421 Y136.884
G0 X56.724 Y136.884
G0 X56.724 Y138.183
G1 F1200 X81.19 Y162.648 E562.11538
G0 F6000 X80.819 Y163.895
G0 X78.402 Y163.176
G0 X78.773 Y161.929
G1 F1200 X55.027 Y138.183 E569.48718
G0 F6000 X55.027 Y136.884
G0 X53.33 Y136.884
G0 X53.33 Y138.183
G1 F1200 X76.358 Y161.211 E576.63608
G0 F6000 X75.987 Y162.457
G0 X73.571 Y161.738
G0 X73.942 Y160.492
G1 F1200 X51.633 Y138.183 E583.56177
G0 F6000 X51.633 Y136.884
G0 X49.936 Y136.884
G0 X49.936 Y138.183
G1 F1200 X71.526 Y159.773 E590.26425
G0 F6000 X71.155 Y161.02
G0 X68.739 Y160.301
G0 X69.11 Y159.054
G1 F1200 X48.239 Y138.183 E596.74352
G0 F6000 X48.239 Y136.884
G0 X46.542 Y136.884
G0 X46.542 Y138.183
G1 F1200 X66.695 Y158.336 E602.99989
G0 F6000 X66.324 Y159.582
G0 X63.907 Y158.863
G0 X64.278 Y157.616
G1 F1200 X44.845 Y138.183 E609.03275
G0 F6000 X44.845 Y136.884
G0 X43.148 Y136.884
G0 X43.148 Y138.183
G1 F1200 X61.862 Y156.897 E614.84239
G0 F6000 X61.491 Y158.144
G0 X59.076 Y157.426
G0 X59.447 Y156.179
G1 F1200 X41.451 Y138.183 E620.42914
G0 F6000 X41.451 Y136.884
G0 X39.754 Y136.884
G0 X39.754 Y138.183
G1 F1200 X57.03 Y155.46 E625.79252
G0 F6000 X56.659 Y156.707
G0 X54.244 Y155.988
G0 X54.615 Y154.741
G1 F1200 X38.057 Y138.183 E630.93285
G0 F6000 X38.057 Y136.884
G0 X36.36 Y136.884
G0 X36.36 Y138.183
G1 F1200 X52.199 Y154.022 E635.84997
G0 F6000 X51.827 Y155.269
G0 X49.412 Y154.551
G0 X49.783 Y153.304
G1 F1200 X34.663 Y138.183 E640.54403
