;FLAVOR:Marlin
;TIME:13882
;Filament used: 54.8018m
;Layer height: 0.6
;MINX:13.432
;MINY:58.963
;MINZ:0.4
;MAXX:218.559
;MAXY:181.855
;MAXZ:9.4
;Generated with Cura_SteamEngine 5.3.1
M82 ;absolute extrusion mode
; START G-CODE BEGIN

M104 S220.0 ﻿T0
M140 S60.0

G28 ; Home all axes
G92 E0 ; Reset Extruder
M420 S1 ; Load Mesh

M109 S220.0 ﻿T0
M190 S60.0

G92 E0 ; Reset Extruder

G1 X0.6 Y20 Z0.3 F5000.0 ; Move to start position
G1 X0.6 Y200.0 Z0.3 F1500.0 E15 ; Draw the first line
G1 X0.9 Y200.0 Z0.3 F5000.0 ; Move to side a little
G1 X0.9 Y20 Z0.3 F1500.0 E30 ; Draw the second line
G92 E0 ; Reset Extruder
G1 Z2.0 F3000 ; Move Z Axis up little to prevent scratching of Heat Bed
G1 X5 Y20 Z0.3 F5000.0 ; Move over to prevent blob squish

; START G-CODE END
G92 E0
G92 E0
G1 F1500 E-6
;LAYER_COUNT:16
;LAYER:0
M107
G0 F6000 X15.425 Y69.784 Z0.4
;TYPE:SUPPORT-INTERFACE
G1 F1500 E0
G1 F1200 X37.373 Y69.139 E3.0673
G1 X65.805 Y68.362 E7.04052
G1 X165.764 Y65.495 E21.00979
G1 X194.195 Y64.638 E24.98319
G1 X216.144 Y64.024 E28.0505
G1 X216.382 Y72.336 E29.21211
G1 X216.38 Y72.336 E29.21238
G1 X216.339 Y70.899 E29.4132
G1 X179.848 Y71.864 E34.51251
G1 X165.958 Y72.303 E36.45381
G1 X66.001 Y75.172 E50.42281
G1 X52.109 Y75.529 E52.36406
G1 X15.623 Y76.66 E57.46333
G1 X15.425 Y69.784 E58.42425
G0 F6000 X15.864 Y70.17
G1 F1200 X21.762 Y76.068 E59.58943
G1 F1500 E53.58943
G0 F6000 X18.876 Y76.158
G1 F1500 E59.58943
G1 F1200 X25.137 Y69.897 E60.82632
G1 F1500 E54.82632
G0 F6000 X22.459 Y69.976
G1 F1500 E60.82632
G1 F1200 X28.346 Y75.864 E61.98943
G1 F1500 E55.98943
G0 F6000 X25.882 Y75.941
G1 F1500 E61.98943
G1 F1200 X32.13 Y69.692 E63.22385
G1 F1500 E57.22385
G0 F6000 X29.054 Y69.783
G1 F1500 E63.22385
G1 F1200 X34.931 Y75.66 E64.38489
G1 F1500 E58.38489
G0 F6000 X32.887 Y75.724
G1 F1500 E64.38489
G1 F1200 X39.121 Y69.49 E65.61644
G1 F1500 E59.61644
G0 F6000 X42.252 Y69.405
G1 F1500 E65.61644
G1 F1200 X48.099 Y75.252 E66.77155
G0 F6000 X46.898 Y75.289
G1 F1200 X53.078 Y69.109 E67.99244
G1 F1500 E61.99244
G0 F6000 X55.468 Y69.044
G1 F1500 E67.99244
G1 F1200 X61.314 Y74.891 E69.14745
G0 F6000 X60.861 Y74.903
G1 F1200 X67.038 Y68.725 E70.36784
G1 F1500 E64.36784
G0 F6000 X68.679 Y68.679
G1 F1500 E70.36784
G1 F1200 X74.525 Y74.525 E71.52275
G1 X74.823 Y74.517
G1 X81.016 Y68.324 E72.74621
G0 F6000 X81.877 Y68.3
G1 F1200 X87.723 Y74.147 E73.90121
G0 F6000 X88.8 Y74.116
G1 F1200 X94.992 Y67.924 E75.12448
G1 X95.075 Y67.922
G1 X100.921 Y73.768 E76.27938
G1 F1500 E70.27938
G0 F6000 X102.777 Y73.715
G1 F1500 E76.27938
G1 F1200 X108.97 Y67.523 E77.50274
G0 F6000 X108.273 Y67.544
G1 F1200 X114.118 Y73.389 E78.65745
G1 F1500 E72.65745
G0 F6000 X116.756 Y73.314
G1 F1500 E78.65745
G1 F1200 X122.947 Y67.122 E79.88062
G0 F6000 X121.471 Y67.165
G1 F1200 X127.316 Y73.01 E81.03533
G1 F1500 E75.03533
G0 F6000 X130.733 Y72.913
G1 F1500 E81.03533
G1 F1200 X136.924 Y66.721 E82.25849
G1 F1500 E76.25849
G0 F6000 X134.669 Y66.787
G1 F1500 E82.25849
G1 F1200 X140.514 Y72.631 E83.4131
G1 F1500 E77.4131
G0 F6000 X137.721 Y72.713
G1 F1500 E83.4131
G1 F1200 X143.913 Y66.521 E84.63636
G1 F1500 E78.63636
G0 F6000 X141.268 Y66.598
G1 F1500 E84.63636
G1 F1200 X147.113 Y72.443 E85.79107
G1 F1500 E79.79107
G0 F6000 X144.71 Y72.512
G1 F1500 E85.79107
G1 F1200 X150.901 Y66.321 E87.01413
G1 F1500 E81.01413
G0 F6000 X147.868 Y66.409
G1 F1500 E87.01413
G1 F1200 X153.712 Y72.253 E88.16865
G1 F1500 E82.16865
G0 F6000 X151.699 Y72.312
G1 F1500 E88.16865
G1 F1200 X157.89 Y66.12 E89.39181
G1 F1500 E83.39181
G0 F6000 X161.065 Y66.03
G1 F1500 E89.39181
G1 F1200 X166.906 Y71.871 E90.54573
G0 F6000 X165.677 Y71.91
G1 F1200 X171.877 Y65.71 E91.77057
G1 F1500 E85.77057
G0 F6000 X174.251 Y65.64
G1 F1500 E91.77057
G1 F1200 X180.068 Y71.457 E92.91975
G1 X179.695 Y71.468
G1 X185.875 Y65.288 E94.14064
G1 F1500 E88.14064
G0 F6000 X187.43 Y65.242
G1 F1500 E94.14064
G1 F1200 X193.295 Y71.107 E95.2993
G1 X193.641 Y71.098
G1 X199.861 Y64.879 E96.52799
G0 F6000 X200.623 Y64.858
G1 F1200 X206.522 Y70.758 E97.69347
G0 F6000 X207.586 Y70.73
G1 F1200 X213.828 Y64.488 E98.92661
G1 X213.83 Y64.489
G1 X215.813 Y66.472 E99.31836
G1 F1500 E93.31836
G0 F6000 X215.89 Y69.215
G1 F1500 E99.31836
G1 F1200 X214.558 Y70.546 E99.5814
G0 F6000 X213.136 Y70.583
G1 F1200 X207.226 Y64.674 E100.74886
G1 X206.844 Y64.684
G1 X200.613 Y70.915 E101.97982
G0 F6000 X199.908 Y70.932
G1 F1200 X194.019 Y65.043 E103.14323
G0 F6000 X192.875 Y65.077
G1 F1200 X186.669 Y71.283 E104.36925
G1 X186.682 Y71.282
G1 X180.841 Y65.441 E105.52317
G1 F1500 E99.52317
G0 F6000 X178.876 Y65.5
G1 F1500 E105.52317
G1 F1200 X172.686 Y71.69 E106.74604
G0 F6000 X173.487 Y71.663
G1 F1200 X167.662 Y65.838 E107.8968
G1 F1500 E101.8968
G0 F6000 X164.878 Y65.92
G1 F1500 E107.8968
G1 F1200 X158.688 Y72.111 E109.11976
G1 F1500 E103.11976
G0 F6000 X160.311 Y72.064
G1 F1500 E109.11976
G1 F1200 X154.466 Y66.219 E110.27447
G1 F1500 E104.27447
G0 F6000 X154.424 Y64.756
G0 X217.166 Y62.942
G0 X217.466 Y73.36
G0 X216.869 Y73.375
G0 X133.957 Y74.286
G0 X133.915 Y72.821
G1 F1500 E110.27447
G1 F1200 X128.07 Y66.976 E111.42918
G1 F1500 E105.42918
G0 F6000 X129.935 Y66.922
G1 F1500 E111.42918
G1 F1200 X123.744 Y73.114 E112.65234
G1 F1500 E106.65234
G0 F6000 X120.717 Y73.2
G1 F1500 E112.65234
G1 F1200 X114.872 Y67.354 E113.80715
G0 F6000 X115.959 Y67.322
G1 F1200 X109.767 Y73.515 E115.03051
G1 F1500 E109.03051
G0 F6000 X107.519 Y73.578
G1 F1500 E115.03051
G1 F1200 X101.674 Y67.733 E116.18522
G1 X101.981 Y67.723
G1 X95.789 Y73.915 E117.40848
G0 F6000 X94.322 Y73.957
G1 F1200 X88.476 Y68.112 E118.56329
G0 F6000 X88.004 Y68.124
G1 F1200 X81.812 Y74.316 E119.78655
G0 F6000 X81.124 Y74.336
G1 F1200 X75.278 Y68.49 E120.94146
G0 F6000 X74.027 Y68.525
G1 F1200 X67.834 Y74.718 E122.16492
G1 X67.926 Y74.715
G1 X62.075 Y68.863 E123.32091
G1 F1500 E117.32091
G0 F6000 X60.058 Y68.918
G1 F1500 E123.32091
G1 F1200 X53.893 Y75.082 E124.53874
G0 F6000 X54.696 Y75.061
G1 F1200 X48.86 Y69.225 E125.69167
G1 F1500 E119.69167
G0 F6000 X46.099 Y69.3
G1 F1500 E125.69167
G1 F1200 X39.892 Y75.506 E126.9178
G1 F1500 E120.9178
G0 F6000 X41.514 Y75.456
G1 F1500 E126.9178
G1 F1200 X35.648 Y69.589 E128.07676
G1 F1500 E122.07676
G0 F6000 X35.605 Y68.127
G0 X18.1 Y68.642
G0 X18.143 Y70.103
G1 F1500 E128.07676
G1 F1200 X15.9 Y72.346 E128.51987
G1 F1500 E122.51987
;MESH:Fries Lid.stl
G0 F6000 X33.601 Y116.092
G0 X36.128 Y116.666
G0 X37.307 Y117.114
G0 X38.328 Y117.853
G0 X39.124 Y118.832
G0 X39.639 Y119.98
G0 X39.839 Y121.225
G0 X39.723 Y122.353
G0 X38.835 Y124.864
;TYPE:WALL-INNER
G1 F1500 E128.51987
G1 F1200 X38.585 Y125.095 E128.56742
G1 X37.851 Y125.691 E128.6995
G1 X37.602 Y125.844 E128.74033
G1 X36.75 Y126.229 E128.87093
G1 X36.436 Y126.348 E128.91784
G1 X35.342 Y126.523 E129.07261
G1 X35.003 Y126.535 E129.11999
G1 X33.956 Y126.427 E129.26703
G1 X33.7 Y126.368 E129.30372
G1 X32.615 Y125.956 E129.46585
G1 X32.332 Y125.779 E129.51248
G1 X31.567 Y125.225 E129.64442
G1 X31.359 Y125.031 E129.68415
G1 X30.687 Y124.206 E129.8328
G1 X30.533 Y123.959 E129.87346
G1 X30.146 Y123.098 E130.00532
G1 X30.027 Y122.775 E130.05341
G1 X29.864 Y121.772 E130.19536
G1 X29.84 Y121.514 E130.23155
G1 X29.85 Y121.253 E130.26804
G1 X29.934 Y120.427 E130.38402
G1 X29.978 Y120.165 E130.42113
G1 X30.055 Y119.915 E130.45768
G1 X30.392 Y119.032 E130.5897
G1 X30.531 Y118.776 E130.6304
G1 X31.154 Y117.914 E130.77897
G1 X31.348 Y117.709 E130.81839
G1 X32.198 Y117.024 E130.97089
G1 X32.421 Y116.888 E131.00738
G1 X33.415 Y116.443 E131.15951
G1 X33.666 Y116.369 E131.19607
G1 X34.693 Y116.202 E131.34142
G1 X35.032 Y116.193 E131.38879
G1 X36.037 Y116.294 E131.52989
G1 X36.321 Y116.357 E131.57052
G1 X37.341 Y116.74 E131.72273
G1 X37.636 Y116.907 E131.77008
G1 X38.585 Y117.598 E131.93407
G1 X39.356 Y118.546 E132.10476
G1 X39.496 Y118.783 E132.14322
G1 X39.904 Y119.687 E132.28176
G1 X40.009 Y119.998 E132.32762
G1 X40.181 Y121.096 E132.48287
G1 X40.19 Y121.355 E132.51907
G1 X40.085 Y122.37 E132.66162
G1 X40.017 Y122.691 E132.70745
G1 X39.63 Y123.705 E132.85907
G1 X39.503 Y123.933 E132.89552
G1 X38.835 Y124.864 E133.05559
G0 F6000 X37.639 Y125.476
G0 X37.323 Y125.087
G1 F1200 X36.255 Y125.57 E133.21933
G1 X35.132 Y125.745 E133.3781
G1 X33.989 Y125.628 E133.5386
G1 X32.933 Y125.222 E133.69665
G1 X32.018 Y124.565 E133.854
G1 X31.284 Y123.666 E134.01613
G1 X30.876 Y122.77 E134.15366
G1 X30.795 Y122.519 E134.1905
G1 X30.629 Y121.494 E134.33555
G1 X30.747 Y120.342 E134.49732
G1 X31.168 Y119.258 E134.65976
G1 X31.838 Y118.341 E134.81841
G1 X32.706 Y117.635 E134.97471
G1 X33.762 Y117.162 E135.13635
G1 X34.885 Y116.981 E135.29524
G1 X36.031 Y117.097 E135.45615
G1 X37.098 Y117.508 E135.61588
G1 X38.006 Y118.16 E135.77203
G1 X38.756 Y119.082 E135.93806
G1 X39.214 Y120.112 E136.09553
G1 X39.397 Y121.23 E136.25378
G1 X39.282 Y122.371 E136.41398
G1 X38.873 Y123.441 E136.574
G1 X38.266 Y124.286 E136.71934
G1 X38.081 Y124.473 E136.75608
G1 X37.323 Y125.087 E136.89235
G1 F1500 E130.89235
G0 F6000 X37.639 Y125.476
G0 X38.01 Y125.927
G0 X50.284 Y140.665
G0 X48.761 Y143.955
G0 X48.289 Y145.56
G0 X48.163 Y147.226
G0 X48.386 Y148.884
G0 X48.947 Y150.458
G0 X49.824 Y151.881
G0 X50.978 Y153.092
G0 X52.359 Y154.036
G0 X53.905 Y154.672
G0 X55.55 Y154.972
G0 X57.053 Y154.93
G0 X60.547 Y154.112
G1 F1500 E136.89235
G1 F1200 X59.031 Y154.842 E137.1274
G1 X58.764 Y154.922 E137.16633
G1 X57.375 Y155.257 E137.36593
G1 X57.062 Y155.291 E137.40991
G1 X55.501 Y155.33 E137.62804
G1 X53.879 Y155.034 E137.85836
G1 X53.609 Y154.94 E137.8983
G1 X52.189 Y154.353 E138.11294
G1 X50.918 Y153.49 E138.32755
G1 X50.647 Y153.268 E138.37649
G1 X49.679 Y152.255 E138.57222
G1 X49.496 Y152.041 E138.61155
G1 X48.619 Y150.612 E138.84577
G1 X48.034 Y148.962 E139.09032
G1 X47.801 Y147.247 E139.33209
G1 X47.938 Y145.488 E139.57856
G1 X48.419 Y143.834 E139.81918
G1 X49.193 Y142.396 E140.04731
G1 X49.334 Y142.188 E140.08241
G1 X50.31 Y141.04 E140.2929
G1 X50.495 Y140.863 E140.32867
G1 X51.781 Y139.872 E140.55546
G1 X53.277 Y139.156 E140.78714
G1 X53.548 Y139.074 E140.8267
G1 X54.914 Y138.743 E141.02304
G1 X55.192 Y138.707 E141.0622
G1 X56.712 Y138.662 E141.27462
G1 X57.003 Y138.698 E141.31558
G1 X58.355 Y138.946 E141.5076
G1 X58.658 Y139.035 E141.55171
G1 X60.147 Y139.653 E141.77692
G1 X61.501 Y140.576 E142.00583
G1 X61.689 Y140.747 E142.04133
G1 X62.763 Y141.876 E142.25901
G1 X63.605 Y143.229 E142.48162
G1 X63.728 Y143.465 E142.5188
G1 X64.235 Y144.897 E142.731
G1 X64.297 Y145.148 E142.76712
G1 X64.494 Y146.588 E142.97015
G1 X64.506 Y146.868 E143.0093
G1 X64.398 Y148.295 E143.20921
G1 X64.34 Y148.64 E143.25808
G1 X63.932 Y150.037 E143.46139
G1 X63.839 Y150.275 E143.49708
G1 X63.119 Y151.604 E143.70823
G1 X62.923 Y151.879 E143.7554
G1 X62.064 Y152.89 E143.94072
G1 X61.845 Y153.11 E143.98409
G1 X60.547 Y154.112 E144.21315
G0 F6000 X60.128 Y153.429
G1 F1200 X58.697 Y154.113 E144.43471
G1 X57.164 Y154.486 E144.65511
G1 X55.569 Y154.531 E144.87801
G1 X54.04 Y154.25 E145.09517
G1 X52.569 Y153.646 E145.31731
G1 X51.268 Y152.761 E145.53711
G1 X50.174 Y151.615 E145.75843
G1 X49.344 Y150.266 E145.97969
G1 X48.813 Y148.767 E146.20184
G1 X48.604 Y147.199 E146.42282
G1 X48.725 Y145.637 E146.64167
G1 X49.174 Y144.111 E146.86388
G1 X49.914 Y142.74 E147.08151
G1 X50.951 Y141.519 E147.30529
G1 X52.191 Y140.564 E147.52393
G1 X53.607 Y139.885 E147.7433
G1 X55.154 Y139.507 E147.96576
G1 X56.734 Y139.465 E148.18655
G1 X58.284 Y139.746 E148.4066
G1 X59.739 Y140.345 E148.62641
G1 X61.061 Y141.249 E148.85013
G1 X62.138 Y142.378 E149.06809
G1 X62.974 Y143.731 E149.29027
G1 X63.494 Y145.196 E149.50742
G1 X63.713 Y146.778 E149.73053
G1 X63.592 Y148.335 E149.94868
G1 X63.149 Y149.868 E150.17159
G1 X62.396 Y151.261 E150.3928
G1 X61.372 Y152.469 E150.61402
G1 X60.128 Y153.429 E150.83352
G1 F1500 E144.83352
G0 F6000 X60.431 Y153.823
G0 X59.148 Y154.395
G0 X55.743 Y155.613
G0 X41.72 Y164.77
G0 X39.924 Y168.398
G1 F1500 E150.83352
G1 F1200 X39.183 Y169 E150.96689
G1 X38.975 Y169.148 E151.00255
G1 X38.742 Y169.271 E151.03935
G1 X37.993 Y169.608 E151.15409
G1 X37.672 Y169.728 E151.20196
G1 X36.665 Y169.891 E151.34446
G1 X36.408 Y169.915 E151.38052
G1 X36.147 Y169.905 E151.417
G1 X35.321 Y169.822 E151.53297
G1 X35.059 Y169.777 E151.57011
G1 X34.809 Y169.7 E151.60665
G1 X34.035 Y169.404 E151.72241
G1 X33.796 Y169.294 E151.75916
G1 X33.581 Y169.159 E151.79462
G1 X32.804 Y168.6 E151.92834
G1 X32.593 Y168.395 E151.96943
G1 X31.926 Y167.575 E152.11709
G1 X31.777 Y167.333 E152.15679
G1 X31.391 Y166.475 E152.28822
G1 X31.272 Y166.154 E152.33604
G1 X31.109 Y165.15 E152.47813
G1 X31.085 Y164.892 E152.51432
G1 X31.095 Y164.631 E152.55081
G1 X31.179 Y163.805 E152.66679
G1 X31.223 Y163.543 E152.7039
G1 X31.3 Y163.293 E152.74045
G1 X31.637 Y162.41 E152.87247
G1 X31.776 Y162.154 E152.91317
G1 X32.399 Y161.292 E153.06174
G1 X32.593 Y161.087 E153.10116
G1 X33.443 Y160.402 E153.25366
G1 X33.666 Y160.266 E153.29015
G1 X34.66 Y159.821 E153.44228
G1 X34.911 Y159.747 E153.47884
G1 X35.887 Y159.586 E153.61702
G1 X36.231 Y159.562 E153.66519
G1 X37.328 Y159.68 E153.81932
G1 X37.588 Y159.738 E153.85653
G1 X38.623 Y160.134 E154.01133
G1 X38.878 Y160.286 E154.0528
G1 X39.642 Y160.836 E154.18431
G1 X39.948 Y161.12 E154.24263
G1 X40.588 Y161.912 E154.38487
G1 X40.767 Y162.213 E154.43379
G1 X41.177 Y163.129 E154.57398
G1 X41.248 Y163.369 E154.60895
G1 X41.437 Y164.508 E154.77023
G1 X41.423 Y164.856 E154.81888
G1 X41.333 Y165.72 E154.94023
G1 X41.259 Y166.065 E154.98952
G1 X40.884 Y167.061 E155.13819
G1 X40.745 Y167.321 E155.17937
G1 X40.126 Y168.181 E155.32739
G1 X39.924 Y168.398 E155.36881
G0 F6000 X39.445 Y167.749
G1 F1200 X38.557 Y168.478 E155.5293
G1 X37.665 Y168.879 E155.66592
G1 X37.413 Y168.96 E155.7029
G1 X36.388 Y169.125 E155.84792
G1 X35.247 Y169.01 E156.00812
G1 X34.171 Y168.598 E156.16907
G1 X33.248 Y167.927 E156.32848
G1 X32.517 Y167.028 E156.49034
G1 X32.121 Y166.147 E156.62527
G1 X32.04 Y165.897 E156.66198
G1 X31.874 Y164.872 E156.80703
G1 X31.992 Y163.72 E156.9688
G1 X32.413 Y162.636 E157.13124
G1 X33.084 Y161.718 E157.29009
G1 X33.965 Y161.007 E157.44823
G1 X35.015 Y160.536 E157.60899
G1 X36.143 Y160.36 E157.76847
G1 X37.27 Y160.475 E157.92672
G1 X38.338 Y160.882 E158.08638
G1 X39.161 Y161.475 E158.22808
G1 X39.345 Y161.645 E158.26308
G1 X39.913 Y162.344 E158.3889
G1 X40.045 Y162.559 E158.42414
G1 X40.459 Y163.489 E158.56634
G1 X40.64 Y164.615 E158.72566
G1 X40.525 Y165.761 E158.88655
G1 X40.115 Y166.819 E159.04505
G1 X39.445 Y167.749 E159.20517
G1 F1500 E153.20517
G0 F6000 X39.854 Y168.044
G0 X38.79 Y168.853
G0 X37.641 Y169.369
G0 X36.633 Y169.529
G0 X33.66 Y169.543
G0 X33.946 Y179.535
G0 X20.996 Y180.21
G1 F1500 E159.20517
G1 F1200 X216.914 Y174.589 E186.58472
G1 X214.097 Y76.403 E200.30622
G1 X18.178 Y82.026 E227.68592
G1 X20.996 Y180.21 E241.40714
G0 F6000 X20.675 Y180.551
G0 X20.22 Y181.033
G1 F1200 X217.737 Y175.365 E269.01015
G1 X214.873 Y75.58 E282.95512
G1 X17.355 Y81.25 E310.55828
G1 X20.22 Y181.033 E324.50297
G1 F1500 E318.50297
G0 F6000 X20.675 Y180.551
G0 X197.565 Y174.84
G0 X199.237 Y165.243
G0 X197.249 Y163.813
G1 F1500 E324.50297
G1 F1200 X196.534 Y162.945 E324.66006
G1 X196.305 Y162.601 E324.71779
G1 X195.87 Y161.618 E324.86795
G1 X195.796 Y161.366 E324.90464
G1 X195.629 Y160.338 E325.05013
G1 X195.62 Y159.991 E325.09862
G1 X195.731 Y158.935 E325.24695
G1 X195.789 Y158.684 E325.28293
G1 X196.177 Y157.671 E325.43447
G1 X196.321 Y157.417 E325.47525
G1 X196.942 Y156.556 E325.62355
G1 X197.181 Y156.32 E325.67047
G1 X197.91 Y155.728 E325.80165
G1 X198.176 Y155.555 E325.84598
G1 X199.061 Y155.152 E325.98182
G1 X199.378 Y155.033 E326.02912
G1 X200.49 Y154.852 E326.1865
G1 X200.792 Y154.843 E326.22871
G1 X201.914 Y154.963 E326.38634
G1 X202.237 Y155.061 E326.43349
G1 X203.276 Y155.466 E326.58927
G1 X204.236 Y156.157 E326.7545
G1 X204.452 Y156.361 E326.796
G1 X205.118 Y157.182 E326.94368
G1 X205.268 Y157.423 E326.98334
G1 X205.658 Y158.291 E327.11627
G1 X205.749 Y158.534 E327.15251
G1 X205.808 Y158.792 E327.18948
G1 X205.939 Y159.607 E327.3048
G1 X205.964 Y159.867 E327.34128
G1 X205.955 Y160.127 E327.37762
