;FLAVOR:Marlin
;TIME:1263
;Filament used: 3.03923m
;Layer height: 0.4
;MINX:80.268
;MINY:77.739
;MINZ:0.4
;MAXX:157.496
;MAXY:133.654
;MAXZ:4.8
;Generated with Cura_SteamEngine 5.3.1
M82 ;absolute extrusion mode
; START G-CODE BEGIN

M104 S230.0 ﻿T0
M140 S60.0

G28 ; Home all axes
G92 E0 ; Reset Extruder
M420 S1 ; Load Mesh

M109 S230.0 ﻿T0
M190 S60.0

G92 E0 ; Reset Extruder

G1 X0.6 Y20 Z0.3 F5000.0 ; Move to start position
G1 X0.6 Y200.0 Z0.3 F1500.0 E15 ; Draw the first line
G1 X0.9 Y200.0 Z0.3 F5000.0 ; Move to side a little
G1 X0.9 Y20 Z0.3 F1500.0 E30 ; Draw the second line
G92 E0 ; Reset Extruder
G1 Z2.0 F3000 ; Move Z Axis up little to prevent scratching of Heat Bed
G1 X5 Y20 Z0.3 F5000.0 ; Move over to prevent blob squish

; START G-CODE END
G92 E0
G92 E0
G1 F2100 E-6
;LAYER_COUNT:13
;LAYER:0
M107
;MESH:WhirlWax_CleatMount.stl(2)
G0 F6000 X84.7 Y97.723 Z0.4
;TYPE:WALL-INNER
G1 F2100 E0
G1 F863.8 X84.498 Y97.995 E0.10332
G1 F905.7 X84.242 Y98.371 E0.23562
G1 F954.9 X83.892 Y99.003 E0.43491
G1 F991.1 X83.573 Y99.761 E0.6535
G1 F993.8 X83.434 Y100.268 E0.79285
G1 F976.9 X83.358 Y100.614 E0.88837
G1 F951.8 X83.302 Y100.916 E0.97338
G1 F924.9 X83.272 Y101.139 E1.03747
G0 F6000 X91.946 Y111.247
G0 X96.167 Y115.078
G1 F1200 X96.978 Y114.882 E1.22062
G1 X97.729 Y114.644 E1.39356
G1 X98.536 Y114.325 E1.58405
G1 X99.25 Y113.985 E1.75765
G1 X99.973 Y113.579 E1.93967
G1 X100.672 Y113.121 E2.12312
G1 X101.328 Y112.624 E2.30378
G1 X101.926 Y112.101 E2.47817
G1 X102.539 Y111.49 E2.66817
G1 X103.059 Y110.893 E2.84196
G1 X103.556 Y110.236 E3.0228
G1 X104.014 Y109.538 E3.20606
G1 X104.415 Y108.823 E3.38602
G1 X104.764 Y108.091 E3.56403
G1 X105.077 Y107.294 E3.75199
G1 X105.316 Y106.543 E3.925
G1 X105.513 Y105.729 E4.10884
G1 X105.653 Y104.918 E4.28951
G1 X105.736 Y104.114 E4.46694
G1 X105.765 Y103.282 E4.64968
G1 X105.737 Y102.445 E4.83352
G1 X105.653 Y101.646 E5.00988
G1 X105.511 Y100.818 E5.1943
G1 X105.319 Y100.033 E5.3717
G1 X105.077 Y99.268 E5.54783
G1 X104.764 Y98.473 E5.73538
G1 F1201 X104.414 Y97.739 E5.91374
G1 X104.014 Y97.025 E6.09325
G1 F1200 X103.556 Y96.327 E6.27651
G1 X103.06 Y95.672 E6.45687
G1 X102.538 Y95.075 E6.63095
G1 X101.933 Y94.47 E6.81877
G1 X101.325 Y93.94 E6.99582
G1 F1201 X100.664 Y93.437 E7.17801
G1 X99.973 Y92.985 E7.35911
G1 F1200 X99.266 Y92.588 E7.53711
G1 X98.526 Y92.236 E7.71699
G1 X97.73 Y91.922 E7.90483
G1 X96.978 Y91.683 E8.07804
G1 X96.167 Y91.486 E8.26125
G1 X95.352 Y91.346 E8.44277
G1 X94.549 Y91.263 E8.61998
G1 X93.717 Y91.234 E8.80273
G1 X92.885 Y91.262 E8.98548
G1 X92.081 Y91.345 E9.1629
G1 X91.267 Y91.486 E9.34425
G1 X90.456 Y91.683 E9.52746
G1 X89.705 Y91.922 E9.70046
G1 X88.908 Y92.235 E9.88842
G1 X88.168 Y92.588 E10.0684
G1 X87.461 Y92.984 E10.24629
G1 X86.77 Y93.438 E10.42778
G1 X86.108 Y93.939 E10.61003
G1 X85.502 Y94.47 E10.7869
G1 X84.896 Y95.075 E10.97487
G1 X84.374 Y95.672 E11.14896
G1 F1201 X83.878 Y96.327 E11.32916
G1 X83.42 Y97.026 E11.51246
G1 F1200 X83.02 Y97.739 E11.69192
G1 X82.67 Y98.473 E11.87043
G1 X82.357 Y99.268 E12.05798
G1 X82.117 Y100.033 E12.23398
G1 X81.905 Y100.904 E12.43076
G1 X81.781 Y101.645 E12.59569
G1 X81.698 Y102.445 E12.77224
G1 X81.669 Y103.282 E12.95609
G1 X81.697 Y104.115 E13.13905
G1 X81.781 Y104.918 E13.31628
G1 X81.921 Y105.731 E13.49738
G1 X82.118 Y106.543 E13.6808
G1 X82.356 Y107.294 E13.85373
G1 X82.67 Y108.091 E14.04178
G1 X83.019 Y108.823 E14.21979
G1 X83.421 Y109.539 E14.40005
G1 X83.878 Y110.237 E14.58319
G1 X84.375 Y110.894 E14.76403
G1 X84.895 Y111.49 E14.93766
G1 X85.509 Y112.101 E15.1278
G1 X86.106 Y112.624 E15.30203
G1 X86.762 Y113.121 E15.4827
G1 X87.46 Y113.579 E15.66596
G1 X88.185 Y113.984 E15.84826
G1 X88.897 Y114.325 E16.02155
G1 X89.705 Y114.643 E16.21217
G1 X90.456 Y114.881 E16.3851
G1 X91.267 Y115.078 E16.56831
G1 X92.08 Y115.218 E16.7494
G1 F1201 X92.885 Y115.301 E16.9269
G1 X93.717 Y115.33 E17.1095
G1 F1200 X94.549 Y115.301 E17.29225
G1 X95.354 Y115.218 E17.4699
G1 X96.167 Y115.078 E17.65099
G0 F6000 X96.994 Y113.428
G1 F961.3 X97.285 Y113.404 E17.731
G1 F1094.2 X97.913 Y113.293 E17.88453
G1 F1200 X98.698 Y112.919 E18.07541
G1 X99.35 Y112.552 E18.23965
G1 X99.98 Y112.14 E18.40489
G1 X100.57 Y111.693 E18.56738
G1 X101.106 Y111.224 E18.72372
G1 X101.662 Y110.67 E18.89602
G1 X102.127 Y110.136 E19.05146
G1 X102.574 Y109.544 E19.2143
G1 X102.988 Y108.915 E19.3796
G1 X103.348 Y108.271 E19.54155
G1 X103.662 Y107.612 E19.7018
G1 X103.945 Y106.892 E19.87162
G1 X104.16 Y106.219 E20.02671
G1 X104.337 Y105.486 E20.19224
G1 X104.464 Y104.754 E20.35533
G1 X104.538 Y104.031 E20.51487
G1 X104.564 Y103.282 E20.67939
G1 X104.539 Y102.528 E20.84499
G1 X104.464 Y101.81 E21.00346
G1 X104.336 Y101.062 E21.17005
G1 X104.163 Y100.357 E21.3294
G1 X103.939 Y99.653 E21.49157
G1 X103.657 Y98.94 E21.65989
G1 X103.52 Y98.654 E21.7295
G1 F1165 X103.311 Y98.301 E21.82225
G1 F1063.5 X103.081 Y98.056 E21.90549
G1 F948.6 X102.85 Y97.811 E21.99899
G1 F975.6 X102.875 Y98.315 E22.13524
G1 F1097.6 X102.875 Y98.472 E22.17292
G1 F1165 X102.905 Y98.832 E22.2546
G1 F1200 X102.946 Y99.168 E22.32891
G1 X102.964 Y99.677 E22.44071
G1 X102.949 Y100.008 E22.51345
G1 X102.901 Y100.414 E22.60319
G1 X102.766 Y101.009 E22.73712
G1 X102.664 Y101.312 E22.8073
G1 X102.539 Y101.624 E22.88109
G1 X102.347 Y102.017 E22.9771
G1 X102.048 Y102.5 E23.1018
G1 X101.833 Y102.777 E23.17877
G1 X101.48 Y103.169 E23.29457
G1 X101.218 Y103.402 E23.37154
G1 X101.211 Y103.76 E23.45014
G1 X101.116 Y104.575 E23.63026
G1 X100.929 Y105.396 E23.8151
G1 X100.615 Y106.266 E24.01813
G1 X100.213 Y107.06 E24.2135
G1 X99.763 Y107.735 E24.39158
G1 X99.54 Y108.013 E24.46981
G1 X99.589 Y108.356 E24.54587
G1 X99.608 Y108.846 E24.65352
G1 X99.603 Y109.142 E24.7185
G1 X99.534 Y109.683 E24.83822
G1 X99.432 Y110.147 E24.94251
G1 X99.336 Y110.46 E25.01438
G1 X99.215 Y110.794 E25.09236
G1 X98.978 Y111.263 E25.20771
G1 X98.745 Y111.64 E25.305
G1 X98.55 Y111.908 E25.37776
G1 X98.231 Y112.277 E25.48483
G1 X97.985 Y112.519 E25.56058
G1 X97.755 Y112.72 E25.62763
G1 X97.608 Y112.83 E25.66794
G1 F1094.2 X97.211 Y113.238 E25.80498
G1 F961.3 X96.994 Y113.428 E25.88402
G1 F938.1 X96.614 Y113.578 E25.99873
G1 F971.7 X96.182 Y113.709 E26.12112
G1 F993.8 X95.861 Y113.793 E26.20907
G1 F1007 X95.532 Y113.859 E26.29685
G1 F1009.8 X95.054 Y113.926 E26.42276
G1 F985.6 X94.457 Y113.959 E26.58256
G1 F933.2 X93.717 Y113.932 E26.79157
G1 F985.6 X93.225 Y113.67 E26.94054
G1 F1126.8 X93.067 Y113.574 E26.98377
G1 F1185.2 X92.453 Y113.303 E27.13293
G1 F1200 X92.024 Y113.063 E27.24084
G1 X91.739 Y112.871 E27.31628
G1 X91.399 Y112.604 E27.41118
G1 X90.974 Y112.194 E27.54081
G1 X90.772 Y111.952 E27.61001
G1 X90.569 Y111.681 E27.68433
G1 X90.327 Y111.303 E27.78286
G1 X90.075 Y110.802 E27.90597
G1 X89.958 Y110.494 E27.97829
G1 X89.798 Y109.968 E28.09898
G1 X89.739 Y109.645 E28.17106
G1 X89.455 Y109.466 E28.24475
G1 X88.797 Y108.955 E28.42763
G1 X88.201 Y108.383 E28.60897
G1 X87.631 Y107.689 E28.80611
G1 X87.185 Y106.985 E28.98906
G1 X86.827 Y106.268 E29.16498
G1 X86.708 Y105.961 E29.23726
G1 X86.348 Y105.821 E29.32205
G1 X85.871 Y105.558 E29.44162
G1 X85.555 Y105.355 E29.52407
G1 X85.135 Y105.018 E29.64227
G1 X84.778 Y104.665 E29.75248
G1 X84.549 Y104.397 E29.82986
G1 X84.344 Y104.134 E29.90306
G1 X84.066 Y103.671 E30.02161
G1 X83.846 Y103.213 E30.13315
G1 X83.721 Y102.881 E30.21102
G1 X83.6 Y102.475 E30.30402
G1 X83.486 Y101.893 E30.43421
G1 X83.464 Y101.498 E30.52105
G1 X83.462 Y101.147 E30.5981
G1 X83.089 Y101.117 E30.68025
G1 X82.97 Y101.818 E30.83633
G1 X82.896 Y102.528 E30.99303
G1 X82.87 Y103.282 E31.15865
G1 X82.895 Y104.032 E31.32338
G1 X82.97 Y104.754 E31.48272
G1 X83.097 Y105.488 E31.64624
G1 X83.274 Y106.219 E31.81134
G1 X83.488 Y106.892 E31.96637
G1 X83.772 Y107.612 E32.13627
G1 X84.086 Y108.271 E32.29651
G1 X84.448 Y108.917 E32.45907
G1 X84.859 Y109.545 E32.62382
G1 X85.307 Y110.136 E32.78662
G1 X85.773 Y110.67 E32.9422
G1 X86.329 Y111.224 E33.1145
G1 X86.864 Y111.693 E33.27068
G1 X87.454 Y112.14 E33.43316
G1 X88.084 Y112.553 E33.59853
G1 X88.737 Y112.917 E33.76264
G1 X89.377 Y113.224 E33.91846
G1 X90.107 Y113.511 E34.09064
G1 X90.78 Y113.725 E34.24567
G1 X91.51 Y113.902 E34.41056
G1 X92.243 Y114.028 E34.57382
G1 X92.631 Y114.068 E34.65945
G1 F1185.2 X92.977 Y114.088 E34.73648
G1 F1056.5 X93.513 Y113.974 E34.87311
G1 F932 X93.717 Y113.932 E34.93198
G0 F6000 X95.364 Y112.563
G1 F1200 X94.818 Y112.615 E35.05237
G1 X94.547 Y112.617 E35.11187
G1 X94.05 Y112.577 E35.22132
G1 F1201 X93.391 Y112.405 E35.3707
G1 X92.952 Y112.212 E35.47588
G1 F1200 X92.695 Y112.068 E35.54055
G1 X92.41 Y111.876 E35.61599
G1 X92.205 Y111.716 E35.67307
G1 X91.805 Y111.331 E35.79494
G1 X91.53 Y110.962 E35.89597
G1 X91.385 Y110.735 E35.95509
G1 X91.142 Y110.255 E36.07319
G1 X90.955 Y109.672 E36.2076
G1 X90.859 Y108.992 E36.35835
G1 X90.793 Y108.884 E36.38613
G1 X90.141 Y108.481 E36.55439
G1 X89.587 Y108.052 E36.7082
G1 X89.087 Y107.567 E36.86111
G1 X88.645 Y107.035 E37.01294
G1 X88.232 Y106.398 E37.17959
G1 X87.925 Y105.784 E37.33029
G1 X87.659 Y105.078 E37.4959
G1 X87.567 Y104.987 E37.52431
G1 X86.902 Y104.758 E37.6787
G1 X86.325 Y104.437 E37.82364
G1 X85.905 Y104.097 E37.94226
G1 X85.69 Y103.885 E38.00854
G1 X85.365 Y103.494 E38.12015
G1 X85.108 Y103.077 E38.22768
G1 X84.969 Y102.789 E38.29788
G1 X84.844 Y102.457 E38.37575
G1 X84.771 Y102.213 E38.43166
G1 X84.664 Y101.62 E38.56394
G1 X84.665 Y100.96 E38.70882
G1 X84.744 Y100.485 E38.81452
G1 X84.817 Y100.179 E38.88358
G1 X85.088 Y99.583 E39.0273
G1 X85.368 Y99.161 E39.13847
G1 X85.529 Y98.962 E39.19466
G1 X85.759 Y98.717 E39.26843
G1 F1201 X85.986 Y98.514 E39.33522
G1 X86.386 Y98.212 E39.44515
G1 X86.964 Y97.919 E39.58729
G1 F1200 X87.427 Y97.768 E39.69419
G1 X87.721 Y97.702 E39.76034
G1 X88.16 Y97.641 E39.85763
G1 X88.692 Y97.651 E39.97443
G1 X88.948 Y97.678 E40.03094
G1 X89.465 Y97.782 E40.14671
G1 X90.098 Y98.023 E40.29539
G1 X90.205 Y98.027 E40.31889
G1 X90.885 Y97.643 E40.49032
G1 X91.544 Y97.356 E40.64811
G1 X92.223 Y97.152 E40.80374
G1 X92.883 Y97.027 E40.9512
G1 X93.588 Y96.975 E41.10638
G1 X94.315 Y97 E41.26606
G1 X95.082 Y97.117 E41.43638
G1 X95.177 Y97.085 E41.45838
G1 X95.34 Y96.881 E41.5157
G1 X95.529 Y96.655 E41.58038
G1 X95.849 Y96.397 E41.67061
G1 X96.253 Y96.169 E41.77244
G1 X96.506 Y96.053 E41.83354
G1 X97.067 Y95.866 E41.96335
G1 X97.719 Y95.771 E42.10799
G1 X98.439 Y95.798 E42.26615
G1 X98.936 Y95.909 E42.37794
G1 F1201 X99.24 Y96.007 E42.44799
G1 X99.71 Y96.205 E42.55986
G1 X100.316 Y96.598 E42.71828
G1 F1200 X100.799 Y97.069 E42.86637
G1 X101.119 Y97.489 E42.98228
G1 X101.271 Y97.729 E43.04464
G1 F1201 X101.507 Y98.2 E43.16019
G1 X101.698 Y98.844 E43.30752
G1 X101.755 Y99.314 E43.41136
G1 F1200 X101.765 Y99.619 E43.47835
G1 X101.743 Y100.094 E43.58273
G1 X101.596 Y100.752 E43.73074
G1 X101.425 Y101.178 E43.8315
G1 X101.31 Y101.414 E43.88913
G1 X101.018 Y101.887 E44.01116
G1 X100.598 Y102.357 E44.14952
G1 X100.062 Y102.798 E44.30189
G1 X100.019 Y102.885 E44.32319
G1 X100.014 Y103.677 E44.49705
G1 X99.932 Y104.372 E44.65067
G1 X99.772 Y105.07 E44.80787
G1 X99.511 Y105.789 E44.97578
G1 X99.192 Y106.42 E45.13099
G1 X98.794 Y107.028 E45.29051
G1 X98.299 Y107.633 E45.46211
G1 X98.267 Y107.727 E45.4839
G1 X98.391 Y108.4 E45.63412
G1 X98.413 Y108.997 E45.76527
G1 X98.346 Y109.517 E45.88036
G1 X98.285 Y109.795 E45.94284
G1 X98.134 Y110.26 E46.05016
G1 X97.914 Y110.708 E46.15972
G1 X97.774 Y110.934 E46.21808
G1 X97.579 Y111.202 E46.29083
G1 X97.379 Y111.432 E46.35774
G1 X97.058 Y111.746 E46.45631
G1 X96.537 Y112.108 E46.59558
G1 X96.061 Y112.344 E46.71221
G1 X95.818 Y112.432 E46.76894
G1 X95.364 Y112.563 E46.87266
G0 F6000 X96.447 Y111.981
G0 X96.938 Y111.636
G0 X97.368 Y111.216
G0 X97.722 Y110.731
G0 X102.85 Y97.811
G1 F913.1 X102.751 Y97.61 E46.9373
G1 F946.7 X102.458 Y97.102 E47.10047
G1 F974.9 X102.103 Y96.59 E47.26881
G1 F997.2 X101.787 Y96.207 E47.39997
G1 F1007 X101.574 Y95.976 E47.48216
G1 F997.9 X101.329 Y95.738 E47.57233
G1 F980.9 X101.015 Y95.452 E47.68638
G1 F936.3 X100.445 Y95.022 E47.88727
G1 F961.9 X100.204 Y94.725 E47.99201
G1 F1091.7 X99.97 Y94.437 E48.08154
G1 F1185.2 X99.338 Y94.004 E48.25182
G1 F1200 X98.714 Y93.654 E48.40887
G1 X98.048 Y93.337 E48.57079
G1 X97.328 Y93.053 E48.74069
G1 X96.655 Y92.839 E48.89571
G1 X95.923 Y92.662 E49.06103
G1 X95.187 Y92.536 E49.22495
G1 X94.467 Y92.461 E49.38385
G1 X93.717 Y92.435 E49.54859
G1 X92.967 Y92.46 E49.71332
G1 X92.245 Y92.535 E49.87266
G1 X91.511 Y92.662 E50.03618
G1 X90.78 Y92.839 E50.20129
G1 X90.107 Y93.054 E50.35638
G1 X89.387 Y93.336 E50.52612
G1 X88.72 Y93.654 E50.68833
G1 X88.084 Y94.01 E50.84832
G1 X87.462 Y94.419 E51.01174
G1 X86.866 Y94.871 E51.17594
G1 X86.322 Y95.347 E51.33461
G1 X85.76 Y95.91 E51.50924
G1 X85.296 Y96.443 E51.66437
G1 X85.01 Y96.821 E51.76842
G1 F1160.4 X84.887 Y97.052 E51.82783
G1 F1037.5 X84.794 Y97.387 E51.91611
G1 F900 X84.7 Y97.723 E52.01823
G1 F890.5 X84.958 Y97.61 E52.10154
G1 F1000.7 X85.217 Y97.497 E52.17593
G1 F1129.4 X85.537 Y97.348 E52.25826
G1 F1200 X85.886 Y97.121 E52.34965
G1 X86.441 Y96.842 E52.48601
G1 X86.706 Y96.741 E52.54826
G1 X87.066 Y96.624 E52.63135
G1 X87.556 Y96.514 E52.7416
G1 X87.881 Y96.468 E52.81365
G1 X88.23 Y96.436 E52.89058
G1 X88.728 Y96.452 E52.99996
G1 X89.156 Y96.496 E53.09441
G1 X89.761 Y96.624 E53.23015
G1 X90.066 Y96.726 E53.30075
G1 X90.354 Y96.567 E53.37297
G1 X91.125 Y96.23 E53.55768
G1 X91.94 Y95.986 E53.74443
G1 X92.784 Y95.825 E53.93304
G1 X93.646 Y95.77 E54.12265
G1 X94.422 Y95.805 E54.29317
G1 X94.655 Y95.835 E54.34474
G1 X94.821 Y95.673 E54.39565
G1 X95.128 Y95.428 E54.48188
G1 X95.67 Y95.119 E54.61883
G1 X96.091 Y94.927 E54.7204
G1 X96.657 Y94.739 E54.85133
G1 X97.037 Y94.658 E54.93662
G1 X97.391 Y94.606 E55.01516
G1 X97.797 Y94.574 E55.10456
G1 X98.443 Y94.598 E55.24646
G1 X98.851 Y94.66 E55.33706
G1 X99.198 Y94.738 E55.41513
G1 F1185.2 X99.711 Y94.886 E55.5338
G1 F1091.7 X100.078 Y94.945 E55.62349
G1 F961.9 X100.445 Y95.022 E55.72618
G1 F2100 E49.72618
G0 F6000 X101.537 Y98.858
G0 X101.611 Y99.469
G0 X101.582 Y100.082
G0 X101.451 Y100.68
G0 X97.992 Y110.195
G0 X97.722 Y110.731
G0 X97.368 Y111.216
G0 X96.938 Y111.636
G0 X96.447 Y111.981
G0 X95.199 Y112.482
G0 X95.107 Y111.384
;TYPE:WALL-OUTER
G1 F2100 E55.72618
G1 F1200 X94.669 Y111.423 E55.82271
G1 X94.215 Y111.382 E55.92277
G1 F1201 X93.817 Y111.277 E56.01305
G1 X93.407 Y111.101 E56.11092
G1 F1200 X93.012 Y110.827 E56.21645
G1 X92.734 Y110.562 E56.30075
G1 X92.461 Y110.204 E56.39958
G1 X92.269 Y109.829 E56.49207
G1 X92.131 Y109.403 E56.59036
G1 X92.033 Y108.722 E56.7414
G1 X91.848 Y108.282 E56.84617
G1 X91.53 Y107.931 E56.95014
G1 X90.827 Y107.497 E57.1315
G1 X90.405 Y107.172 E57.24843
G1 X89.948 Y106.731 E57.38784
G1 X89.576 Y106.275 E57.51702
G1 X89.298 Y105.844 E57.62961
G1 X89.023 Y105.3 E57.76341
G1 X88.737 Y104.54 E57.94167
G1 X88.453 Y104.153 E58.04704
G1 X88.056 Y103.886 E58.15207
G1 X87.366 Y103.643 E58.31265
G1 X86.975 Y103.42 E58.41146
G1 X86.636 Y103.146 E58.50715
G1 X86.342 Y102.797 E58.60732
G1 X86.108 Y102.41 E58.70659
G1 X85.943 Y101.952 E58.81346
G1 X85.867 Y101.548 E58.9037
G1 X85.863 Y101.089 E59.00446
G1 X85.94 Y100.606 E59.11183
G1 X86.127 Y100.193 E59.21135
G1 X86.35 Y99.85 E59.30116
G1 X86.664 Y99.506 E59.4034
G1 X87.054 Y99.217 E59.50995
G1 X87.397 Y99.043 E59.59438
G1 X87.832 Y98.898 E59.69504
G1 X88.265 Y98.841 E59.79091
G1 X88.708 Y98.852 E59.88818
G1 X89.124 Y98.938 E59.98143
G1 X89.765 Y99.18 E60.13184
G1 X90.005 Y99.228 E60.18556
G1 X90.474 Y99.198 E60.28873
G1 X90.705 Y99.12 E60.34225
G1 X91.417 Y98.719 E60.52163
G1 X91.936 Y98.493 E60.64589
G1 X92.507 Y98.318 E60.77699
G1 X93.038 Y98.217 E60.89564
G1 X93.66 Y98.174 E61.03251
G1 X94.208 Y98.196 E61.1529
G1 X94.712 Y98.274 E61.26486
G1 X95.165 Y98.329 E61.36503
G1 X95.534 Y98.24 E61.44835
G1 X95.764 Y98.137 E61.50367
G1 X96.144 Y97.825 E61.6116
G1 X96.394 Y97.468 E61.70727
G1 X96.883 Y97.191 E61.83064
G1 X97.31 Y97.049 E61.92943
G1 X97.821 Y96.974 E62.0428
G1 X98.278 Y96.991 E62.14319
G1 X98.725 Y97.091 E62.24374
G1 X99.17 Y97.283 E62.35013
G1 X99.554 Y97.533 E62.45071
