;FLAVOR:Marlin
;TIME:5824
;Filament used: 13.1446m
;Layer height: 0.48
;MINX:90.353
;MINY:93.277
;MINZ:0.32
;MAXX:207.415
;MAXY:225.969
;MAXZ:8
;Generated with Cura_SteamEngine 5.3.1
M140 S60
M105
M190 S60
M104 S230
M105
M109 S230
M82 ;absolute extrusion mode
G28 ; home all axes
G92 X-5.0 Y-10.0 ; set home offsets
M92 E136.8 ; Set E Steps to 136.8
G1 X0 Y0 Z0.2 F3000 ; get ready to prime
G92 E0 ; reset extrusion distance
G92 E0
G92 E0
G1 F1500 E-6.5
;LAYER_COUNT:17
;LAYER:0
M107
G0 F6000 X102.465 Y115.783 Z0.32
;TYPE:SKIRT
G1 F1500 E0
G1 F1200 X103.164 Y115.183 E0.15442
G1 X103.912 Y114.647 E0.30868
G1 X104.704 Y114.177 E0.46306
G1 X105.534 Y113.778 E0.61743
G1 X106.461 Y113.431 E0.78336
G1 X107.138 Y113.213 E0.90258
G1 X108.656 Y112.747 E1.16877
G1 X111.001 Y111.953 E1.58378
G1 X113.419 Y111.059 E2.01593
G1 X115.733 Y110.126 E2.43418
G1 X118.073 Y109.107 E2.86201
G1 X120.335 Y108.044 E3.28098
G1 X122.622 Y106.888 E3.71054
G1 X124.825 Y105.697 E4.13034
G1 X127.019 Y104.428 E4.55521
G1 X129.177 Y103.098 E4.98015
G1 X131.282 Y101.717 E5.40217
G1 X133.352 Y100.273 E5.82525
G1 X135.445 Y98.723 E6.26184
G1 X136.567 Y97.865 E6.49861
G1 X137.322 Y97.339 E6.65286
G1 X138.12 Y96.879 E6.80726
G1 X138.955 Y96.491 E6.96161
G1 X139.82 Y96.177 E7.11587
G1 X140.709 Y95.938 E7.27018
G1 X141.616 Y95.778 E7.42457
G1 X142.679 Y95.692 E7.60335
G1 X143.33 Y95.677 E7.7125
G1 X156.293 Y95.677 E9.88551
G1 X157.147 Y95.688 E10.02867
G1 X158.066 Y95.741 E10.18298
G1 X158.977 Y95.874 E10.33731
G1 X159.873 Y96.085 E10.49162
G1 X160.747 Y96.373 E10.64588
G1 X161.594 Y96.736 E10.80035
G1 X162.777 Y97.402 E11.02793
G1 X163.244 Y97.708 E11.12152
G1 X164.808 Y98.765 E11.43795
G1 X166.952 Y100.127 E11.86374
G1 X169.133 Y101.426 E12.28928
G1 X171.291 Y102.631 E12.7036
G1 X173.581 Y103.826 E13.1366
G1 X175.841 Y104.925 E13.55787
G1 X178.138 Y105.963 E13.9804
G1 X180.504 Y106.953 E14.41034
G1 X182.853 Y107.858 E14.83232
G1 X185.222 Y108.694 E15.25344
G1 X187.612 Y109.462 E15.67425
G1 X190.197 Y110.214 E16.12554
G1 X190.865 Y110.397 E16.24165
G1 X191.742 Y110.679 E16.39607
G1 X192.59 Y111.036 E16.55031
G1 X193.404 Y111.466 E16.70463
G1 X194.178 Y111.964 E16.85891
G1 X194.906 Y112.528 E17.01328
G1 X195.582 Y113.153 E17.16761
G1 X196.202 Y113.834 E17.32199
G1 X196.76 Y114.566 E17.47629
G1 X197.252 Y115.344 E17.63059
G1 X197.675 Y116.162 E17.78496
G1 X198.025 Y117.013 E17.93921
G1 X198.231 Y117.644 E18.05048
G1 X198.477 Y118.486 E18.19753
G1 X199.231 Y120.943 E18.62835
G1 X200.053 Y123.371 E19.05806
G1 X200.917 Y125.706 E19.47541
G1 X201.87 Y128.076 E19.90361
G1 X202.883 Y130.399 E20.32843
G1 X203.999 Y132.774 E20.76832
G1 X204.354 Y133.623 E20.92258
G1 X204.634 Y134.5 E21.0769
G1 X204.836 Y135.398 E21.2312
G1 X204.96 Y136.31 E21.38548
G1 X205.001 Y136.973 E21.49684
G1 X205.015 Y137.625 E21.60616
G1 X205.014 Y162.711 E25.81135
G1 X205.004 Y163.413 E25.92904
G1 X204.951 Y164.332 E26.08335
G1 X204.818 Y165.243 E26.23768
G1 X204.607 Y166.139 E26.39198
G1 X204.319 Y167.014 E26.5464
G1 X203.998 Y167.771 E26.68424
G1 X203.27 Y169.321 E26.9713
G1 X202.21 Y171.688 E27.40605
G1 X201.236 Y174.035 E27.83201
G1 X200.324 Y176.427 E28.26114
G1 X199.508 Y178.762 E28.67577
G1 X198.727 Y181.216 E29.10747
G1 X198.398 Y182.354 E29.30605
G1 X198.191 Y183.035 E29.42536
G1 X197.884 Y183.903 E29.5797
G1 X197.647 Y184.446 E29.67901
G1 X197.366 Y185.044 E29.78977
G1 X196.317 Y187.366 E30.21689
G1 X195.333 Y189.723 E30.64504
G1 X194.423 Y192.085 E31.06936
G1 X193.585 Y194.46 E31.49154
G1 X192.812 Y196.864 E31.91484
G1 X192.111 Y199.276 E32.3359
G1 X191.468 Y201.746 E32.76375
G1 X190.894 Y204.246 E33.19373
G1 X190.404 Y206.688 E33.61124
G1 X190.249 Y207.587 E33.76417
G1 X190.067 Y208.56 E33.9301
G1 X189.859 Y209.457 E34.08446
G1 X189.573 Y210.332 E34.23877
G1 X189.213 Y211.179 E34.39305
G1 X188.781 Y211.992 E34.54738
G1 X188.279 Y212.764 E34.70174
G1 X187.713 Y213.49 E34.85606
G1 X187.086 Y214.164 E35.01037
G1 X186.402 Y214.781 E35.16478
G1 X185.668 Y215.336 E35.31904
G1 X184.888 Y215.825 E35.47336
G1 X184.069 Y216.245 E35.62765
G1 X183.216 Y216.592 E35.78202
G1 X182.631 Y216.783 E35.88518
G1 X181.741 Y217.044 E36.04065
G1 X179.315 Y217.789 E36.46607
G1 X176.931 Y218.595 E36.88792
G1 X174.541 Y219.48 E37.31515
G1 X172.19 Y220.426 E37.73996
G1 X169.888 Y221.43 E38.16095
G1 X167.494 Y222.554 E38.60429
G1 X166.644 Y222.908 E38.75864
G1 X165.767 Y223.188 E38.91296
G1 X164.869 Y223.391 E39.06729
G1 X163.957 Y223.515 E39.22158
G1 X163.296 Y223.555 E39.33258
G1 X162.644 Y223.569 E39.4419
G1 X137.559 Y223.568 E43.64693
G1 X136.855 Y223.558 E43.76495
G1 X135.936 Y223.505 E43.91926
G1 X135.025 Y223.372 E44.07359
G1 X134.129 Y223.161 E44.2279
G1 X133.255 Y222.873 E44.38216
G1 X132.492 Y222.55 E44.52105
G1 X130.931 Y221.815 E44.81028
G1 X128.582 Y220.764 E45.24166
G1 X126.235 Y219.79 E45.66762
G1 X123.843 Y218.878 E46.09675
G1 X121.508 Y218.062 E46.51138
G1 X119.054 Y217.281 E46.94308
G1 X117.916 Y216.952 E47.14166
G1 X117.239 Y216.746 E47.26028
G1 X116.372 Y216.439 E47.41446
G1 X115.534 Y216.057 E47.56884
G1 X114.732 Y215.604 E47.72325
G1 X113.973 Y215.084 E47.87747
G1 X113.262 Y214.499 E48.03182
G1 X112.604 Y213.855 E48.18616
G1 X112.005 Y213.156 E48.34047
G1 X111.468 Y212.408 E48.49482
G1 X110.999 Y211.616 E48.64912
G1 X110.6 Y210.786 E48.80349
G1 X110.253 Y209.86 E48.96926
G1 X110.045 Y209.214 E49.08303
G1 X109.589 Y207.733 E49.34279
G1 X108.785 Y205.359 E49.76295
G1 X107.891 Y202.945 E50.19447
G1 X106.962 Y200.641 E50.6109
G1 X105.943 Y198.307 E51.03782
G1 X104.861 Y196.005 E51.4642
G1 X103.727 Y193.763 E51.88537
G1 X102.514 Y191.524 E52.31224
G1 X101.228 Y189.3 E52.74289
G1 X100.613 Y188.27 E52.94399
G1 X100.176 Y187.46 E53.09827
G1 X99.811 Y186.615 E53.25257
G1 X99.541 Y185.814 E53.39426
G1 X99.285 Y184.939 E53.54709
G1 X98.534 Y182.493 E53.97601
G1 X97.719 Y180.085 E54.40215
G1 X96.847 Y177.729 E54.82328
G1 X95.898 Y175.37 E55.24952
G1 X94.891 Y173.06 E55.67194
G1 X93.77 Y170.677 E56.1134
G1 X93.415 Y169.828 E56.26765
G1 X93.135 Y168.951 E56.42198
G1 X92.932 Y168.053 E56.57631
G1 X92.808 Y167.141 E56.7306
G1 X92.767 Y166.473 E56.84278
G1 X92.753 Y165.821 E56.9521
G1 X92.754 Y140.735 E61.1573
G1 X92.764 Y140.032 E61.27515
G1 X92.817 Y139.113 E61.42946
G1 X92.95 Y138.202 E61.58379
G1 X93.161 Y137.306 E61.7381
G1 X93.449 Y136.432 E61.89236
G1 X93.774 Y135.666 E62.03184
G1 X94.331 Y134.484 E62.25088
G1 X95.422 Y132.075 E62.69419
G1 X96.392 Y129.76 E63.11494
G1 X97.305 Y127.401 E63.53897
G1 X98.154 Y125.003 E63.9654
G1 X98.922 Y122.623 E64.38462
G1 X99.374 Y121.076 E64.65478
G1 X99.575 Y120.419 E64.76996
G1 X99.882 Y119.551 E64.92429
G1 X100.264 Y118.713 E65.07867
G1 X100.716 Y117.912 E65.23285
G1 X101.237 Y117.152 E65.38731
G1 X101.821 Y116.441 E65.54155
G1 X102.465 Y115.783 E65.69589
G0 F6000 X101.683 Y114.872
G1 F1200 X102.382 Y114.272 E65.85031
G1 X103.3 Y113.615 E66.03954
G1 X104.184 Y113.095 E66.21147
G1 X105.014 Y112.696 E66.36584
G1 X106.04 Y112.307 E66.54978
G1 X106.786 Y112.066 E66.68119
G1 X108.271 Y111.61 E66.9416
G1 X110.601 Y110.821 E67.35396
G1 X112.994 Y109.936 E67.78166
G1 X115.284 Y109.013 E68.19554
G1 X117.578 Y108.014 E68.61497
G1 X119.806 Y106.967 E69.02764
G1 X122.051 Y105.832 E69.44933
G1 X124.245 Y104.646 E69.86741
G1 X126.395 Y103.402 E70.2838
G1 X128.547 Y102.076 E70.70752
G1 X130.594 Y100.733 E71.11792
G1 X132.665 Y99.289 E71.54114
G1 X134.716 Y97.77 E71.96898
G1 X135.881 Y96.88 E72.21473
G1 X136.636 Y96.354 E72.36898
G1 X137.521 Y95.839 E72.54063
G1 X138.449 Y95.403 E72.7125
G1 X139.508 Y95.018 E72.90139
G1 X140.397 Y94.779 E73.05571
G1 X141.408 Y94.596 E73.22793
G1 X142.651 Y94.492 E73.43703
G1 X143.302 Y94.477 E73.54618
G1 X156.308 Y94.477 E75.72639
G1 X157.216 Y94.49 E75.87862
G1 X158.135 Y94.543 E76.03293
G1 X159.252 Y94.706 E76.22215
G1 X160.249 Y94.945 E76.39402
G1 X161.123 Y95.233 E76.54828
G1 X162.127 Y95.658 E76.73104
G1 X163.366 Y96.356 E76.96942
G1 X163.916 Y96.714 E77.07943
G1 X165.462 Y97.759 E77.39224
G1 X167.577 Y99.102 E77.81222
G1 X169.718 Y100.378 E78.23002
G1 X171.867 Y101.578 E78.64262
G1 X174.124 Y102.756 E79.06939
G1 X176.335 Y103.831 E79.48151
G1 X178.631 Y104.869 E79.9039
G1 X180.947 Y105.838 E80.32474
G1 X183.262 Y106.73 E80.74062
G1 X185.621 Y107.562 E81.15993
G1 X187.956 Y108.313 E81.5711
G1 X190.528 Y109.061 E82.02011
G1 X191.182 Y109.24 E82.13377
G1 X192.208 Y109.573 E82.31459
G1 X193.056 Y109.93 E82.46883
G1 X193.965 Y110.405 E82.64075
G1 X194.913 Y111.015 E82.82973
G1 X195.641 Y111.579 E82.9841
G1 X196.397 Y112.272 E83.15602
G1 X197.089 Y113.026 E83.32757
G1 X197.774 Y113.925 E83.51703
G1 X198.318 Y114.793 E83.68875
G1 X198.785 Y115.706 E83.86066
G1 X199.166 Y116.641 E84.02991
G1 X199.383 Y117.307 E84.14733
G1 X199.629 Y118.149 E84.29437
G1 X200.368 Y120.558 E84.71677
G1 X201.19 Y122.986 E85.14647
G1 X202.03 Y125.258 E85.55252
G1 X202.97 Y127.596 E85.97494
G1 X203.982 Y129.916 E86.39923
G1 X205.106 Y132.311 E86.84272
G1 X205.497 Y133.258 E87.01447
G1 X205.805 Y134.237 E87.18651
G1 X206.007 Y135.135 E87.3408
G1 X206.158 Y136.236 E87.52709
G1 X206.201 Y136.947 E87.64649
G1 X206.215 Y137.625 E87.76017
G1 X206.214 Y162.728 E91.96821
G1 X206.204 Y163.43 E92.0859
G1 X206.149 Y164.401 E92.24893
G1 X205.986 Y165.518 E92.43816
G1 X205.747 Y166.514 E92.60986
G1 X205.459 Y167.389 E92.76428
G1 X205.103 Y168.239 E92.91876
G1 X204.356 Y169.831 E93.21355
G1 X203.318 Y172.148 E93.63914
G1 X202.357 Y174.463 E94.05932
G1 X201.457 Y176.823 E94.48272
G1 X200.641 Y179.158 E94.89735
G1 X199.88 Y181.549 E95.31796
G1 X199.546 Y182.703 E95.51935
G1 X199.339 Y183.384 E95.63866
G1 X198.984 Y184.383 E95.81639
G1 X198.733 Y184.956 E95.92125
G1 X198.46 Y185.538 E96.02901
G1 X197.411 Y187.86 E96.45613
G1 X196.453 Y190.154 E96.87286
G1 X195.555 Y192.484 E97.29144
G1 X194.717 Y194.859 E97.71362
G1 X193.964 Y197.199 E98.12569
G1 X193.263 Y199.611 E98.54675
G1 X192.638 Y202.015 E98.96313
G1 X192.064 Y204.515 E99.39311
G1 X191.581 Y206.924 E99.80497
G1 X191.429 Y207.808 E99.95533
G1 X191.247 Y208.781 E100.12126
G1 X191 Y209.83 E100.30192
G1 X190.714 Y210.705 E100.45623
G1 X190.273 Y211.742 E100.64513
G1 X189.841 Y212.555 E100.79946
G1 X189.285 Y213.418 E100.97155
G1 X188.592 Y214.307 E101.1605
G1 X187.89 Y215.055 E101.33246
G1 X187.206 Y215.672 E101.48688
G1 X186.392 Y216.293 E101.6585
G1 X185.436 Y216.893 E101.84771
G1 X184.617 Y217.313 E102.002
G1 X183.668 Y217.704 E102.17405
G1 X182.969 Y217.935 E102.29746
G1 X182.079 Y218.195 E102.45289
G1 X179.693 Y218.928 E102.8713
G1 X177.322 Y219.73 E103.29088
G1 X174.973 Y220.6 E103.71078
G1 X172.67 Y221.526 E104.12688
G1 X170.368 Y222.53 E104.54787
G1 X167.955 Y223.662 E104.99466
G1 X167.105 Y224.016 E105.14901
G1 X166.132 Y224.331 E105.32045
G1 X165.031 Y224.58 E105.50967
G1 X164.029 Y224.713 E105.67911
G1 X163.322 Y224.755 E105.79784
G1 X162.644 Y224.769 E105.91151
G1 X137.542 Y224.768 E110.11939
G1 X136.838 Y224.758 E110.23741
G1 X135.867 Y224.703 E110.40044
G1 X134.75 Y224.54 E110.58967
G1 X133.753 Y224.301 E110.76153
G1 X132.879 Y224.013 E110.91579
G1 X131.981 Y223.636 E111.07905
G1 X130.42 Y222.901 E111.36828
G1 X128.109 Y221.867 E111.79269
G1 X125.799 Y220.908 E112.21196
G1 X123.441 Y220.009 E112.63498
G1 X121.112 Y219.195 E113.04856
G1 X118.721 Y218.434 E113.46917
G1 X117.567 Y218.1 E113.67056
G1 X116.838 Y217.877 E113.79835
G1 X115.874 Y217.531 E113.97004
G1 X115.036 Y217.149 E114.12442
G1 X114.142 Y216.649 E114.29613
G1 X113.211 Y216.011 E114.48532
G1 X112.423 Y215.357 E114.65699
G1 X111.693 Y214.636 E114.82898
G1 X111.03 Y213.856 E115.00058
G1 X110.435 Y213.019 E115.17273
G1 X109.917 Y212.136 E115.34434
G1 X109.518 Y211.306 E115.49871
G1 X109.129 Y210.281 E115.68249
G1 X108.898 Y209.567 E115.80829
G1 X108.452 Y208.118 E116.06243
G1 X107.648 Y205.744 E116.48259
G1 X106.778 Y203.394 E116.90266
G1 X105.855 Y201.106 E117.31623
G1 X104.843 Y198.787 E117.74037
G1 X103.79 Y196.547 E118.15528
G1 X102.656 Y194.305 E118.57645
G1 X101.475 Y192.125 E118.99207
G1 X100.189 Y189.901 E119.42272
G1 X99.557 Y188.84 E119.62974
G1 X99.074 Y187.936 E119.80155
G1 X98.709 Y187.091 E119.95585
G1 X98.389 Y186.151 E120.1223
G1 X98.133 Y185.276 E120.27512
G1 X97.397 Y182.878 E120.69561
G1 X96.582 Y180.47 E121.12176
G1 X95.722 Y178.146 E121.53715
G1 X94.798 Y175.85 E121.95203
G1 X93.805 Y173.571 E122.36875
G1 X92.684 Y171.188 E122.81021
G1 X92.308 Y170.291 E122.97325
G1 X91.992 Y169.316 E123.14506
G1 X91.743 Y168.215 E123.33428
G1 X91.61 Y167.215 E123.50339
G1 X91.567 Y166.499 E123.62363
G1 X91.553 Y165.821 E123.73731
G1 X91.554 Y140.718 E127.94535
G1 X91.564 Y140.015 E128.06321
G1 X91.619 Y139.044 E128.22624
G1 X91.782 Y137.927 E128.41547
G1 X92.021 Y136.93 E128.58733
G1 X92.344 Y135.963 E128.75823
G1 X92.688 Y135.154 E128.9056
G1 X93.246 Y133.972 E129.12471
G1 X94.315 Y131.61 E129.55931
G1 X95.285 Y129.296 E129.97991
G1 X96.186 Y126.968 E130.39837
G1 X97.012 Y124.634 E130.8134
G1 X97.773 Y122.275 E131.22891
G1 X98.227 Y120.725 E131.49965
G1 X98.444 Y120.019 E131.62346
G1 X98.79 Y119.053 E131.79547
G1 X99.219 Y118.123 E131.96715
G1 X99.726 Y117.233 E132.13885
G1 X100.247 Y116.473 E132.29331
G1 X100.963 Y115.602 E132.48232
G1 X101.683 Y114.872 E132.6542
G0 F6000 X100.901 Y113.961
G1 F1200 X101.6 Y113.361 E132.80862
G1 X102.602 Y112.639 E133.01565
G1 X103.664 Y112.013 E133.2223
G1 X104.494 Y111.614 E133.37667
G1 X105.671 Y111.165 E133.58784
G1 X106.434 Y110.919 E133.72223
G1 X107.886 Y110.473 E133.97685
G1 X110.216 Y109.684 E134.38922
G1 X112.545 Y108.823 E134.80546
G1 X114.835 Y107.9 E135.21934
G1 X117.083 Y106.921 E135.63036
G1 X119.277 Y105.89 E136.03673
G1 X121.48 Y104.776 E136.45055
G1 X123.665 Y103.595 E136.8669
G1 X125.794 Y102.363 E137.27923
G1 X127.918 Y101.054 E137.69747
G1 X129.923 Y99.738 E138.0995
G1 X131.962 Y98.317 E138.51611
G1 X133.988 Y96.816 E138.93879
G1 X135.195 Y95.895 E139.19329
G1 X135.95 Y95.369 E139.34754
G1 X136.917 Y94.802 E139.53545
G1 X138.039 Y94.275 E139.74325
G1 X139.196 Y93.859 E139.94935
G1 X140.183 Y93.598 E140.12049
G1 X141.308 Y93.4 E140.31197
G1 X142.623 Y93.292 E140.53315
G1 X143.274 Y93.277 E140.64231
G1 X156.325 Y93.277 E142.83006
G1 X157.233 Y93.29 E142.98228
G1 X158.204 Y93.345 E143.14532
G1 X159.532 Y93.539 E143.37029
G1 X160.625 Y93.805 E143.55886
G1 X161.499 Y94.093 E143.71312
G1 X162.66 Y94.58 E143.92417
G1 X164.021 Y95.35 E144.1863
G1 X164.588 Y95.72 E144.29979
G1 X166.12 Y96.755 E144.60971
G1 X168.202 Y98.077 E145.02314
G1 X170.303 Y99.33 E145.4332
G1 X172.443 Y100.525 E145.84408
G1 X174.667 Y101.686 E146.26463
G1 X176.86 Y102.752 E146.67338
G1 X179.094 Y103.762 E147.08436
G1 X181.39 Y104.723 E147.50159
G1 X183.671 Y105.602 E147.91137
G1 X186.02 Y106.43 E148.32888
G1 X188.3 Y107.164 E148.73039
G1 X190.859 Y107.908 E149.17712
G1 X191.552 Y108.099 E149.29762
G1 X192.674 Y108.467 E149.49556
G1 X193.612 Y108.866 E149.66644
G1 X194.521 Y109.341 E149.83836
G1 X195.648 Y110.066 E150.063
G1 X196.452 Y110.694 E150.23402
G1 X197.208 Y111.387 E150.40593
G1 X197.973 Y112.215 E150.5949
G1 X198.791 Y113.288 E150.82108
G1 X199.335 Y114.156 E150.9928
G1 X199.896 Y115.253 E151.19934
G1 X200.307 Y116.269 E151.38306
G1 X200.535 Y116.97 E151.50663
G1 X200.781 Y117.812 E151.65367
G1 X201.505 Y120.173 E152.06764
G1 X202.322 Y122.586 E152.49469
G1 X203.156 Y124.842 E152.89788
G1 X204.07 Y127.116 E153.30871
G1 X205.081 Y129.434 E153.73263
G1 X206.215 Y131.853 E154.18048
G1 X206.642 Y132.898 E154.36971
G1 X206.95 Y133.877 E154.54175
G1 X207.178 Y134.872 E154.71287
G1 X207.356 Y136.164 E154.93149
G1 X207.401 Y136.922 E155.05878
G1 X207.415 Y137.625 E155.17665
G1 X207.414 Y162.745 E159.38754
G1 X207.404 Y163.447 E159.50523
G1 X207.347 Y164.469 E159.67682
G1 X207.153 Y165.798 E159.90196
G1 X206.887 Y166.889 E160.0902
G1 X206.566 Y167.853 E160.26052
G1 X206.21 Y168.703 E160.415
G1 X205.442 Y170.341 E160.71826
G1 X204.413 Y172.639 E161.14034
G1 X203.478 Y174.891 E161.54909
G1 X202.59 Y177.219 E161.96676
G1 X201.774 Y179.554 E162.38139
G1 X201.033 Y181.883 E162.79108
G1 X200.694 Y183.052 E162.99512
G1 X200.47 Y183.786 E163.12376
G1 X200.115 Y184.785 E163.30148
G1 X199.819 Y185.466 E163.42596
