;FLAVOR:Marlin
;TIME:20501
;Filament used: 59.5378m
;Layer height: 0.48
;MINX:23.696
;MINY:38.452
;MINZ:0.32
;MAXX:276.306
;MAXY:261.622
;MAXZ:11.84
;Generated with Cura_SteamEngine 5.3.1
M140 S60
M105
M190 S60
M104 S230
M105
M109 S230
M82 ;absolute extrusion mode
G28 ; home all axes
G92 X-5.0 Y-10.0 ; set home offsets
M92 E136.8 ; Set E Steps to 136.8
G1 X0 Y0 Z0.2 F3000 ; get ready to prime
G92 E0 ; reset extrusion distance
G92 E0
G92 E0
G1 F1500 E-6.5
;LAYER_COUNT:25
;LAYER:0
M107
G0 F6000 X82.686 Y48.259 Z0.32
;TYPE:SKIRT
G1 F1500 E0
G1 F1200 X82.964 Y47.794 E0.09082
G1 X83.494 Y46.992 E0.25196
G1 X83.958 Y46.355 E0.38407
G1 X84.291 Y45.918 E0.47617
G1 X84.889 Y45.218 E0.6305
G1 X85.544 Y44.571 E0.78483
G1 X86.17 Y44.044 E0.922
G1 X86.594 Y43.716 E1.01186
G1 X87.079 Y43.36 E1.11271
G1 X87.844 Y42.848 E1.26702
G1 X88.651 Y42.404 E1.42142
G1 X89.14 Y42.177 E1.5118
G1 X89.766 Y41.91 E1.62588
G1 X90.147 Y41.757 E1.69471
G1 X91.015 Y41.452 E1.84893
G1 X91.907 Y41.223 E2.00331
G1 X92.49 Y41.117 E2.10264
G1 X93.194 Y41.009 E2.22203
G1 X93.807 Y40.931 E2.32562
G1 X94.693 Y40.867 E2.47452
G1 X95.311 Y40.853 E2.57815
G1 X204.286 Y40.852 E20.84574
G1 X205.136 Y40.863 E20.98824
G1 X205.993 Y40.91 E21.13212
G1 X206.774 Y40.997 E21.26385
G1 X207.32 Y41.076 E21.35633
G1 X208.224 Y41.248 E21.51058
G1 X209.111 Y41.497 E21.66502
G1 X209.672 Y41.699 E21.76497
G1 X210.34 Y41.961 E21.88525
G1 X210.896 Y42.195 E21.98638
G1 X211.723 Y42.599 E22.14066
G1 X212.512 Y43.074 E22.29504
G1 X212.943 Y43.375 E22.38317
G1 X213.288 Y43.629 E22.45498
G1 X213.877 Y44.085 E22.57985
G1 X214.576 Y44.683 E22.73405
G1 X215.221 Y45.34 E22.88839
G1 X215.732 Y45.947 E23.0214
G1 X216.045 Y46.349 E23.1068
G1 X216.389 Y46.814 E23.20376
G1 X216.894 Y47.561 E23.35491
G1 X217.236 Y48.125 E23.46548
G1 X271.762 Y142.568 E41.74616
G1 X272.051 Y143.084 E41.8453
G1 X272.489 Y143.959 E42.00933
G1 X272.805 Y144.67 E42.13975
G1 X273.02 Y145.184 E42.23315
G1 X273.329 Y146.051 E42.38744
G1 X273.562 Y146.942 E42.54182
G1 X273.67 Y147.526 E42.64138
G1 X273.774 Y148.244 E42.76299
G1 X273.841 Y148.828 E42.86153
G1 X273.906 Y149.746 E43.0158
G1 X273.891 Y150.667 E43.17021
G1 X273.844 Y151.221 E43.26341
G1 X273.798 Y151.63 E43.33241
G1 X273.704 Y152.325 E43.44997
G1 X273.538 Y153.23 E43.60421
G1 X273.293 Y154.118 E43.75863
G1 X273.081 Y154.713 E43.86451
G1 X272.861 Y155.277 E43.96599
G1 X272.627 Y155.839 E44.06804
G1 X272.244 Y156.636 E44.21627
G1 X271.962 Y157.151 E44.31469
G1 X217.324 Y251.797 E62.63423
G1 X217.044 Y252.267 E62.72594
G1 X216.509 Y253.078 E62.8888
G1 X216.055 Y253.702 E63.01816
G1 X215.7 Y254.168 E63.11636
G1 X215.102 Y254.868 E63.27069
G1 X214.445 Y255.513 E63.42503
G1 X214.016 Y255.88 E63.51967
G1 X213.421 Y256.348 E63.64656
G1 X212.946 Y256.698 E63.74547
G1 X212.182 Y257.211 E63.89973
G1 X211.376 Y257.656 E64.05407
G1 X210.945 Y257.858 E64.13386
G1 X210.27 Y258.151 E64.25721
G1 X209.824 Y258.331 E64.33783
G1 X208.956 Y258.638 E64.49217
G1 X208.065 Y258.868 E64.64642
G1 X207.508 Y258.972 E64.74141
G1 X206.778 Y259.077 E64.86504
G1 X206.19 Y259.144 E64.96424
G1 X205.303 Y259.207 E65.1133
G1 X204.652 Y259.222 E65.22246
G1 X95.567 Y259.221 E83.5085
G1 X94.992 Y259.213 E83.6049
G1 X94.023 Y259.155 E83.76762
G1 X93.06 Y259.053 E83.92995
G1 X92.149 Y258.916 E84.08438
G1 X91.254 Y258.701 E84.23868
G1 X90.398 Y258.416 E84.38992
G1 X89.645 Y258.116 E84.52579
G1 X89.102 Y257.879 E84.62511
G1 X88.275 Y257.474 E84.77947
G1 X87.486 Y257 E84.93376
G1 X87.057 Y256.7 E85.02152
G1 X86.472 Y256.264 E85.14382
G1 X86.134 Y256 E85.21571
G1 X85.434 Y255.402 E85.37004
G1 X84.788 Y254.746 E85.52438
G1 X84.436 Y254.334 E85.61522
G1 X83.948 Y253.717 E85.74709
G1 X83.601 Y253.247 E85.84502
G1 X83.094 Y252.495 E85.99705
G1 X82.76 Y251.943 E86.1052
G1 X28.227 Y157.488 E104.38821
G1 X27.947 Y156.988 E104.48427
G1 X27.509 Y156.113 E104.6483
G1 X27.194 Y155.404 E104.77835
G1 X26.975 Y154.879 E104.87371
G1 X26.667 Y154.012 E105.02794
G1 X26.435 Y153.121 E105.18228
G1 X26.329 Y152.551 E105.27947
G1 X26.225 Y151.824 E105.40258
G1 X26.157 Y151.219 E105.50464
G1 X26.094 Y150.3 E105.65905
G1 X26.111 Y149.38 E105.8133
G1 X26.157 Y148.854 E105.90181
G1 X26.243 Y148.123 E106.02519
G1 X26.299 Y147.727 E106.09223
G1 X26.468 Y146.822 E106.24656
G1 X26.714 Y145.935 E106.40086
G1 X26.922 Y145.354 E106.50431
G1 X27.14 Y144.796 E106.60473
G1 X27.379 Y144.225 E106.7085
G1 X27.748 Y143.455 E106.85163
G1 X28.038 Y142.924 E106.95305
G1 X82.686 Y48.259 E125.27618
G0 F6000 X81.656 Y47.643
G1 F1200 X81.963 Y47.132 E125.37611
G1 X82.524 Y46.285 E125.54642
G1 X82.988 Y45.648 E125.67852
G1 X83.379 Y45.139 E125.78611
G1 X84.046 Y44.364 E125.95752
G1 X84.771 Y43.653 E126.12774
G1 X85.397 Y43.126 E126.26491
G1 X85.884 Y42.749 E126.36815
G1 X86.369 Y42.393 E126.469
G1 X87.266 Y41.797 E126.64953
G1 X88.146 Y41.316 E126.81765
G1 X88.669 Y41.073 E126.91432
G1 X89.319 Y40.796 E127.03276
G1 X89.7 Y40.643 E127.10158
G1 X90.617 Y40.32 E127.26456
G1 X91.692 Y40.042 E127.45069
G1 X92.308 Y39.931 E127.55561
G1 X93.043 Y39.819 E127.68025
G1 X93.721 Y39.734 E127.79479
G1 X94.666 Y39.667 E127.9536
G1 X95.311 Y39.653 E128.06175
G1 X204.302 Y39.652 E146.33203
G1 X205.152 Y39.663 E146.47452
G1 X206.126 Y39.717 E146.63805
G1 X206.946 Y39.809 E146.77637
G1 X207.492 Y39.888 E146.86885
G1 X208.448 Y40.069 E147.03195
G1 X209.518 Y40.368 E147.21819
G1 X210.11 Y40.582 E147.32371
G1 X210.805 Y40.855 E147.44888
G1 X211.423 Y41.117 E147.5614
G1 X212.342 Y41.571 E147.73322
G1 X213.199 Y42.09 E147.90117
G1 X213.654 Y42.409 E147.99432
G1 X214.023 Y42.68 E148.07107
G1 X214.612 Y43.136 E148.19594
G1 X215.432 Y43.842 E148.37732
G1 X216.139 Y44.567 E148.54707
G1 X216.679 Y45.21 E148.68783
G1 X217.01 Y45.635 E148.77813
G1 X217.354 Y46.1 E148.87509
G1 X217.888 Y46.889 E149.0348
G1 X218.275 Y47.525 E149.1596
G1 X272.809 Y141.982 E167.44298
G1 X273.124 Y142.547 E167.55141
G1 X273.586 Y143.472 E167.72474
G1 X273.912 Y144.207 E167.85952
G1 X274.127 Y144.721 E167.95292
G1 X274.49 Y145.747 E168.13535
G1 X274.723 Y146.638 E168.28974
G1 X274.858 Y147.354 E168.41188
G1 X274.962 Y148.072 E168.53349
G1 X275.038 Y148.743 E168.64669
G1 X275.106 Y149.766 E168.81856
G1 X275.087 Y150.768 E168.98655
G1 X275.04 Y151.322 E169.07975
G1 X274.987 Y151.791 E169.15887
G1 X274.893 Y152.486 E169.27644
G1 X274.695 Y153.549 E169.45769
G1 X274.45 Y154.437 E169.61211
G1 X274.199 Y155.149 E169.73866
G1 X273.969 Y155.738 E169.84466
G1 X273.709 Y156.359 E169.95751
G1 X273.326 Y157.156 E170.10574
G1 X273.001 Y157.751 E170.21939
G1 X218.355 Y252.411 E188.54163
G1 X218.046 Y252.928 E188.6426
G1 X217.511 Y253.739 E188.80546
G1 X217.01 Y254.429 E188.9484
G1 X216.655 Y254.895 E189.0466
G1 X215.943 Y255.724 E189.22979
G1 X215.225 Y256.425 E189.398
G1 X214.796 Y256.792 E189.49263
G1 X214.133 Y257.314 E189.63409
G1 X213.658 Y257.664 E189.73299
G1 X212.762 Y258.262 E189.91357
G1 X211.956 Y258.707 E190.06791
G1 X211.423 Y258.959 E190.16674
G1 X210.719 Y259.264 E190.29535
G1 X210.273 Y259.444 E190.37597
G1 X209.256 Y259.8 E190.55659
G1 X208.285 Y260.048 E190.72459
G1 X207.728 Y260.152 E190.81957
G1 X206.949 Y260.265 E190.95152
G1 X206.275 Y260.341 E191.06522
G1 X205.331 Y260.407 E191.22385
G1 X204.652 Y260.422 E191.3377
G1 X95.55 Y260.421 E209.62659
G1 X94.92 Y260.411 E209.73221
G1 X93.951 Y260.353 E209.89493
G1 X92.882 Y260.24 E210.07513
G1 X91.869 Y260.083 E210.24697
G1 X90.875 Y259.84 E210.4185
G1 X90.019 Y259.555 E210.56974
G1 X89.165 Y259.216 E210.72376
G1 X88.574 Y258.957 E210.83193
G1 X87.657 Y258.503 E211.00345
G1 X86.868 Y258.029 E211.15775
G1 X86.34 Y257.662 E211.26554
G1 X85.733 Y257.21 E211.3924
G1 X85.395 Y256.946 E211.46429
G1 X84.579 Y256.244 E211.64473
G1 X83.933 Y255.588 E211.79907
G1 X83.495 Y255.078 E211.91176
G1 X82.983 Y254.43 E212.0502
G1 X82.606 Y253.918 E212.15678
G1 X82.067 Y253.116 E212.31877
G1 X81.721 Y252.543 E212.43097
G1 X27.18 Y158.074 E230.71668
G1 X26.874 Y157.525 E230.82204
G1 X26.412 Y156.6 E230.99536
G1 X26.086 Y155.866 E231.13
G1 X25.844 Y155.281 E231.23612
G1 X25.536 Y154.414 E231.39035
G1 X25.255 Y153.34 E231.57645
G1 X25.149 Y152.77 E231.67364
G1 X25.037 Y151.994 E231.80507
G1 X24.96 Y151.301 E231.92195
G1 X24.894 Y150.278 E232.09379
G1 X24.911 Y149.358 E232.24804
G1 X24.965 Y148.714 E232.35637
G1 X25.055 Y147.955 E232.4845
G1 X25.119 Y147.507 E232.56036
G1 X25.288 Y146.602 E232.71469
G1 X25.584 Y145.531 E232.90095
G1 X25.804 Y144.917 E233.01028
G1 X26.033 Y144.333 E233.11544
G1 X26.297 Y143.706 E233.22948
G1 X26.666 Y142.936 E233.37261
G1 X26.999 Y142.324 E233.4894
G1 X81.656 Y47.643 E251.81561
G0 F6000 X80.627 Y47.025
G1 F1200 X80.934 Y46.514 E251.91554
G1 X81.554 Y45.578 E252.10375
G1 X82.036 Y44.917 E252.24088
G1 X82.469 Y44.356 E252.35968
G1 X83.136 Y43.581 E252.53108
G1 X83.998 Y42.735 E252.73354
G1 X84.662 Y42.177 E252.87893
G1 X85.149 Y41.8 E252.98217
G1 X85.705 Y41.394 E253.09758
G1 X86.69 Y40.744 E253.29541
G1 X87.57 Y40.263 E253.46352
G1 X88.199 Y39.969 E253.57991
G1 X88.872 Y39.682 E253.70256
G1 X89.253 Y39.529 E253.77138
G1 X90.218 Y39.188 E253.94295
G1 X91.392 Y38.88 E254.14641
G1 X92.127 Y38.745 E254.27168
G1 X92.894 Y38.628 E254.40174
G1 X93.572 Y38.543 E254.51628
G1 X94.64 Y38.467 E254.69576
G1 X95.311 Y38.453 E254.80827
G1 X204.318 Y38.452 E273.08123
G1 X205.168 Y38.463 E273.22373
G1 X206.26 Y38.524 E273.40707
G1 X207.118 Y38.621 E273.55181
G1 X207.664 Y38.7 E273.64429
G1 X208.771 Y38.913 E273.83326
G1 X209.926 Y39.239 E274.03444
G1 X210.549 Y39.465 E274.14553
G1 X211.273 Y39.75 E274.27596
G1 X211.954 Y40.041 E274.4001
G1 X212.964 Y40.545 E274.58932
G1 X213.888 Y41.107 E274.77061
G1 X214.364 Y41.442 E274.86818
G1 X214.758 Y41.731 E274.95009
G1 X215.347 Y42.187 E275.07496
G1 X216.291 Y43.004 E275.28424
G1 X217.058 Y43.795 E275.46893
G1 X217.598 Y44.438 E275.60969
G1 X217.975 Y44.921 E275.7124
G1 X218.348 Y45.427 E275.81778
G1 X218.882 Y46.216 E275.97748
G1 X219.314 Y46.925 E276.11666
G1 X273.857 Y141.398 E294.40311
G1 X274.198 Y142.011 E294.5207
G1 X274.683 Y142.985 E294.7031
G1 X275.019 Y143.744 E294.84224
G1 X275.234 Y144.258 E294.93563
G1 X275.651 Y145.443 E295.14622
G1 X275.884 Y146.334 E295.3006
G1 X276.046 Y147.182 E295.44532
G1 X276.15 Y147.9 E295.56694
G1 X276.235 Y148.663 E295.69563
G1 X276.306 Y149.789 E295.88476
G1 X276.283 Y150.869 E296.06584
G1 X276.236 Y151.423 E296.15904
G1 X276.176 Y151.952 E296.24829
G1 X276.073 Y152.706 E296.37585
G1 X275.852 Y153.868 E296.57413
G1 X275.582 Y154.836 E296.74259
G1 X275.317 Y155.585 E296.87578
G1 X275.076 Y156.201 E296.98666
G1 X274.791 Y156.879 E297.10995
G1 X274.408 Y157.676 E297.25817
G1 X274.04 Y158.351 E297.38705
G1 X219.385 Y253.027 E315.71236
G1 X219.048 Y253.589 E315.82221
G1 X218.513 Y254.4 E315.98508
G1 X217.965 Y255.156 E316.1416
G1 X217.61 Y255.622 E316.2398
G1 X216.781 Y256.583 E316.45255
G1 X216.005 Y257.337 E316.63392
G1 X215.576 Y257.704 E316.72856
G1 X214.845 Y258.28 E316.88457
G1 X214.324 Y258.662 E316.99287
G1 X213.342 Y259.313 E317.19037
G1 X212.536 Y259.758 E317.3447
G1 X211.9 Y260.06 E317.46272
G1 X211.168 Y260.377 E317.59644
G1 X210.669 Y260.577 E317.68656
G1 X209.553 Y260.963 E317.88451
G1 X208.505 Y261.228 E318.06572
G1 X207.9 Y261.34 E318.16886
G1 X207.121 Y261.453 E318.30081
G1 X206.359 Y261.538 E318.42933
G1 X205.358 Y261.607 E318.59753
G1 X204.679 Y261.622 E318.71138
G1 X95.531 Y261.621 E337.00798
G1 X94.848 Y261.609 E337.12249
G1 X93.879 Y261.551 E337.28521
G1 X92.698 Y261.426 E337.48429
G1 X91.584 Y261.249 E337.67337
G1 X90.496 Y260.979 E337.86129
G1 X89.64 Y260.694 E338.01253
G1 X88.683 Y260.315 E338.18507
G1 X88.092 Y260.056 E338.29324
G1 X87.039 Y259.532 E338.4904
G1 X86.25 Y259.058 E338.64469
G1 X85.623 Y258.624 E338.77252
G1 X84.994 Y258.156 E338.90394
G1 X84.612 Y257.856 E338.98537
G1 X83.796 Y257.154 E339.16581
G1 X83.078 Y256.43 E339.33673
G1 X82.553 Y255.822 E339.47139
G1 X82.017 Y255.142 E339.61653
G1 X81.64 Y254.63 E339.72312
G1 X81.071 Y253.785 E339.89389
G1 X80.682 Y253.143 E340.01972
G1 X26.132 Y158.658 E358.30851
G1 X25.8 Y158.061 E358.42302
G1 X25.315 Y157.087 E358.60541
G1 X24.977 Y156.325 E358.74515
G1 X24.713 Y155.683 E358.86151
G1 X24.375 Y154.718 E359.03291
G1 X24.075 Y153.559 E359.2336
G1 X23.961 Y152.941 E359.33894
G1 X23.844 Y152.127 E359.4768
G1 X23.762 Y151.378 E359.6031
G1 X23.696 Y150.355 E359.77495
G1 X23.715 Y149.258 E359.95886
G1 X23.773 Y148.573 E360.0741
G1 X23.867 Y147.785 E360.20713
G1 X23.939 Y147.287 E360.29148
G1 X24.131 Y146.282 E360.463
G1 X24.427 Y145.211 E360.64926
G1 X24.674 Y144.512 E360.77353
G1 X24.927 Y143.867 E360.88968
G1 X25.191 Y143.24 E361.00372
G1 X25.612 Y142.362 E361.16694
G1 X25.96 Y141.724 E361.28877
G1 X80.627 Y47.025 E379.61843
G1 F1500 E373.11843
;MESH:WhirlWax_TopPlate.stl
G0 F6000 X93.963 Y50.919
G0 X95.059 Y52.271
G0 X113.364 Y53.665
;TYPE:WALL-INNER
G1 F1500 E379.61843
G1 F713.6 X113.769 Y53.655 E379.73263
G1 F711.5 X114.156 Y53.672 E379.84216
G1 F1500 E373.34216
G0 F6000 X95.14 Y55.018
G0 X89.071 Y65.563
G0 X98.526 Y70.596
G0 X96.837 Y75.901
G0 X96.169 Y77.231
G0 X95.212 Y78.373
G0 X94.017 Y79.262
G0 X92.65 Y79.852
G0 X91.462 Y80.06
G0 X89.677 Y80.181
G1 F1500 E379.84216
G1 F1200 X88.284 Y79.765 E380.08586
G1 X88.02 Y79.64 E380.13482
G1 X86.949 Y79.02 E380.34227
G1 X86.734 Y78.84 E380.38927
G1 X85.829 Y77.988 E380.59763
G1 X85.657 Y77.758 E380.64577
G1 X85.051 Y76.833 E380.83114
G1 X84.865 Y76.463 E380.90056
G1 X84.485 Y75.421 E381.08649
G1 X84.388 Y75.015 E381.15646
G1 X84.26 Y73.919 E381.34143
G1 X84.259 Y73.498 E381.41201
G1 F1213.1 X84.4 Y72.405 E381.59475
G1 F1256.5 X84.523 Y72.008 E381.66128
G1 F1347.1 X84.95 Y70.983 E381.8271
G1 F1421.5 X85.081 Y70.719 E381.8688
G1 F1383.3 X85.514 Y70.037 E381.98628
G1 F1296.1 X85.947 Y69.355 E382.11165
G1 F1227.6 X86.735 Y68.576 E382.29322
G1 F1200 X87.065 Y68.33 E382.36222
G1 X88.019 Y67.777 E382.54706
G1 X88.407 Y67.61 E382.61787
G1 X89.47 Y67.292 E382.80386
G1 X89.88 Y67.22 E382.87365
G1 X90.983 Y67.156 E383.05885
G1 X91.402 Y67.181 E383.12922
G1 X92.494 Y67.374 E383.31511
G1 X92.767 Y67.44 E383.36219
G1 X94.098 Y68.014 E383.60517
G1 X95.316 Y68.923 E383.85993
G1 X96.257 Y70.038 E384.10451
G1 X96.398 Y70.281 E384.1516
G1 X96.919 Y71.319 E384.34629
G1 X97.013 Y71.568 E384.39091
G1 X97.339 Y72.948 E384.62861
G1 X97.338 Y74.477 E384.88492
G1 X97.023 Y75.815 E385.11534
G1 X96.914 Y76.108 E385.16774
G1 X96.365 Y77.196 E385.37203
G1 X96.188 Y77.459 E385.42517
G1 X95.422 Y78.372 E385.62495
G1 X95.222 Y78.563 E385.67131
G1 X94.266 Y79.278 E385.87142
G1 X94.011 Y79.437 E385.9218
G1 X92.829 Y79.95 E386.1378
G1 X92.543 Y80.034 E386.18776
G1 X91.313 Y80.25 E386.39711
G1 X91.05 Y80.263 E386.44125
G1 X89.677 Y80.181 E386.67181
G1 F1500 E380.17181
G0 F6000 X83.579 Y77.801
G0 X82.893 Y76.264
G0 X70.169 Y98.15
G0 X79.207 Y97.529
G0 X80.726 Y99.79
G0 X77.667 Y107.349
G1 F1500 E386.67181
G1 F1200 X76.716 Y107.742 E386.84431
G1 X76.44 Y107.83 E386.89287
G1 X76.187 Y107.886 E386.9363
G1 X75.216 Y108.018 E387.10057
G1 X74.945 Y108.026 E387.14602
G1 X74.68 Y108.018 E387.19046
G1 X73.667 Y107.879 E387.36186
G1 X73.287 Y107.786 E387.42744
G1 X72.249 Y107.362 E387.6154
G1 X71.956 Y107.195 E387.67193
G1 X71.719 Y107.031 E387.72025
G1 X71.143 Y106.588 E387.84206
G1 X70.866 Y106.346 E387.90372
G1 X70.597 Y106.042 E387.97176
G1 X70.152 Y105.465 E388.09391
G1 X69.936 Y105.144 E388.15877
G1 X69.752 Y104.771 E388.22849
G1 X69.475 Y104.097 E388.35064
G1 X69.276 Y103.354 E388.47958
G1 X69.18 Y102.632 E388.60167
G1 X69.18 Y101.84 E388.73444
G1 F1201 X69.277 Y101.119 E388.85629
G1 F1241.4 X69.469 Y100.498 E388.96162
G1 F1318.7 X69.816 Y99.727 E389.09059
G1 F1366.2 X69.995 Y99.378 E389.14834
G1 X70.207 Y99.05 E389.20584
G1 F1327.2 X70.632 Y98.458 E389.3163
G1 F1246.8 X71.143 Y97.884 E389.44029
G1 F1200 X71.72 Y97.441 E389.56224
G1 X72.406 Y97.045 E389.69501
G1 X73.081 Y96.767 E389.81739
G1 X73.828 Y96.567 E389.94702
G1 X74.548 Y96.472 E390.06876
G1 X74.96 Y96.446 E390.13796
G1 X75.341 Y96.472 E390.20197
G1 X76.063 Y96.567 E390.32405
G1 X76.462 Y96.648 E390.3923
G1 X76.811 Y96.767 E390.45411
G1 X77.481 Y97.043 E390.57558
G1 X77.741 Y97.165 E390.62372
