;FLAVOR:Marlin
;TIME:3624
;Filament used: 8.40946m
;Layer height: 0.48
;MINX:95.095
;MINY:90.175
;MINZ:0.32
;MAXX:204.915
;MAXY:223.944
;MAXZ:9.92
;Generated with Cura_SteamEngine 5.3.1
M140 S60
M105
M190 S60
M104 S230
M105
M109 S230
M82 ;absolute extrusion mode
G28 ; home all axes
G92 X-5.0 Y-10.0 ; set home offsets
M92 E136.8 ; Set E Steps to 136.8
G1 X0 Y0 Z0.2 F3000 ; get ready to prime
G92 E0 ; reset extrusion distance
G92 E0
G92 E0
G1 F1500 E-6.5
;LAYER_COUNT:21
;LAYER:0
M107
G0 F6000 X124.151 Y104.321 Z0.32
;TYPE:SKIRT
G1 F1500 E0
G1 F1200 X124.751 Y103.623 E0.15429
G1 X125.409 Y102.978 E0.30875
G1 X126.255 Y102.294 E0.49112
G1 X127.642 Y101.286 E0.77854
G1 X129.691 Y99.734 E1.20942
G1 X131.638 Y98.171 E1.62796
G1 X133.545 Y96.553 E2.04719
G1 X134.247 Y95.942 E2.20319
G1 X134.967 Y95.368 E2.35755
G1 X135.734 Y94.859 E2.51186
G1 X136.542 Y94.418 E2.66616
G1 X137.386 Y94.049 E2.82058
G1 X138.258 Y93.755 E2.97484
G1 X139.152 Y93.537 E3.12909
G1 X140.211 Y93.383 E3.30848
G1 X140.874 Y93.325 E3.42004
G1 X151.579 Y92.623 E5.21839
G1 X152.318 Y92.584 E5.34244
G1 X153.239 Y92.575 E5.49683
G1 X154.157 Y92.647 E5.65119
G1 X155.065 Y92.797 E5.80546
G1 X155.957 Y93.026 E5.95984
G1 X156.825 Y93.332 E6.11412
G1 X157.664 Y93.711 E6.26845
G1 X158.722 Y94.326 E6.47359
G1 X160.722 Y95.648 E6.87547
G1 X162.867 Y96.984 E7.29908
G1 X165.062 Y98.266 E7.72519
G1 X167.517 Y99.61 E8.19436
G1 X168.305 Y100.087 E8.34877
G1 X169.048 Y100.63 E8.50304
G1 X169.742 Y101.236 E8.65748
G1 X170.38 Y101.9 E8.81184
G1 X170.958 Y102.616 E8.96609
G1 X171.472 Y103.38 E9.12045
G1 X172.111 Y104.598 E9.35102
G1 X173.344 Y107.368 E9.85928
G1 X174.428 Y109.623 E10.27869
G1 X175.597 Y111.888 E10.70597
G1 X176.83 Y114.12 E11.13341
G1 X178.102 Y116.275 E11.55289
G1 X179.436 Y118.395 E11.97277
G1 X180.855 Y120.516 E12.40055
G1 X182.325 Y122.584 E12.82587
G1 X183.841 Y124.593 E13.24776
G1 X185.431 Y126.582 E13.67462
G1 X187.051 Y128.494 E14.09471
G1 X188.762 Y130.402 E14.52432
G1 X190.492 Y132.225 E14.94561
G1 X191.164 Y132.895 E15.10468
G1 X191.807 Y133.554 E15.25902
G1 X192.421 Y134.241 E15.41348
G1 X192.79 Y134.719 E15.5147
G1 X193.802 Y136.109 E15.80292
G1 X195.336 Y138.136 E16.22904
G1 X196.938 Y140.131 E16.65794
G1 X198.558 Y142.041 E17.07778
G1 X199.144 Y142.713 E17.22724
G1 X199.719 Y143.432 E17.38157
G1 X200.229 Y144.199 E17.53597
G1 X200.67 Y145.007 E17.69028
G1 X201.039 Y145.85 E17.84453
G1 X201.334 Y146.722 E17.99885
G1 X201.552 Y147.617 E18.15326
G1 X201.707 Y148.674 E18.33234
G1 X201.764 Y149.321 E18.44122
G1 X202.467 Y160.049 E20.24342
G1 X202.506 Y160.789 E20.36764
G1 X202.515 Y161.71 E20.52204
G1 X202.443 Y162.628 E20.6764
G1 X202.293 Y163.536 E20.83067
G1 X202.063 Y164.428 E20.98509
G1 X201.758 Y165.296 E21.13931
G1 X201.378 Y166.135 E21.29371
G1 X200.767 Y167.187 E21.49764
G1 X199.427 Y169.216 E21.90524
G1 X198.107 Y171.337 E22.32402
G1 X196.81 Y173.559 E22.75531
G1 X195.484 Y175.985 E23.21876
G1 X195.007 Y176.773 E23.37317
G1 X194.464 Y177.517 E23.52757
G1 X193.859 Y178.21 E23.68178
G1 X193.372 Y178.689 E23.79629
G1 X192.65 Y179.355 E23.96095
G1 X190.689 Y181.217 E24.41425
G1 X188.934 Y182.98 E24.83125
G1 X187.195 Y184.826 E25.25638
G1 X185.506 Y186.727 E25.68266
G1 X183.886 Y188.657 E26.10505
G1 X182.308 Y190.647 E26.53079
G1 X180.803 Y192.662 E26.95238
G1 X179.342 Y194.737 E27.37779
G1 X177.948 Y196.839 E27.80059
G1 X176.619 Y198.975 E28.2223
G1 X175.332 Y201.178 E28.64999
G1 X174.12 Y203.395 E29.07354
G1 X173.364 Y204.875 E29.35213
G1 X173.066 Y205.44 E29.4592
G1 X172.543 Y206.323 E29.63124
G1 X171.181 Y208.385 E30.04549
G1 X169.872 Y210.488 E30.46073
G1 X168.574 Y212.713 E30.89254
G1 X167.259 Y215.12 E31.35231
G1 X166.783 Y215.908 E31.50664
G1 X166.24 Y216.652 E31.66104
G1 X165.635 Y217.346 E31.81537
G1 X164.972 Y217.985 E31.96973
G1 X164.256 Y218.564 E32.12409
G1 X163.493 Y219.078 E32.2783
G1 X162.688 Y219.524 E32.43257
G1 X161.847 Y219.899 E32.58693
G1 X160.976 Y220.2 E32.74141
G1 X160.083 Y220.423 E32.8957
G1 X158.986 Y220.589 E33.08169
G1 X158.311 Y220.649 E33.19528
G1 X145.245 Y221.505 E35.39025
G1 X144.529 Y221.541 E35.51042
G1 X143.609 Y221.547 E35.66465
G1 X142.691 Y221.473 E35.81903
G1 X141.783 Y221.32 E35.97338
G1 X140.892 Y221.089 E36.12768
G1 X140.024 Y220.781 E36.28207
G1 X139.186 Y220.4 E36.43639
G1 X138.385 Y219.947 E36.59064
G1 X137.626 Y219.426 E36.74497
G1 X136.915 Y218.841 E36.89931
G1 X136.257 Y218.197 E37.05365
G1 X135.423 Y217.187 E37.27322
G1 X134.469 Y215.875 E37.54515
G1 X132.922 Y213.826 E37.97552
G1 X131.356 Y211.87 E38.39555
G1 X129.663 Y209.874 E38.83429
G1 X129.062 Y209.183 E38.98781
G1 X128.488 Y208.463 E39.14216
G1 X127.856 Y207.483 E39.33764
G1 X127.304 Y206.514 E39.52458
G1 X127.007 Y205.975 E39.62774
G1 X125.707 Y203.768 E40.05711
G1 X124.365 Y201.63 E40.48026
G1 X122.973 Y199.544 E40.90065
G1 X121.504 Y197.476 E41.32587
G1 X119.977 Y195.447 E41.75155
G1 X118.391 Y193.461 E42.1776
G1 X116.788 Y191.565 E42.5938
G1 X115.067 Y189.643 E43.02627
G1 X113.335 Y187.814 E43.44852
G1 X111.568 Y186.054 E43.86659
G1 X109.568 Y184.17 E44.32718
G1 X108.625 Y183.307 E44.54146
G1 X107.974 Y182.657 E44.69567
G1 X107.211 Y181.725 E44.89758
G1 X106.164 Y180.287 E45.19576
G1 X104.606 Y178.232 E45.62805
G1 X103.005 Y176.24 E46.05645
G1 X101.556 Y174.533 E46.43179
G1 X100.857 Y173.73 E46.61026
G1 X100.283 Y173.01 E46.76461
G1 X99.774 Y172.243 E46.91892
G1 X99.333 Y171.434 E47.07337
G1 X98.965 Y170.591 E47.22756
G1 X98.67 Y169.718 E47.38204
G1 X98.453 Y168.824 E47.53625
G1 X98.298 Y167.757 E47.71699
G1 X98.249 Y167.187 E47.81289
G1 X97.541 Y156.403 E49.62452
G1 X97.502 Y155.651 E49.75074
G1 X97.495 Y154.73 E49.90514
G1 X97.567 Y153.813 E50.05933
G1 X97.718 Y152.904 E50.21379
G1 X97.948 Y152.013 E50.36805
G1 X98.254 Y151.145 E50.52233
G1 X98.635 Y150.306 E50.67679
G1 X99.245 Y149.257 E50.88021
G1 X100.54 Y147.297 E51.274
G1 X101.905 Y145.107 E51.70659
G1 X103.159 Y142.96 E52.12338
G1 X104.523 Y140.465 E52.60004
G1 X104.999 Y139.678 E52.75422
G1 X105.608 Y138.852 E52.92625
G1 X106.091 Y138.259 E53.05446
G1 X107.673 Y136.261 E53.48166
G1 X109.187 Y134.235 E53.90563
G1 X110.652 Y132.152 E54.33252
G1 X112.049 Y130.043 E54.75658
G1 X113.369 Y127.923 E55.17522
G1 X114.662 Y125.709 E55.60501
G1 X115.87 Y123.498 E56.02735
G1 X117.023 Y121.237 E56.4528
G1 X118.103 Y118.964 E56.87465
G1 X119.115 Y116.668 E57.29526
G1 X120.091 Y114.272 E57.72895
G1 X120.96 Y111.955 E58.14377
G1 X121.788 Y109.54 E58.57173
G1 X122.156 Y108.36 E58.77893
G1 X122.421 Y107.552 E58.92147
G1 X122.746 Y106.691 E59.07574
G1 X123.145 Y105.861 E59.23012
G1 X123.615 Y105.069 E59.3845
G1 X124.151 Y104.321 E59.53876
G0 F6000 X123.241 Y103.539
G1 F1200 X123.911 Y102.766 E59.71024
G1 X124.569 Y102.121 E59.86469
G1 X125.55 Y101.323 E60.07668
G1 X126.917 Y100.329 E60.36
G1 X128.966 Y98.777 E60.79089
G1 X130.887 Y97.235 E61.20382
G1 X132.757 Y95.648 E61.61496
G1 X133.459 Y95.037 E61.77097
G1 X134.303 Y94.368 E61.9515
G1 X135.07 Y93.859 E62.10581
G1 X136.061 Y93.318 E62.29507
G1 X136.905 Y92.949 E62.44949
G1 X137.974 Y92.589 E62.63857
G1 X138.979 Y92.349 E62.81178
G1 X140.038 Y92.195 E62.99117
G1 X140.795 Y92.128 E63.11856
G1 X151.516 Y91.425 E64.91959
G1 X152.306 Y91.384 E65.0522
G1 X153.227 Y91.375 E65.20659
G1 X154.353 Y91.463 E65.39592
G1 X155.261 Y91.613 E65.55019
G1 X156.356 Y91.894 E65.7397
G1 X157.319 Y92.238 E65.91112
G1 X158.208 Y92.639 E66.0746
G1 X159.384 Y93.325 E66.30282
G1 X161.369 Y94.637 E66.70169
G1 X163.499 Y95.964 E67.12236
G1 X165.638 Y97.213 E67.53758
G1 X168.138 Y98.583 E68.01546
G1 X169.013 Y99.118 E68.18738
G1 X169.756 Y99.661 E68.34165
G1 X170.531 Y100.332 E68.51349
G1 X171.314 Y101.146 E68.70282
G1 X171.954 Y101.946 E68.87456
G1 X172.503 Y102.762 E69.03942
G1 X173.174 Y104.041 E69.28154
G1 X174.426 Y106.848 E69.79676
G1 X175.51 Y109.103 E70.21617
G1 X176.655 Y111.322 E70.63475
G1 X177.863 Y113.51 E71.05371
G1 X179.118 Y115.636 E71.46756
G1 X180.452 Y117.756 E71.88744
G1 X181.833 Y119.821 E72.30387
G1 X183.283 Y121.861 E72.72342
G1 X184.799 Y123.87 E73.14532
G1 X186.347 Y125.806 E73.56084
G1 X187.967 Y127.718 E73.98093
G1 X189.643 Y129.587 E74.40175
G1 X191.339 Y131.375 E74.81486
G1 X192.023 Y132.057 E74.97678
G1 X192.702 Y132.754 E75.13989
G1 X193.316 Y133.441 E75.29435
G1 X193.76 Y134.013 E75.41573
G1 X194.759 Y135.385 E75.70023
G1 X196.282 Y137.397 E76.12323
G1 X197.87 Y139.375 E76.54844
G1 X199.462 Y141.252 E76.96102
G1 X200.048 Y141.924 E77.11048
G1 X200.718 Y142.768 E77.29112
G1 X201.282 Y143.624 E77.46296
G1 X201.769 Y144.526 E77.63479
G1 X202.176 Y145.465 E77.80635
G1 X202.471 Y146.337 E77.96066
G1 X202.718 Y147.333 E78.13268
G1 X202.902 Y148.569 E78.34216
G1 X202.961 Y149.243 E78.45557
G1 X203.665 Y159.986 E80.26029
G1 X203.706 Y160.777 E80.39307
G1 X203.715 Y161.698 E80.54746
G1 X203.627 Y162.824 E80.73679
G1 X203.477 Y163.732 E80.89106
G1 X203.225 Y164.728 E81.06329
G1 X202.89 Y165.694 E81.23468
G1 X202.445 Y166.688 E81.41724
G1 X201.805 Y167.79 E81.63086
G1 X200.446 Y169.85 E82.04456
G1 X199.126 Y171.971 E82.46333
G1 X197.863 Y174.135 E82.88335
G1 X196.511 Y176.606 E83.35552
G1 X196.034 Y177.394 E83.50993
G1 X195.368 Y178.306 E83.69923
G1 X194.7 Y179.066 E83.86885
G1 X194.186 Y179.571 E83.98964
G1 X193.464 Y180.237 E84.15429
G1 X191.539 Y182.064 E84.59918
G1 X189.784 Y183.827 E85.01618
G1 X188.092 Y185.623 E85.42981
G1 X186.403 Y187.524 E85.85609
G1 X184.826 Y189.403 E86.2673
G1 X183.248 Y191.393 E86.69303
G1 X181.784 Y193.353 E87.10313
G1 X180.323 Y195.428 E87.52853
G1 X178.967 Y197.473 E87.93985
G1 X177.638 Y199.609 E88.36156
G1 X176.385 Y201.754 E88.77798
G1 X175.189 Y203.941 E89.19583
G1 X174.425 Y205.435 E89.47712
G1 X174.098 Y206.052 E89.59417
G1 X173.575 Y206.935 E89.76621
G1 X172.2 Y209.019 E90.18474
G1 X170.909 Y211.093 E90.59426
G1 X169.611 Y213.318 E91.02606
G1 X168.312 Y215.695 E91.48014
G1 X167.752 Y216.615 E91.66069
G1 X167.145 Y217.441 E91.83252
G1 X166.54 Y218.135 E91.98685
G1 X165.805 Y218.849 E92.15862
G1 X165.011 Y219.497 E92.33042
G1 X164.075 Y220.128 E92.51965
G1 X163.27 Y220.574 E92.67392
G1 X162.336 Y220.995 E92.84566
G1 X161.368 Y221.334 E93.01759
G1 X160.374 Y221.587 E93.18952
G1 X159.092 Y221.784 E93.40695
G1 X158.389 Y221.846 E93.52525
G1 X145.305 Y222.703 E95.72324
G1 X144.537 Y222.741 E95.85213
G1 X143.617 Y222.747 E96.00636
G1 X142.595 Y222.669 E96.17818
G1 X141.482 Y222.482 E96.36736
G1 X140.591 Y222.251 E96.52166
G1 X139.623 Y221.912 E96.69359
G1 X138.595 Y221.445 E96.88286
G1 X137.794 Y220.992 E97.03712
G1 X136.864 Y220.353 E97.22627
G1 X136.076 Y219.699 E97.39793
G1 X135.374 Y219.012 E97.56259
G1 X134.452 Y217.893 E97.80564
G1 X133.498 Y216.581 E98.07756
G1 X131.974 Y214.563 E98.50147
G1 X130.419 Y212.62 E98.91864
G1 X128.748 Y210.65 E99.35167
G1 X128.157 Y209.971 E99.50257
G1 X127.514 Y209.166 E99.67528
G1 X126.813 Y208.077 E99.89238
G1 X126.253 Y207.093 E100.08217
G1 X125.973 Y206.584 E100.17955
G1 X124.673 Y204.377 E100.60893
G1 X123.367 Y202.296 E101.02077
G1 X121.984 Y200.224 E101.43837
G1 X120.545 Y198.198 E101.85494
G1 X119.023 Y196.176 E102.27918
G1 X117.453 Y194.21 E102.70093
G1 X115.872 Y192.34 E103.11142
G1 X114.185 Y190.456 E103.53535
G1 X112.488 Y188.664 E103.94906
G1 X110.721 Y186.904 E104.36713
G1 X108.745 Y185.043 E104.82214
G1 X107.777 Y184.156 E105.04223
G1 X107.081 Y183.461 E105.20711
G1 X106.282 Y182.485 E105.41855
G1 X105.194 Y180.993 E105.72809
G1 X103.662 Y178.972 E106.15321
G1 X102.09 Y177.017 E106.57374
G1 X100.641 Y175.31 E106.94907
G1 X99.952 Y174.518 E107.12505
G1 X99.283 Y173.674 E107.30558
G1 X98.774 Y172.907 E107.45989
G1 X98.279 Y172.008 E107.63193
G1 X97.865 Y171.071 E107.80364
G1 X97.533 Y170.102 E107.97535
G1 X97.265 Y168.997 E108.16595
G1 X97.11 Y167.93 E108.34669
G1 X97.053 Y167.29 E108.4544
G1 X96.343 Y156.465 E110.2729
G1 X96.302 Y155.66 E110.40802
G1 X96.295 Y154.739 E110.56241
G1 X96.383 Y153.616 E110.75124
G1 X96.556 Y152.604 E110.92335
G1 X96.816 Y151.614 E111.09493
G1 X97.161 Y150.649 E111.26672
G1 X97.564 Y149.76 E111.43034
G1 X98.244 Y148.595 E111.65646
G1 X99.539 Y146.635 E112.05026
G1 X100.887 Y144.472 E112.47749
G1 X102.106 Y142.384 E112.88279
G1 X103.47 Y139.889 E113.35945
G1 X103.972 Y139.057 E113.52234
G1 X104.642 Y138.14 E113.71272
G1 X105.15 Y137.514 E113.84786
G1 X106.732 Y135.516 E114.27506
G1 X108.205 Y133.545 E114.68754
G1 X109.67 Y131.462 E115.11442
G1 X111.033 Y129.404 E115.52821
G1 X112.35 Y127.289 E115.94587
G1 X113.617 Y125.12 E116.36694
G1 X114.806 Y122.942 E116.78291
G1 X115.943 Y120.713 E117.20236
G1 X117.019 Y118.449 E117.62256
G1 X118.017 Y116.184 E118.03747
G1 X118.967 Y113.85 E118.45988
G1 X119.836 Y111.534 E118.87455
G1 X120.642 Y109.183 E119.29117
G1 X121.016 Y107.986 E119.50139
G1 X121.298 Y107.128 E119.65278
G1 X121.664 Y106.171 E119.82454
G1 X122.063 Y105.341 E119.97891
G1 X122.583 Y104.457 E120.15084
G1 X123.241 Y103.539 E120.34017
G0 F6000 X122.334 Y102.753
G1 F1200 X123.004 Y101.98 E120.51165
G1 X123.729 Y101.264 E120.68246
G1 X124.844 Y100.352 E120.92393
G1 X126.198 Y99.367 E121.2046
G1 X128.241 Y97.82 E121.63418
G1 X130.136 Y96.299 E122.04151
G1 X131.969 Y94.743 E122.44456
G1 X132.671 Y94.132 E122.60056
G1 X133.639 Y93.368 E122.80728
G1 X134.406 Y92.859 E122.96159
G1 X135.58 Y92.218 E123.18581
G1 X136.424 Y91.849 E123.34022
G1 X137.695 Y91.422 E123.56499
G1 X138.806 Y91.161 E123.75629
G1 X139.865 Y91.007 E123.93568
G1 X140.716 Y90.931 E124.0789
G1 X151.454 Y90.227 E125.88279
G1 X152.294 Y90.184 E126.02379
G1 X153.215 Y90.175 E126.17818
G1 X154.549 Y90.279 E126.40248
G1 X155.457 Y90.429 E126.55675
G1 X156.76 Y90.764 E126.78228
G1 X157.723 Y91.108 E126.9537
G1 X158.762 Y91.572 E127.14444
G1 X159.989 Y92.288 E127.38259
G1 X162.004 Y93.618 E127.78731
G1 X164.134 Y94.945 E128.20799
G1 X166.225 Y96.166 E128.61389
G1 X168.764 Y97.559 E129.09935
G1 X169.639 Y98.094 E129.27127
G1 X170.464 Y98.692 E129.44208
G1 X171.396 Y99.5 E129.64885
G1 X172.251 Y100.396 E129.85646
G1 X172.95 Y101.276 E130.04485
G1 X173.535 Y102.145 E130.22045
G1 X174.27 Y103.552 E130.48655
G1 X175.508 Y106.328 E130.99607
G1 X176.592 Y108.583 E131.41549
G1 X177.706 Y110.742 E131.82274
G1 X178.914 Y112.93 E132.2417
G1 X180.134 Y114.997 E132.64405
G1 X181.468 Y117.117 E133.06393
G1 X182.811 Y119.126 E133.46902
G1 X184.241 Y121.138 E133.8828
G1 X185.757 Y123.147 E134.3047
G1 X187.263 Y125.03 E134.70888
G1 X188.883 Y126.942 E135.12897
G1 X190.514 Y128.761 E135.53852
G1 X192.209 Y130.548 E135.95139
G1 X192.883 Y131.22 E136.11094
G1 X193.597 Y131.954 E136.28259
G1 X194.211 Y132.641 E136.43704
G1 X194.73 Y133.307 E136.57858
G1 X195.716 Y134.661 E136.85936
G1 X197.228 Y136.658 E137.27924
G1 X198.802 Y138.619 E137.70076
G1 X200.366 Y140.463 E138.10608
G1 X200.988 Y141.178 E138.26495
G1 X201.658 Y142.022 E138.44559
G1 X202.338 Y143.054 E138.65276
G1 X202.87 Y144.049 E138.8419
G1 X203.313 Y145.08 E139.03
G1 X203.608 Y145.952 E139.18432
G1 X203.883 Y147.044 E139.37308
G1 X204.089 Y148.392 E139.60167
G1 X204.158 Y149.165 E139.73177
G1 X204.863 Y159.924 E141.53918
G1 X204.906 Y160.765 E141.68034
G1 X204.915 Y161.686 E141.83474
G1 X204.811 Y163.02 E142.05904
G1 X204.661 Y163.928 E142.21331
G1 X204.359 Y165.121 E142.4196
G1 X204.024 Y166.087 E142.59099
G1 X203.512 Y167.242 E142.80278
G1 X202.807 Y168.451 E143.03738
G1 X201.448 Y170.511 E143.45108
G1 X200.145 Y172.605 E143.86451
G1 X198.916 Y174.711 E144.27325
G1 X197.538 Y177.227 E144.75413
G1 X197.003 Y178.102 E144.92605
G1 X196.337 Y179.014 E145.11535
G1 X195.541 Y179.922 E145.31777
G1 X195 Y180.453 E145.44484
G1 X194.278 Y181.119 E145.6095
G1 X192.389 Y182.911 E146.04597
G1 X190.634 Y184.674 E146.46297
G1 X188.989 Y186.42 E146.8651
G1 X187.3 Y188.321 E147.29137
G1 X185.766 Y190.149 E147.6914
G1 X184.188 Y192.139 E148.11714
G1 X182.765 Y194.044 E148.51573
G1 X181.304 Y196.119 E148.94114
G1 X179.986 Y198.107 E149.34097
G1 X178.657 Y200.243 E149.76268
G1 X177.438 Y202.33 E150.16783
G1 X176.242 Y204.517 E150.58568
G1 X175.485 Y205.997 E150.86435
G1 X175.13 Y206.664 E150.99101
G1 X174.577 Y207.596 E151.17267
G1 X173.202 Y209.68 E151.5912
G1 X171.946 Y211.698 E151.98965
G1 X170.648 Y213.923 E152.42146
