;FLAVOR:Marlin
;TIME:14753
;Filament used: 40.803m
;Layer height: 0.48
;MINX:59.029
;MINY:83.108
;MINZ:0.4
;MAXX:175.426
;MAXY:164.292
;MAXZ:54.16
;Generated with Cura_SteamEngine 5.3.1
M82 ;absolute extrusion mode
; START G-CODE BEGIN

M104 S230.0 ﻿T0
M140 S60.0

G28 ; Home all axes
G92 E0 ; Reset Extruder
M420 S1 ; Load Mesh

M109 S230.0 ﻿T0
M190 S60.0

G92 E0 ; Reset Extruder

G1 X0.6 Y20 Z0.3 F5000.0 ; Move to start position
G1 X0.6 Y200.0 Z0.3 F1500.0 E15 ; Draw the first line
G1 X0.9 Y200.0 Z0.3 F5000.0 ; Move to side a little
G1 X0.9 Y20 Z0.3 F1500.0 E30 ; Draw the second line
G92 E0 ; Reset Extruder
G1 Z2.0 F3000 ; Move Z Axis up little to prevent scratching of Heat Bed
G1 X5 Y20 Z0.3 F5000.0 ; Move over to prevent blob squish

; START G-CODE END
G92 E0
G92 E0
G1 F1500 E-6
;LAYER_COUNT:113
;LAYER:0
M107
G0 F6000 X62.223 Y85.435 Z0.4
;TYPE:SUPPORT-INTERFACE
G1 F1500 E0
G1 F1200 X110.648 Y85.435 E6.76461
G1 X110.648 Y88.119 E7.13955
G1 X62.223 Y88.119 E13.90416
G1 X62.223 Y85.435 E14.27909
G1 F1500 E8.27909
G0 F6000 X62.223 Y84.37
G0 X61.17 Y84.382
G0 X61.17 Y90.472
G0 X110.901 Y90.558
G0 X122.781 Y97.823
G0 X123.846 Y97.823
G1 F1500 E14.27909
G1 F1200 X172.271 Y97.823 E21.04371
G1 X172.271 Y100.507 E21.41864
G1 X123.846 Y100.507 E28.18325
G1 X123.846 Y97.823 E28.55819
G1 F1500 E22.55819
G0 F6000 X125.375 Y98.222
G1 F1500 E28.55819
G1 F1200 X127.26 Y100.107 E28.93058
G1 F1500 E22.93058
G0 F6000 X125.788 Y98.222
G1 F1500 E28.93058
G1 F1200 X124.245 Y99.765 E29.23541
G1 F1500 E23.23541
G0 F6000 X124.899 Y101.56
G0 X130.692 Y101.572
G0 X130.692 Y100.107
G1 F1500 E29.23541
G1 F1200 X132.576 Y98.222 E29.6077
G0 F6000 X132.163 Y98.222
G1 F1200 X134.048 Y100.107 E29.98009
G1 F1500 E23.98009
G0 F6000 X137.48 Y100.107
G1 F1500 E29.98009
G1 F1200 X139.365 Y98.222 E30.35248
G0 F6000 X138.952 Y98.222
G1 F1200 X140.836 Y100.107 E30.72478
G1 F1500 E24.72478
G0 F6000 X144.268 Y100.107
G1 F1500 E30.72478
G1 F1200 X146.153 Y98.222 E31.09717
G0 F6000 X145.74 Y98.222
G1 F1200 X147.624 Y100.107 E31.46946
G1 F1500 E25.46946
G0 F6000 X151.057 Y100.107
G1 F1500 E31.46946
G1 F1200 X152.941 Y98.222 E31.84175
G0 F6000 X152.528 Y98.222
G1 F1200 X154.413 Y100.107 E32.21414
G1 F1500 E26.21414
G0 F6000 X157.845 Y100.107
G1 F1500 E32.21414
G1 F1200 X159.729 Y98.222 E32.58644
G0 F6000 X159.316 Y98.222
G1 F1200 X161.201 Y100.107 E32.95883
G1 F1500 E26.95883
G0 F6000 X164.633 Y100.107
G1 F1500 E32.95883
G1 F1200 X166.517 Y98.222 E33.33112
G0 F6000 X166.105 Y98.222
G1 F1200 X167.989 Y100.107 E33.70341
G1 F1500 E27.70341
G0 F6000 X171.421 Y100.107
G1 F1500 E33.70341
G1 F1200 X171.87 Y99.658 E33.79212
G1 F1500 E27.79212
G0 F6000 X173.336 Y99.658
G0 X173.324 Y96.77
G0 X111.713 Y86.611
G0 X110.247 Y86.611
G1 F1500 E33.79212
G1 F1200 X109.139 Y87.718 E34.01091
G0 F6000 X108.082 Y87.718
G1 F1200 X106.199 Y85.834 E34.383
G1 F1500 E28.383
G0 F6000 X104.236 Y85.834
G1 F1500 E34.383
G1 F1200 X102.351 Y87.718 E34.7553
G0 F6000 X101.294 Y87.718
G1 F1200 X99.411 Y85.834 E35.12739
G1 F1500 E29.12739
G0 F6000 X97.447 Y85.834
G1 F1500 E35.12739
G1 F1200 X95.563 Y87.718 E35.49959
G0 F6000 X94.506 Y87.718
G1 F1200 X92.623 Y85.834 E35.87168
G1 F1500 E29.87168
G0 F6000 X90.659 Y85.834
G1 F1500 E35.87168
G1 F1200 X88.775 Y87.718 E36.24387
G0 F6000 X87.718 Y87.718
G1 F1200 X85.834 Y85.834 E36.61607
G1 F1500 E30.61607
G0 F6000 X83.871 Y85.834
G1 F1500 E36.61607
G1 F1200 X81.986 Y87.718 E36.98836
G0 F6000 X80.929 Y87.718
G1 F1200 X79.046 Y85.834 E37.36046
G1 F1500 E31.36046
G0 F6000 X77.083 Y85.834
G1 F1500 E37.36046
G1 F1200 X75.198 Y87.718 E37.73275
G0 F6000 X74.141 Y87.718
G1 F1200 X72.258 Y85.834 E38.10484
G1 F1500 E32.10484
G0 F6000 X70.294 Y85.834
G1 F1500 E38.10484
G1 F1200 X68.41 Y87.718 E38.47704
G0 F6000 X67.353 Y87.718
G1 F1200 X65.47 Y85.834 E38.84913
G1 F1500 E32.84913
G0 F6000 X63.506 Y85.834
G1 F1500 E38.84913
G1 F1200 X62.622 Y86.718 E39.02377
G1 F1500 E33.02377
;MESH:motor guard.stl
G0 F6000 X61.158 Y86.718
G0 X61.17 Y90.472
G0 X63.437 Y90.546
G0 X63.437 Y92.025
G0 X64.57 Y93.158
;TYPE:WALL-INNER
G1 F1500 E39.02377
G1 F1383.3 X68.194 Y93.159 E39.46294
G1 F1500 E33.46294
G0 F6000 X101.712 Y94.29
G0 X107.182 Y114.954
G0 X107.167 Y125.601
G0 X101.041 Y128.06
G0 X103.173 Y134.659
G0 X107.167 Y134.953
G0 X107.167 Y139.888
G0 X102.228 Y140.836
G0 X101.935 Y144.564
G0 X102.046 Y145.446
G0 X102.374 Y146.275
G0 X102.896 Y146.995
G0 X103.583 Y147.562
G0 X108.578 Y149.729
G0 X109.048 Y150.199
G1 F1500 E39.46294
G1 F1200 X109.048 Y146.035 E40.04462
G1 F1109.8 X108.983 Y145.637 E40.10553
G1 F939.3 X108.891 Y145.345 E40.16017
G1 F796 X108.799 Y145.052 E40.22484
G1 X108.639 Y145.313 E40.28931
G1 F939.3 X108.478 Y145.574 E40.34403
G1 F1109.8 X108.302 Y145.843 E40.39259
G1 F1200 X108.07 Y146.264 E40.45974
G1 X107.896 Y146.503 E40.50103
G1 X107.573 Y146.848 E40.56705
G1 X107.342 Y147.039 E40.60892
G1 X106.786 Y147.387 E40.70055
G1 X106.067 Y147.62 E40.80613
G1 F1201.5 X105.275 Y147.664 E40.9168
G1 X104.673 Y147.549 E41.00231
G1 X104.387 Y147.456 E41.04427
G1 F1200 X103.956 Y147.253 E41.11082
G1 X103.704 Y147.093 E41.15252
G1 X103.338 Y146.791 E41.2188
G1 X103.131 Y146.572 E41.2609
G1 X102.851 Y146.186 E41.32751
G1 X102.706 Y145.923 E41.36947
G1 X102.475 Y145.339 E41.4572
G1 X102.377 Y144.559 E41.56701
G1 X102.48 Y143.784 E41.67623
G1 X102.759 Y143.07 E41.78331
G1 X103.214 Y142.446 E41.89119
G1 X103.819 Y141.939 E42.00146
G1 X104.526 Y141.608 E42.11051
G1 X105.283 Y141.461 E42.21823
G1 X105.919 Y141.501 E42.30725
G1 X106.213 Y141.557 E42.34906
G1 X106.662 Y141.701 E42.41493
G1 X106.939 Y141.832 E42.45773
G1 X107.342 Y142.089 E42.5245
G1 X107.573 Y142.28 E42.56637
G1 X107.896 Y142.625 E42.63239
G1 X108.07 Y142.864 E42.67369
G1 X108.302 Y143.285 E42.74084
G1 F1060.8 X108.516 Y143.544 E42.79393
G1 F822.6 X108.786 Y143.965 E42.89585
G1 X108.943 Y143.491 E42.9976
G1 F1060.8 X109.048 Y143.093 E43.06265
G1 F1200 X109.048 Y131.748 E44.64746
G1 F1109.8 X108.983 Y131.35 E44.70837
G1 F939.3 X108.891 Y131.058 E44.763
G1 F796 X108.799 Y130.765 E44.82768
G1 X108.639 Y131.026 E44.89215
G1 F939.3 X108.478 Y131.287 E44.94687
G1 F1109.8 X108.302 Y131.556 E44.99543
G1 F1200 X108.07 Y131.977 E45.06257
G1 X107.896 Y132.216 E45.10387
G1 X107.573 Y132.561 E45.16989
G1 X107.342 Y132.752 E45.21176
G1 X106.939 Y133.009 E45.27853
G1 X106.662 Y133.14 E45.32134
G1 X106.213 Y133.284 E45.3872
G1 X105.919 Y133.34 E45.42901
G1 X105.284 Y133.38 E45.51789
G1 X104.526 Y133.233 E45.62575
G1 X103.818 Y132.901 E45.73499
G1 X103.241 Y132.422 E45.83975
G1 X102.763 Y131.778 E45.95178
G1 X102.473 Y131.05 E46.06125
G1 X102.379 Y130.276 E46.17017
G1 X102.474 Y129.514 E46.27744
G1 X102.76 Y128.782 E46.38722
G1 X103.225 Y128.143 E46.49761
G1 X103.824 Y127.65 E46.60599
G1 X104.523 Y127.321 E46.71391
G1 X105.288 Y127.174 E46.82273
G1 X105.919 Y127.214 E46.91105
G1 X106.213 Y127.27 E46.95286
G1 X106.662 Y127.414 E47.01873
G1 X106.939 Y127.545 E47.06153
G1 X107.342 Y127.802 E47.1283
G1 X107.573 Y127.993 E47.17017
G1 X107.896 Y128.338 E47.23619
G1 X108.07 Y128.577 E47.27749
G1 X108.302 Y128.998 E47.34464
G1 F1060.8 X108.516 Y129.257 E47.39773
G1 F822.6 X108.786 Y129.678 E47.49965
G1 X108.943 Y129.204 E47.6014
G1 F1060.8 X109.048 Y128.806 E47.66644
G1 F1200 X109.048 Y114.463 E49.67005
G1 X108.759 Y113.949 E49.75243
G1 X108.273 Y113.003 E49.901
G1 X107.854 Y112.104 E50.03955
G1 X107.399 Y111.049 E50.20005
G1 X107.002 Y110.04 E50.35151
G1 X106.598 Y108.929 E50.51666
G1 X106.23 Y107.835 E50.67789
G1 X105.885 Y106.721 E50.8408
G1 X105.505 Y105.396 E51.03336
G1 X105.195 Y104.218 E51.20352
G1 X104.864 Y102.854 E51.39959
G1 X104.567 Y101.522 E51.59023
G1 X104.215 Y99.786 E51.83767
G1 X104.225 Y99.773 E51.83996
G1 X104.039 Y98.812 E51.9767
G1 X103.868 Y97.724 E52.13055
G1 X103.862 Y97.719 E52.13164
G1 X103.558 Y95.827 E52.39933
G1 X103.467 Y95.104 E52.50112
G1 X103.522 Y94.778 E52.5473
G1 X103.647 Y94.489 E52.59129
G1 X103.883 Y94.205 E52.64287
G1 X104.239 Y93.988 E52.70111
G1 X104.529 Y93.906 E52.74321
G1 X109.048 Y93.905 E53.37448
G1 X109.048 Y92.411 E53.58318
G1 X63.823 Y92.411 E59.90078
G1 X63.823 Y93.905 E60.10948
G1 X68.194 Y93.906 E60.72008
G1 X68.632 Y93.989 E60.78235
G1 X68.989 Y94.205 E60.84064
G1 X69.224 Y94.489 E60.89213
G1 X69.349 Y94.779 E60.93625
G1 X69.404 Y95.104 E60.98229
G1 X69.309 Y95.858 E61.08845
G1 X69.017 Y97.749 E61.35574
G1 X69.005 Y97.758 E61.35784
G1 X68.836 Y98.784 E61.50309
G1 X68.632 Y99.8 E61.64786
G1 X68.638 Y99.808 E61.64925
G1 X68.298 Y101.542 E61.89609
G1 X68.001 Y102.875 E62.08687
G1 X67.687 Y104.168 E62.27274
G1 X67.353 Y105.434 E62.45564
G1 X66.995 Y106.69 E62.63808
G1 X66.627 Y107.873 E62.81115
G1 X66.257 Y108.973 E62.97327
G1 X65.853 Y110.079 E63.13776
G1 X65.446 Y111.111 E63.29273
G1 X64.994 Y112.155 E63.45165
G1 X64.586 Y113.027 E63.58613
G1 X64.104 Y113.965 E63.73345
G1 X63.823 Y114.463 E63.81333
G1 X63.823 Y128.769 E65.81177
G1 F1021.3 X63.964 Y129.247 E65.89357
G1 F795.4 X64.09 Y129.623 E65.97715
G1 X64.299 Y129.311 E66.0563
G1 F1021.3 X64.606 Y128.918 E66.13815
G1 F1200 X64.751 Y128.654 E66.18023
G1 X65.031 Y128.27 E66.24662
G1 X65.238 Y128.05 E66.28881
G1 X65.603 Y127.748 E66.35499
G1 X65.856 Y127.588 E66.39681
G1 X66.287 Y127.385 E66.46336
G1 X66.573 Y127.292 E66.50537
G1 X67.039 Y127.203 E66.57164
G1 X67.341 Y127.184 E66.61391
G1 X67.979 Y127.224 E66.70321
G1 X68.717 Y127.471 E66.81193
G1 X69.354 Y127.875 E66.9173
G1 X69.893 Y128.439 E67.02628
G1 X70.277 Y129.136 E67.13744
G1 X70.468 Y129.891 E67.24623
G1 X70.466 Y130.674 E67.35561
G1 X70.279 Y131.406 E67.46115
G1 X69.906 Y132.096 E67.57072
G1 X69.372 Y132.666 E67.67983
G1 X68.707 Y133.093 E67.79023
G1 X67.972 Y133.33 E67.89811
G1 X67.341 Y133.37 E67.98643
G1 X67.037 Y133.351 E68.02898
G1 X66.571 Y133.261 E68.09528
G1 X66.29 Y133.17 E68.13654
G1 X65.859 Y132.967 E68.20309
G1 X65.603 Y132.805 E68.24541
G1 X65.235 Y132.5 E68.31218
G1 X65.03 Y132.282 E68.35398
G1 X64.751 Y131.899 E68.42018
G1 F1197 X64.604 Y131.636 E68.46237
G1 F990.7 X64.274 Y131.254 E68.54778
G1 F774.2 X64.095 Y131.003 E68.61453
G1 X63.991 Y131.308 E68.68431
G1 F990.7 X63.825 Y131.785 E68.76976
G1 F1197 X63.823 Y143.056 E70.34818
G1 F1021.3 X63.964 Y143.533 E70.42982
G1 F795.4 X64.09 Y143.91 E70.5136
G1 X64.299 Y143.597 E70.59292
G1 F1021.3 X64.606 Y143.205 E70.67465
G1 F1200 X64.751 Y142.942 E70.7166
G1 X65.03 Y142.559 E70.78279
G1 X65.235 Y142.341 E70.82459
G1 X65.603 Y142.036 E70.89136
G1 X65.859 Y141.874 E70.93368
G1 X66.29 Y141.671 E71.00023
G1 X66.571 Y141.58 E71.04149
G1 X67.037 Y141.49 E71.10779
G1 X67.341 Y141.471 E71.15034
G1 X67.972 Y141.511 E71.23867
G1 X68.707 Y141.748 E71.34655
G1 X69.371 Y142.175 E71.45683
G1 X69.899 Y142.734 E71.56424
G1 X70.274 Y143.426 E71.67419
G1 X70.465 Y144.172 E71.78176
G1 X70.47 Y144.954 E71.891
G1 X70.315 Y145.558 E71.97811
G1 X70.202 Y145.843 E72.02094
G1 X69.97 Y146.263 E72.08797
G1 X69.796 Y146.503 E72.12938
G1 X69.473 Y146.848 E72.1954
G1 X69.242 Y147.039 E72.23727
G1 X68.839 Y147.297 E72.30411
G1 X68.563 Y147.427 E72.34673
G1 X67.965 Y147.62 E72.43451
G1 X67.175 Y147.664 E72.54504
G1 X66.573 Y147.549 E72.63065
G1 X66.287 Y147.456 E72.67266
G1 X65.856 Y147.253 E72.73921
G1 X65.603 Y147.093 E72.78103
G1 X65.238 Y146.791 E72.84721
G1 X65.031 Y146.571 E72.88941
G1 X64.751 Y146.187 E72.95579
G1 F1197 X64.604 Y145.924 E72.99799
G1 F989.7 X64.273 Y145.541 E73.08373
G1 F773.6 X64.095 Y145.29 E73.15041
G1 X63.992 Y145.594 E73.21996
G1 F989.7 X63.825 Y146.072 E73.30572
G1 F1197 X63.824 Y150.199 E73.88368
G1 F1200 X109.048 Y150.199 E80.20113
G0 F6000 X108.578 Y149.729
G0 X108.624 Y146.138
G0 X108.799 Y145.052
G1 F745.3 X108.809 Y144.802 E80.2574
G1 F751.2 X108.809 Y144.326 E80.36363
G1 F737.9 X108.786 Y143.965 E80.4458
G0 F6000 X108.624 Y142.99
G0 X108.357 Y142.477
G0 X107.75 Y141.829
G0 X106.997 Y141.351
G0 X106.15 Y141.076
G0 X105.261 Y141.02
G0 X104.388 Y141.188
G0 X103.583 Y141.566
G0 X102.895 Y142.135
G0 X102.374 Y142.854
G0 X102.046 Y143.681
G0 X101.935 Y144.564
G0 X102.024 Y145.277
G0 X103.112 Y148.598
G1 F1200 X102.685 Y148.327 E80.51645
G1 X102.32 Y148.026 E80.58254
G1 X101.837 Y147.513 E80.68097
G1 X101.557 Y147.128 E80.74747
G1 X101.218 Y146.512 E80.84569
G1 X101.042 Y146.068 E80.91241
G1 X100.929 Y145.716 E80.96405
G1 X100.867 Y145.384 E81.01123
G1 X100.808 Y144.912 E81.07768
G1 X100.787 Y144.543 E81.12931
G1 X100.808 Y144.216 E81.17508
G1 X100.867 Y143.744 E81.24153
G1 X100.912 Y143.485 E81.27825
G1 X100.989 Y143.194 E81.3203
G1 X101.273 Y142.478 E81.4279
G1 X101.411 Y142.223 E81.46841
G1 X101.558 Y142 E81.50572
G1 X101.923 Y141.505 E81.59163
G1 X102.193 Y141.209 E81.6476
G1 X102.681 Y140.805 E81.7361
G1 X102.944 Y140.611 E81.78175
G1 X103.28 Y140.425 E81.8354
G1 X103.711 Y140.223 E81.90189
G1 X104.019 Y140.1 E81.94822
G1 X104.368 Y140.009 E81.9986
G1 X105.086 Y139.876 E82.10061
G1 X105.54 Y139.874 E82.16403
G1 X106.019 Y139.904 E82.23107
G1 X106.705 Y140.034 E82.32861
G1 X107.154 Y140.179 E82.39452
G1 X107.448 Y140.317 E82.43989
G1 X107.448 Y134.524 E83.24913
G1 X107.154 Y134.662 E83.2945
G1 X106.705 Y134.807 E83.36041
G1 X106.019 Y134.937 E83.45794
G1 X105.54 Y134.967 E83.52499
G1 X105.086 Y134.966 E83.58841
G1 X104.368 Y134.832 E83.69044
G1 X104.019 Y134.742 E83.74079
G1 X103.711 Y134.618 E83.78717
G1 X103.28 Y134.416 E83.85366
G1 X102.944 Y134.23 E83.90731
G1 X102.681 Y134.037 E83.95288
G1 X102.197 Y133.636 E84.04068
G1 X101.923 Y133.336 E84.09744
G1 X101.483 Y132.739 E84.20104
G1 X101.297 Y132.414 E84.25335
G1 X101.043 Y131.783 E84.34837
G1 X100.951 Y131.513 E84.38821
G1 X100.878 Y131.176 E84.43638
G1 X100.793 Y130.471 E84.53558
G1 X100.793 Y130.083 E84.58978
G1 X100.891 Y129.301 E84.69987
G1 X100.988 Y128.921 E84.75466
G1 X101.284 Y128.176 E84.86664
G1 X101.514 Y127.774 E84.93134
G1 X101.939 Y127.196 E85.03156
G1 X102.171 Y126.941 E85.07972
G1 X102.79 Y126.427 E85.19211
G1 X103.159 Y126.194 E85.25307
G1 X103.705 Y125.937 E85.33737
G1 X104.004 Y125.817 E85.38238
G1 X104.373 Y125.72 E85.43568
G1 X104.839 Y125.631 E85.50195
G1 X105.165 Y125.588 E85.54789
G1 X105.54 Y125.587 E85.60027
G1 X106.019 Y125.617 E85.66731
G1 X106.705 Y125.747 E85.76485
G1 X107.154 Y125.892 E85.83076
G1 X107.448 Y126.03 E85.87613
G1 X107.448 Y114.881 E87.43356
G1 X107.314 Y114.64 E87.47208
G1 X106.869 Y113.773 E87.60822
G1 X106.385 Y112.739 E87.7677
G1 X105.91 Y111.636 E87.93546
G1 X105.498 Y110.587 E88.09289
G1 X105.092 Y109.471 E88.25879
G1 X104.702 Y108.309 E88.43001
G1 X104.347 Y107.163 E88.5976
G1 X103.957 Y105.803 E88.79524
G1 X103.653 Y104.646 E88.96235
G1 X103.303 Y103.204 E89.16964
G1 X102.999 Y101.842 E89.36458
G1 X102.625 Y100.011 E89.62564
G1 X102.638 Y99.994 E89.62863
G1 X102.458 Y99.06 E89.7615
G1 X101.97 Y96.028 E90.1905
G1 X101.899 Y95.457 E90.27088
G1 X101.88 Y94.947 E90.34217
G1 X101.983 Y94.342 E90.4279
G1 X102.126 Y94.01 E90.4784
G1 X70.746 Y94.011 E94.86195
G1 X70.889 Y94.343 E94.91245
G1 X70.991 Y94.948 E94.99815
G1 X70.972 Y95.457 E95.06931
G1 X70.891 Y96.1 E95.15984
G1 X70.587 Y98.09 E95.44105
G1 X70.57 Y98.103 E95.44404
G1 X70.405 Y99.1 E95.58521
G1 X70.214 Y100.051 E95.72071
G1 X70.218 Y100.057 E95.72172
G1 X69.86 Y101.89 E95.98261
G1 X69.556 Y103.253 E96.17769
G1 X69.248 Y104.522 E96.36011
G1 X68.892 Y105.873 E96.55528
G1 X68.523 Y107.165 E96.74297
G1 X68.144 Y108.382 E96.92103
G1 X67.76 Y109.521 E97.08894
G1 X67.342 Y110.666 E97.25922
G1 X66.915 Y111.746 E97.42145
G1 X66.444 Y112.832 E97.58681
G1 X66.01 Y113.757 E97.72954
G1 X65.423 Y114.882 E97.9068
G1 X65.423 Y125.996 E99.45934
G1 X66.273 Y125.72 E99.58418
G1 X66.739 Y125.631 E99.65046
G1 X67.441 Y125.587 E99.74871
G1 X67.919 Y125.617 E99.81562
G1 X68.292 Y125.665 E99.86815
G1 X68.605 Y125.747 E99.91335
G1 X69.054 Y125.892 E99.97926
G1 X69.308 Y125.988 E100.0172
G1 X69.588 Y126.124 E100.06068
G1 X70.245 Y126.55 E100.17006
G1 X70.514 Y126.765 E100.21817
G1 X71.037 Y127.326 E100.32531
G1 X71.265 Y127.617 E100.37695
G1 X71.686 Y128.377 E100.49832
G1 X71.821 Y128.731 E100.55124
G1 X72.017 Y129.498 E100.66183
G1 X72.065 Y129.883 E100.71603
G1 X72.065 Y130.671 E100.8261
G1 X72.017 Y131.058 E100.88058
G1 X71.866 Y131.666 E100.96809
