;FLAVOR:Marlin
;TIME:22272
;Filament used: 78.9947m
;Layer height: 0.48
;MINX:36.746
;MINY:72.757
;MINZ:0.4
;MAXX:198.356
;MAXY:161.612
;MAXZ:55.12
;Generated with Cura_SteamEngine 5.3.1
M82 ;absolute extrusion mode
; START G-CODE BEGIN

M104 S240.0 ﻿T0
M140 S60.0

G28 ; Home all axes
G92 E0 ; Reset Extruder
M420 S1 ; Load Mesh

M109 S240.0 ﻿T0
M190 S60.0

G92 E0 ; Reset Extruder

G1 X0.6 Y20 Z0.3 F5000.0 ; Move to start position
G1 X0.6 Y200.0 Z0.3 F1500.0 E15 ; Draw the first line
G1 X0.9 Y200.0 Z0.3 F5000.0 ; Move to side a little
G1 X0.9 Y20 Z0.3 F1500.0 E30 ; Draw the second line
G92 E0 ; Reset Extruder
G1 Z2.0 F3000 ; Move Z Axis up little to prevent scratching of Heat Bed
G1 X5 Y20 Z0.3 F5000.0 ; Move over to prevent blob squish

; START G-CODE END
G92 E0
G92 E0
G1 F2700 E-4
;LAYER_COUNT:115
;LAYER:0
M107
G0 F6000 X38.725 Y90.466 Z0.4
;TYPE:SUPPORT-INTERFACE
G1 F2700 E0
G1 F1200 X195.067 Y87.295 E36.5112
G1 X195.092 Y88.474 E36.78654
G1 X195.111 Y89.405 E37.00396
G1 X195.187 Y93.123 E37.87224
G1 X195.186 Y93.123 E37.87248
G1 X195.146 Y91.133 E38.33721
G1 X38.803 Y94.303 E74.84864
G1 X38.843 Y96.293 E75.31337
G1 X38.787 Y93.545 E75.95512
G1 X38.725 Y90.466 E76.67417
G1 F2700 E72.67417
G0 F6000 X40.072 Y156.924
G1 F2700 E76.67417
G1 F1200 X196.416 Y153.755 E113.18583
G1 X196.395 Y152.739 E113.4231
G1 X196.396 Y152.739 E113.42333
G1 X196.437 Y154.763 E113.89601
G1 X196.466 Y156.226 E114.23766
G1 X40.122 Y159.396 E150.74933
G1 X40.072 Y156.924 E151.32662
G1 F2700 E147.32662
G0 F6000 X150.583 Y127.323
G1 F2700 E151.32662
G1 F1200 X150.404 Y126.552 E151.51143
G1 X150.389 Y125.76 E151.69638
G1 X150.538 Y124.977 E151.88248
G1 X150.846 Y124.244 E152.06812
G1 X151.298 Y123.589 E152.25393
G1 X151.877 Y123.044 E152.43959
G1 X152.561 Y122.631 E152.62615
G1 X153.31 Y122.373 E152.81112
G1 X154.1 Y122.271 E152.9971
G1 X154.873 Y122.339 E153.17828
G1 X155.65 Y122.575 E153.36788
G1 X156.335 Y122.951 E153.55033
G1 X156.942 Y123.478 E153.73802
G1 X157.418 Y124.108 E153.92238
G1 X157.756 Y124.828 E154.1081
G1 X157.936 Y125.601 E154.29341
G1 X157.952 Y126.4 E154.48
G1 X157.804 Y127.18 E154.66537
G1 X157.494 Y127.915 E154.85162
G1 X157.042 Y128.568 E155.03705
G1 X156.456 Y129.119 E155.22486
G1 X155.782 Y129.527 E155.40882
G1 X155.04 Y129.783 E155.59208
G1 X154.251 Y129.885 E155.77784
G1 X153.458 Y129.818 E155.96365
G1 X152.692 Y129.586 E156.15052
G1 X152.011 Y129.21 E156.33215
G1 X151.402 Y128.681 E156.5205
G1 X150.922 Y128.046 E156.70636
G1 X150.583 Y127.323 E156.8928
G1 F2700 E152.8928
G0 F6000 X152.872 Y126.27
G1 F2700 E156.8928
G1 F1200 X153.016 Y126.596 E156.97602
G1 X153.234 Y126.869 E157.05759
G1 X153.514 Y127.076 E157.13889
G1 X153.847 Y127.207 E157.22244
G1 X154.191 Y127.244 E157.30322
G1 X154.542 Y127.192 E157.38607
G1 X154.862 Y127.051 E157.46772
G1 X155.136 Y126.83 E157.54991
G1 X155.348 Y126.543 E157.63322
G1 X155.473 Y126.22 E157.71408
G1 X155.51 Y125.884 E157.79301
G1 X155.461 Y125.548 E157.87229
G1 X155.351 Y125.301 E157.93542
G1 X155.101 Y124.984 E158.02969
G1 X154.812 Y124.773 E158.11323
G1 X154.49 Y124.645 E158.19414
G1 X154.141 Y124.608 E158.27608
G1 X153.791 Y124.66 E158.3587
G1 X153.473 Y124.801 E158.43992
G1 X153.2 Y125.021 E158.52178
G1 X152.957 Y125.35 E158.61728
G1 X152.86 Y125.601 E158.68011
G1 X152.823 Y125.939 E158.7595
G1 X152.872 Y126.27 E158.83763
G1 F2700 E154.83763
G0 F6000 X163.101 Y126.294
G1 F2700 E158.83763
G1 F1200 X163.086 Y125.503 E159.02235
G1 X163.236 Y124.716 E159.20941
G1 X163.54 Y123.99 E159.39318
G1 X163.998 Y123.328 E159.58113
G1 X164.577 Y122.786 E159.76631
G1 X165.246 Y122.38 E159.94903
G1 X166.011 Y122.114 E160.13813
G1 X166.801 Y122.015 E160.32403
G1 X167.576 Y122.083 E160.50568
G1 X168.344 Y122.315 E160.693
G1 X169.034 Y122.697 E160.87715
G1 X169.632 Y123.216 E161.06202
G1 X170.121 Y123.859 E161.25064
G1 X170.454 Y124.573 E161.43459
G1 X170.634 Y125.348 E161.62035
G1 X170.649 Y126.143 E161.80601
G1 X170.501 Y126.923 E161.99138
G1 X170.191 Y127.658 E162.17763
G1 X169.737 Y128.314 E162.3639
G1 X169.159 Y128.858 E162.54923
G1 X168.48 Y129.268 E162.73442
G1 X167.731 Y129.526 E162.91939
G1 X166.95 Y129.627 E163.10326
G1 X166.158 Y129.56 E163.28884
G1 X165.395 Y129.329 E163.47498
G1 X164.704 Y128.948 E163.65922
G1 X164.096 Y128.423 E163.84677
G1 X163.62 Y127.791 E164.03151
G1 X163.281 Y127.068 E164.21795
G1 X163.101 Y126.294 E164.4035
G1 F2700 E160.4035
G0 F6000 X165.57 Y126.015
G1 F2700 E164.4035
G1 F1200 X165.712 Y126.337 E164.48566
G1 X165.931 Y126.611 E164.56756
G1 X166.212 Y126.819 E164.64919
G1 X166.543 Y126.949 E164.73222
G1 X166.89 Y126.987 E164.81373
G1 X167.24 Y126.935 E164.89634
G1 X167.561 Y126.793 E164.9783
G1 X167.834 Y126.573 E165.06016
G1 X168.043 Y126.289 E165.14249
G1 X168.171 Y125.961 E165.2247
G1 X168.208 Y125.626 E165.30339
G1 X168.156 Y125.289 E165.38301
G1 X168.049 Y125.041 E165.44607
G1 X167.798 Y124.727 E165.53993
G1 X167.513 Y124.518 E165.62245
G1 X167.184 Y124.388 E165.70505
G1 X166.837 Y124.35 E165.78655
G1 X166.488 Y124.403 E165.86897
G1 X166.17 Y124.543 E165.9501
G1 X165.896 Y124.764 E166.03229
G1 X165.658 Y125.088 E166.12616
G1 X165.556 Y125.346 E166.19093
G1 X165.52 Y125.68 E166.26937
G1 X165.57 Y126.015 E166.34845
G1 X165.36 Y126.533
G1 X164.113 Y127.78 E166.76021
G1 F2700 E162.76021
G0 F6000 X165.438 Y124.709
G1 F2700 E166.76021
G1 F1200 X164.311 Y123.582 E167.13235
G1 F2700 E163.13235
G0 F6000 X167.719 Y124.174
G1 F2700 E167.13235
G1 F1200 X168.837 Y123.056 E167.50151
G1 F2700 E163.50151
G0 F6000 X167.824 Y127.095
G1 F2700 E167.50151
G1 F1200 X169.096 Y128.366 E167.92136
G1 F2700 E163.92136
G0 F6000 X156.049 Y128.896
G1 F2700 E167.92136
G1 F1200 X154.708 Y127.555 E168.36416
G1 F2700 E164.36416
G0 F6000 X152.425 Y125.891
G1 F2700 E168.36416
G1 F1200 X151.014 Y127.302 E168.83007
G1 F2700 E164.83007
G0 F6000 X152.52 Y125.367
G1 F2700 E168.83007
G1 F1200 X151.357 Y124.204 E169.21409
G1 F2700 E165.21409
G0 F6000 X154.108 Y124.208
G1 F2700 E169.21409
G1 F1200 X155.4 Y122.917 E169.64054
G1 F2700 E165.64054
G0 F6000 X152.783 Y91.592
G1 F2700 E169.64054
G1 F1200 X155.886 Y88.489 E170.66515
G1 X156.362 Y88.48
G1 X159.34 Y91.458 E171.64848
G1 X159.712 Y91.452
G1 X162.815 Y88.348 E172.67326
G1 X163.015 Y88.345
G1 X165.994 Y91.323 E173.65675
G0 F6000 X166.641 Y91.311
G1 F1200 X169.743 Y88.208 E174.6812
G1 X169.669 Y88.21
G1 X172.647 Y91.189 E175.6647
G0 F6000 X173.569 Y91.17
G1 F1200 X176.672 Y88.068 E176.68914
G1 X176.322 Y88.075
G1 X179.301 Y91.054 E177.6728
G0 F6000 X180.498 Y91.03
G1 F1200 X183.601 Y87.927 E178.69741
G0 F6000 X182.975 Y87.94
G1 F1200 X185.954 Y90.919 E179.68108
G0 F6000 X187.427 Y90.89
G1 F1200 X190.53 Y87.786 E180.70585
G0 F6000 X189.629 Y87.805
G1 F1200 X192.608 Y90.784 E181.68951
G1 F2700 E177.68951
G0 F6000 X194.356 Y90.749
G1 F2700 E181.68951
G1 F1200 X194.729 Y90.376 E181.81268
G1 F2700 E177.81268
G0 F6000 X194.115 Y92.207
G0 X152.716 Y93.057
G0 X152.687 Y91.593
G1 F2700 E181.81268
G1 F1200 X149.709 Y88.615 E182.79601
G0 F6000 X148.957 Y88.63
G1 F1200 X145.854 Y91.732 E183.82045
G1 X146.034 Y91.728
G1 X143.056 Y88.75 E184.80379
G0 F6000 X142.029 Y88.77
G1 F1200 X138.926 Y91.872 E185.82823
G1 X139.38 Y91.863
G1 X136.403 Y88.885 E186.8114
G0 F6000 X135.1 Y88.91
G1 F1200 X131.997 Y92.013 E187.83601
G0 F6000 X132.727 Y91.998
G1 F1200 X129.749 Y89.02 E188.81934
G1 F2700 E184.81934
G0 F6000 X128.171 Y89.051
G1 F2700 E188.81934
G1 F1200 X125.068 Y92.154 E189.84395
G0 F6000 X126.074 Y92.133
G1 F1200 X123.095 Y89.154 E190.82761
G1 F2700 E186.82761
G0 F6000 X121.242 Y89.192
G1 F2700 E190.82761
G1 F1200 X118.14 Y92.294 E191.85189
G0 F6000 X119.421 Y92.268
G1 F1200 X116.442 Y89.289 E192.83555
G1 F2700 E188.83555
G0 F6000 X114.314 Y89.332
G1 F2700 E192.83555
G1 F1200 X111.211 Y92.435 E193.86016
G1 F2700 E189.86016
G0 F6000 X112.767 Y92.402
G1 F2700 E193.86016
G1 F1200 X109.789 Y89.424 E194.8435
G1 F2700 E190.8435
G0 F6000 X107.385 Y89.473
G1 F2700 E194.8435
G1 F1200 X104.282 Y92.575 E195.86794
G1 F2700 E191.86794
G0 F6000 X106.114 Y92.537
G1 F2700 E195.86794
G1 F1200 X103.136 Y89.56 E196.85111
G1 F2700 E192.85111
G0 F6000 X100.456 Y89.613
G1 F2700 E196.85111
G1 F1200 X97.354 Y92.715 E197.87539
G1 F2700 E193.87539
G0 F6000 X99.46 Y92.672
G1 F2700 E197.87539
G1 F1200 X96.483 Y89.695 E198.85839
G1 F2700 E194.85839
G0 F6000 X93.528 Y89.753
G1 F2700 E198.85839
G1 F1200 X90.425 Y92.856 E199.883
G1 F2700 E195.883
G0 F6000 X92.807 Y92.807
G1 F2700 E199.883
G1 F1200 X89.829 Y89.829 E200.86633
G1 F2700 E196.86633
G0 F6000 X86.599 Y89.894
G1 F2700 E200.86633
G1 F1200 X83.497 Y92.996 E201.89061
G1 F2700 E197.89061
G0 F6000 X86.153 Y92.942
G1 F2700 E201.89061
G1 F1200 X83.176 Y89.964 E202.87378
G1 F2700 E198.87378
G0 F6000 X79.67 Y90.035
G1 F2700 E202.87378
G1 F1200 X76.568 Y93.137 E203.89806
G1 F2700 E199.89806
G0 F6000 X79.5 Y93.077
G1 F2700 E203.89806
G1 F1200 X76.523 Y90.099 E204.88122
G1 F2700 E200.88122
G0 F6000 X72.741 Y90.175
G1 F2700 E204.88122
G1 F1200 X69.639 Y93.277 E205.9055
G1 F2700 E201.9055
G0 F6000 X69.869 Y90.234
G1 F2700 E205.9055
G1 F1200 X72.847 Y93.212 E206.88884
G1 F2700 E202.88884
G0 F6000 X72.876 Y94.676
G0 X66.222 Y94.811
G0 X66.193 Y93.346
G1 F2700 E206.88884
G1 F1200 X63.216 Y90.369 E207.87184
G1 F2700 E203.87184
G0 F6000 X65.813 Y90.315
G1 F2700 E207.87184
G1 F1200 X62.711 Y93.417 E208.89612
G1 F2700 E204.89612
G0 F6000 X59.54 Y93.481
G1 F2700 E208.89612
G1 F1200 X56.563 Y90.504 E209.87912
G1 F2700 E205.87912
G0 F6000 X58.884 Y90.456
G1 F2700 E209.87912
G1 F1200 X55.782 Y93.558 E210.9034
G1 F2700 E206.9034
G0 F6000 X52.887 Y93.616
G1 F2700 E210.9034
G1 F1200 X49.909 Y90.639 E211.88657
G1 F2700 E207.88657
G0 F6000 X51.955 Y90.597
G1 F2700 E211.88657
G1 F1200 X48.853 Y93.699 E212.91084
G1 F2700 E208.91084
G0 F6000 X46.234 Y93.751
G1 F2700 E212.91084
G1 F1200 X43.256 Y90.774 E213.89401
G1 F2700 E209.89401
G0 F6000 X45.027 Y90.737
G1 F2700 E213.89401
G1 F1200 X41.925 Y93.839 E214.91829
G1 F2700 E210.91829
G0 F6000 X39.58 Y93.886
G1 F2700 E214.91829
G1 F1200 X39.185 Y93.491 E215.04872
G1 F2700 E211.04872
G0 F6000 X41.886 Y157.286
G1 F2700 E215.04872
G1 F1200 X43.525 Y158.925 E215.58992
G0 F6000 X44.745 Y158.901
G1 F1200 X46.453 Y157.193 E216.1539
G1 F2700 E212.1539
G0 F6000 X48.54 Y157.152
G1 F2700 E216.1539
G1 F1200 X50.179 Y158.79 E216.69493
G0 F6000 X51.673 Y158.761
G1 F1200 X53.381 Y157.053 E217.25891
G1 F2700 E213.25891
G0 F6000 X55.193 Y157.017
G1 F2700 E217.25891
G1 F1200 X56.833 Y158.656 E217.80027
G1 F2700 E213.80027
G0 F6000 X58.602 Y158.621
G1 F2700 E217.80027
G1 F1200 X60.31 Y156.912 E218.36442
G1 F2700 E214.36442
G0 F6000 X61.847 Y156.882
G1 F2700 E218.36442
G1 F1200 X63.486 Y158.521 E218.90561
G1 F2700 E214.90561
G0 F6000 X65.531 Y158.48
G1 F2700 E218.90561
G1 F1200 X67.238 Y156.772 E219.46943
G0 F6000 X68.5 Y156.747
G1 F1200 X70.139 Y158.386 E220.01062
G1 F2700 E216.01062
G0 F6000 X72.459 Y158.34
G1 F2700 E220.01062
G1 F1200 X74.167 Y156.631 E220.57477
G0 F6000 X75.154 Y156.612
G1 F1200 X76.792 Y158.251 E221.1158
G1 F2700 E217.1158
G0 F6000 X79.388 Y158.199
G1 F2700 E221.1158
G1 F1200 X81.095 Y156.491 E221.67962
G0 F6000 X81.807 Y156.477
G1 F1200 X83.446 Y158.116 E222.22081
G1 F2700 E218.22081
G0 F6000 X86.317 Y158.058
G1 F2700 E222.22081
G1 F1200 X88.024 Y156.351 E222.78446
G1 X88.461 Y156.343
G1 X90.099 Y157.981 E223.32533
G1 F2700 E219.32533
G0 F6000 X93.245 Y157.918
G1 F2700 E223.32533
G1 F1200 X94.953 Y156.211 E223.88915
G1 X95.114 Y156.208
G1 X96.752 Y157.846 E224.43001
G1 F2700 E220.43001
G0 F6000 X100.174 Y157.778
G1 F2700 E224.43001
G1 F1200 X101.882 Y156.07 E224.99399
G1 X101.767 Y156.073
G1 X103.406 Y157.712 E225.53519
G1 F2700 E221.53519
G0 F6000 X107.102 Y157.638
G1 F2700 E225.53519
G1 F1200 X108.81 Y155.93 E226.09917
G1 X108.421 Y155.938
G1 X110.059 Y157.577 E226.6402
G1 F2700 E222.6402
G0 F6000 X114.031 Y157.497
G1 F2700 E226.6402
G1 F1200 X115.739 Y155.789 E227.20418
G0 F6000 X115.074 Y155.803
G1 F1200 X116.712 Y157.442 E227.74521
G1 F2700 E223.74521
G0 F6000 X120.96 Y157.356
G1 F2700 E227.74521
G1 F1200 X122.668 Y155.649 E228.30903
G0 F6000 X121.727 Y155.668
G1 F1200 X123.366 Y157.307 E228.85022
G1 F2700 E224.85022
G0 F6000 X127.888 Y157.216
G1 F2700 E228.85022
G1 F1200 X129.596 Y155.509 E229.41404
G0 F6000 X128.381 Y155.534
G1 F1200 X130.019 Y157.172 E229.95491
G1 F2700 E225.95491
G0 F6000 X134.817 Y157.075
G1 F2700 E229.95491
G1 F1200 X136.525 Y155.368 E230.51872
G0 F6000 X135.034 Y155.399
G1 F1200 X136.673 Y157.037 E231.05975
G1 F2700 E227.05975
G0 F6000 X141.746 Y156.935
G1 F2700 E231.05975
G1 F1200 X143.453 Y155.228 E231.6234
G1 F2700 E227.6234
G0 F6000 X143.326 Y156.902
G1 F2700 E231.6234
G1 F1200 X141.687 Y155.264 E232.16443
G1 F2700 E228.16443
G0 F6000 X141.658 Y153.801
G0 X148.312 Y153.666
G0 X148.341 Y155.13
G1 F2700 E232.16443
G1 F1200 X149.979 Y156.767 E232.70514
G0 F6000 X148.674 Y156.795
G1 F1200 X150.382 Y155.087 E233.26912
G1 F2700 E229.26912
G0 F6000 X154.994 Y154.994
G1 F2700 E233.26912
G1 F1200 X156.633 Y156.633 E233.81031
G0 F6000 X155.603 Y156.654
G1 F1200 X157.31 Y154.947 E234.37396
G1 F2700 E230.37396
G0 F6000 X161.648 Y154.86
G1 F2700 E234.37396
G1 F1200 X163.286 Y156.498 E234.91483
G0 F6000 X162.532 Y156.514
G1 F1200 X164.239 Y154.806 E235.47865
G1 F2700 E231.47865
G0 F6000 X168.302 Y154.725
G1 F2700 E235.47865
G1 F1200 X169.939 Y156.363 E236.01935
G1 X169.46 Y156.373
G1 X171.167 Y154.666 E236.583
G1 F2700 E232.583
G0 F6000 X174.955 Y154.59
G1 F2700 E236.583
G1 F1200 X176.592 Y156.228 E237.1237
G1 X176.389 Y156.233
G1 X178.096 Y154.526 E237.68735
G1 F2700 E233.68735
G0 F6000 X181.609 Y154.456
G1 F2700 E237.68735
G1 F1200 X183.246 Y156.093 E238.22788
G1 X183.318 Y156.093
G1 X185.025 Y154.386 E238.79153
G1 F2700 E234.79153
G0 F6000 X188.262 Y154.321
G1 F2700 E238.79153
G1 F1200 X189.899 Y155.958 E239.33207
G1 X190.247 Y155.952
G1 X191.954 Y154.245 E239.89572
G1 F2700 E235.89572
G0 F6000 X194.915 Y154.186
G1 F2700 E239.89572
G1 F1200 X196.047 Y155.318 E240.26951
G1 F2700 E236.26951
;MESH:butt.stl
G0 F6000 X195.132 Y150.35
G0 X176.712 Y146.856
G0 X167.464 Y135.357
;TYPE:WALL-INNER
G1 F2700 E240.26951
G1 F755.5 X166.594 Y135.375 E240.59222
G0 F6000 X158.357 Y139.7
G0 X157.143 Y139.03
G0 X155.814 Y138.624
G0 X154.433 Y138.507
G0 X153.052 Y138.678
G0 X151.735 Y139.134
G0 X150.542 Y139.855
G0 X149.525 Y140.811
G0 X148.732 Y141.954
G0 X148.191 Y143.239
G0 X147.982 Y144.348
G0 X147.606 Y149.125
G1 F1200 X147.115 Y148.08 E240.8618
G1 X146.909 Y147.486 E241.0086
G1 X146.673 Y146.471 E241.25191
G1 X146.596 Y145.857 E241.39639
G1 X146.573 Y144.809 E241.64114
G1 X146.584 Y144.478 E241.71847
G1 X146.625 Y144.185 E241.78755
G1 X146.849 Y143.002 E242.06867
G1 X146.952 Y142.669 E242.15005
G1 X147.471 Y141.452 E242.45897
G1 X147.645 Y141.139 E242.54258
G1 X148.312 Y140.172 E242.81686
G1 X148.534 Y139.882 E242.90214
G1 X149.484 Y138.981 E243.20784
G1 X149.705 Y138.793 E243.27559
G1 X149.985 Y138.6 E243.35499
G1 X150.882 Y138.058 E243.59969
G1 X151.141 Y137.918 E243.66843
G1 X151.454 Y137.79 E243.74739
G1 X152.443 Y137.448 E243.99172
G1 X152.737 Y137.363 E244.06318
G1 X153.051 Y137.307 E244.13765
G1 X154.14 Y137.171 E244.39389
G1 X154.404 Y137.154 E244.45566
G1 X154.662 Y137.159 E244.51591
G1 X155.763 Y137.253 E244.77392
G1 X156.076 Y137.297 E244.84772
G1 X156.382 Y137.374 E244.92139
G1 X157.381 Y137.68 E245.16534
G1 X157.683 Y137.79 E245.24038
G1 X157.951 Y137.921 E245.31003
G1 X159.063 Y138.536 E245.60673
G1 X159.38 Y138.785 E245.70085
G1 X160.169 Y139.467 E245.94435
G1 X160.375 Y139.663 E246.01074
G1 X160.601 Y139.927 E246.09189
G1 X160.808 Y140.203 E246.17244
G1 X161.005 Y139.919 E246.25314
G1 X161.219 Y139.646 E246.33413
G1 X161.418 Y139.441 E246.40084
G1 X162.181 Y138.724 E246.64531
G1 X162.486 Y138.464 E246.73888
G1 X163.579 Y137.801 E247.03736
G1 X163.84 Y137.66 E247.10663
G1 X164.141 Y137.536 E247.18264
G1 X165.142 Y137.189 E247.43
G1 F1201 X165.436 Y137.105 E247.50133
G1 X165.758 Y137.046 E247.5777
G1 F1200 X166.841 Y136.914 E247.83244
G1 X167.106 Y136.897 E247.89444
G1 X167.363 Y136.902 E247.95446
G1 X168.503 Y137.007 E248.22176
G1 X168.799 Y137.049 E248.29156
