;FLAVOR:Marlin
;TIME:26997
;Filament used: 117.294m
;Layer height: 0.6
;MINX:37.458
;MINY:81.388
;MINZ:0.4
;MAXX:196.486
;MAXY:138.174
;MAXZ:76
;Generated with Cura_SteamEngine 5.3.1
M82 ;absolute extrusion mode
; START G-CODE BEGIN

M104 S240.0 ﻿T0
M140 S60.0

G28 ; Home all axes
G92 E0 ; Reset Extruder
M420 S1 ; Load Mesh

M109 S240.0 ﻿T0
M190 S60.0

G92 E0 ; Reset Extruder

G1 X0.6 Y20 Z0.3 F5000.0 ; Move to start position
G1 X0.6 Y200.0 Z0.3 F1500.0 E15 ; Draw the first line
G1 X0.9 Y200.0 Z0.3 F5000.0 ; Move to side a little
G1 X0.9 Y20 Z0.3 F1500.0 E30 ; Draw the second line
G92 E0 ; Reset Extruder
G1 Z2.0 F3000 ; Move Z Axis up little to prevent scratching of Heat Bed
G1 X5 Y20 Z0.3 F5000.0 ; Move over to prevent blob squish

; START G-CODE END
G92 E0
G92 E0
G1 F2700 E-4
;LAYER_COUNT:127
;LAYER:0
M107
G0 F6000 X39.311 Y132.646 Z0.4
;TYPE:SUPPORT-INTERFACE
G1 F2700 E0
G1 F1200 X195.686 Y132.647 E35.88727
G1 X195.686 Y135.701 E36.58815
G1 X39.311 Y135.7 E72.47542
G1 X39.311 Y132.646 E73.17629
G1 F2700 E69.17629
G0 F6000 X39.711 Y134.746
G1 F2700 E73.17629
G1 F1200 X40.264 Y135.299 E73.35577
G0 F6000 X41.193 Y135.299
G1 F1200 X43.448 Y133.044 E74.08764
G0 F6000 X44.798 Y133.045
G1 F1200 X47.052 Y135.299 E74.81919
G0 F6000 X47.982 Y135.299
G1 F1200 X50.237 Y133.044 E75.55106
G0 F6000 X51.586 Y133.045
G1 F1200 X53.84 Y135.299 E76.28261
G0 F6000 X54.77 Y135.299
G1 F1200 X57.025 Y133.044 E77.01448
G0 F6000 X58.375 Y133.045
G1 F1200 X60.628 Y135.299 E77.74586
G0 F6000 X61.558 Y135.299
G1 F1200 X63.813 Y133.044 E78.47774
G0 F6000 X65.163 Y133.045
G1 F1200 X67.416 Y135.299 E79.20912
G0 F6000 X68.346 Y135.299
G1 F1200 X70.601 Y133.044 E79.94099
G0 F6000 X71.951 Y133.045
G1 F1200 X74.205 Y135.299 E80.67254
G0 F6000 X75.135 Y135.299
G1 F1200 X77.39 Y133.044 E81.40441
G0 F6000 X78.739 Y133.045
G1 F1200 X80.993 Y135.299 E82.13596
G0 F6000 X81.923 Y135.299
G1 F1200 X84.178 Y133.044 E82.86783
G0 F6000 X85.528 Y133.045
G1 F1200 X87.781 Y135.299 E83.59921
G0 F6000 X88.711 Y135.299
G1 F1200 X90.966 Y133.044 E84.33108
G0 F6000 X92.317 Y133.046
G1 F1200 X94.57 Y135.299 E85.0623
G0 F6000 X95.499 Y135.3
G1 F1200 X97.753 Y133.045 E85.79401
G0 F6000 X99.105 Y133.046
G1 F1200 X101.358 Y135.299 E86.52524
G0 F6000 X102.287 Y135.3
G1 F1200 X104.542 Y133.045 E87.25711
G0 F6000 X105.893 Y133.046
G1 F1200 X108.147 Y135.299 E87.98849
G0 F6000 X109.075 Y135.3
G1 F1200 X111.33 Y133.045 E88.72036
G0 F6000 X112.681 Y133.046
G1 F1200 X114.935 Y135.299 E89.45175
G0 F6000 X115.863 Y135.3
G1 F1200 X118.118 Y133.045 E90.18362
G0 F6000 X119.469 Y133.046
G1 F1200 X121.723 Y135.299 E90.915
G0 F6000 X122.651 Y135.3
G1 F1200 X124.906 Y133.045 E91.64687
G0 F6000 X126.258 Y133.046
G1 F1200 X128.511 Y135.299 E92.3781
G0 F6000 X129.44 Y135.3
G1 F1200 X131.695 Y133.045 E93.10997
G0 F6000 X133.046 Y133.046
G1 F1200 X135.299 Y135.299 E93.84119
G0 F6000 X136.228 Y135.3
G1 F1200 X138.483 Y133.045 E94.57306
G0 F6000 X139.834 Y133.046
G1 F1200 X142.088 Y135.299 E95.30444
G0 F6000 X143.016 Y135.3
G1 F1200 X145.27 Y133.046 E96.03599
G0 F6000 X146.623 Y133.047
G1 F1200 X148.877 Y135.3 E96.76738
G0 F6000 X149.804 Y135.301
G1 F1200 X152.059 Y133.046 E97.49925
G0 F6000 X153.411 Y133.047
G1 F1200 X155.665 Y135.3 E98.23063
G0 F6000 X156.592 Y135.301
G1 F1200 X158.847 Y133.046 E98.9625
G0 F6000 X160.199 Y133.047
G1 F1200 X162.453 Y135.3 E99.69389
G0 F6000 X163.38 Y135.301
G1 F1200 X165.635 Y133.046 E100.42576
G0 F6000 X166.988 Y133.047
G1 F1200 X169.241 Y135.3 E101.15698
G0 F6000 X170.168 Y135.301
G1 F1200 X172.423 Y133.046 E101.88885
G0 F6000 X173.776 Y133.047
G1 F1200 X176.029 Y135.3 E102.62007
G0 F6000 X176.957 Y135.301
G1 F1200 X179.211 Y133.046 E103.35178
G0 F6000 X180.564 Y133.047
G1 F1200 X182.818 Y135.3 E104.08317
G0 F6000 X183.745 Y135.301
G1 F1200 X186 Y133.046 E104.81504
G0 F6000 X187.352 Y133.047
G1 F1200 X189.606 Y135.3 E105.54642
G0 F6000 X190.533 Y135.301
G1 F1200 X192.788 Y133.046 E106.27829
G0 F6000 X194.141 Y133.047
G1 F1200 X195.285 Y134.191 E106.64958
G1 F2700 E102.64958
;MESH:butt.stl
G0 F6000 X194.472 Y128.292
G0 X84.949 Y125.003
;TYPE:WALL-INNER
G1 F2700 E106.64958
G1 F1200 X191.086 Y124.909 E131.0075
G1 X191.086 Y87.853 E139.51166
G1 X43.911 Y87.853 E173.28758
G1 X43.911 Y124.919 E181.79404
G1 X64.326 Y124.986 E186.4792
G1 X64.175 Y124.196 E186.66378
G1 X64.062 Y122.973 E186.94565
G1 X64.06 Y122.228 E187.11663
G1 X64.164 Y120.999 E187.39968
G1 X64.217 Y120.605 E187.49092
G1 X64.296 Y120.255 E187.57326
G1 X64.663 Y118.904 E187.89455
G1 X64.834 Y118.461 E188.00352
G1 X65.494 Y117.086 E188.35355
G1 X65.691 Y116.756 E188.44175
G1 X66.635 Y115.457 E188.81027
G1 X66.891 Y115.166 E188.89922
G1 X67.902 Y114.204 E189.21949
G1 X68.111 Y114.018 E189.2837
G1 X68.375 Y113.817 E189.35985
G1 X69.66 Y112.991 E189.71042
G1 X70.009 Y112.809 E189.80075
G1 X71.3 Y112.282 E190.12076
G1 X71.771 Y112.117 E190.23529
G1 X73.318 Y111.81 E190.59725
G1 X73.753 Y111.752 E190.69796
G1 X75.524 Y111.753 E191.10439
G1 X75.953 Y111.811 E191.20374
G1 X77.5 Y112.118 E191.5657
G1 X77.971 Y112.283 E191.68023
G1 X79.263 Y112.811 E192.00054
G1 X79.613 Y112.993 E192.09107
G1 X80.922 Y113.837 E192.44851
G1 X81.225 Y114.075 E192.53694
G1 X82.358 Y115.143 E192.89427
G1 X82.572 Y115.378 E192.96721
G1 X82.761 Y115.619 E193.0375
G1 X83.473 Y116.601 E193.31586
G1 X83.64 Y116.849 E193.38448
G1 X83.789 Y117.11 E193.45345
G1 X84.459 Y118.504 E193.8084
G1 X84.573 Y118.809 E193.88313
G1 X84.654 Y119.073 E193.9465
G1 X84.975 Y120.256 E194.22781
G1 X85.054 Y120.604 E194.30971
G1 X85.106 Y120.998 E194.40091
G1 X85.211 Y122.228 E194.68422
G1 X85.209 Y122.968 E194.85404
G1 X85.101 Y124.162 E195.12918
G1 X84.949 Y125.003 E195.32531
G0 F6000 X83.319 Y126.204
G1 F1200 X192.286 Y126.108 E220.33269
G1 X192.286 Y86.653 E229.38742
G1 X42.711 Y86.653 E263.71412
G1 X42.711 Y126.115 E272.77045
G1 X65.949 Y126.19 E278.10348
G1 X65.802 Y125.806 E278.19784
G1 X65.47 Y124.624 E278.4796
G1 X65.37 Y124.086 E278.60519
G1 X65.257 Y122.862 E278.88728
G1 X65.255 Y122.33 E279.00938
G1 X65.36 Y121.101 E279.29245
G1 X65.398 Y120.82 E279.35753
G1 X65.454 Y120.57 E279.41632
G1 X65.824 Y119.224 E279.73668
G1 X65.931 Y118.949 E279.8044
G1 X66.552 Y117.653 E280.13421
G1 X66.692 Y117.417 E280.19718
G1 X67.571 Y116.208 E280.54022
G1 X67.754 Y115.999 E280.60398
G1 X68.819 Y114.987 E280.94114
G1 X69.064 Y114.799 E281.01201
G1 X70.262 Y114.029 E281.33884
G1 X70.512 Y113.899 E281.4035
G1 X71.883 Y113.344 E281.74294
G1 X72.159 Y113.262 E281.80902
G1 X73.525 Y112.992 E282.12858
G1 X73.901 Y112.951 E282.21538
G1 X75.375 Y112.952 E282.55365
G1 X75.746 Y112.993 E282.63931
G1 X77.112 Y113.263 E282.95887
G1 X77.388 Y113.345 E283.02495
G1 X78.628 Y113.843 E283.33161
G1 X78.887 Y113.963 E283.39712
G1 X79.129 Y114.103 E283.46128
G1 X80.285 Y114.853 E283.77752
G1 X80.541 Y115.074 E283.85514
G1 X81.502 Y115.983 E284.15871
G1 X81.724 Y116.237 E284.23613
G1 X82.567 Y117.4 E284.56578
G1 X82.78 Y117.774 E284.66455
G1 X83.375 Y119.031 E284.98371
G1 X83.496 Y119.387 E285.07
G1 X83.817 Y120.57 E285.35131
G1 X83.873 Y120.819 E285.40988
G1 X83.911 Y121.1 E285.47496
G1 X84.016 Y122.33 E285.75826
G1 X84.014 Y122.859 E285.87967
G1 X83.905 Y124.053 E286.15482
G1 X83.811 Y124.574 E286.27632
G1 X83.487 Y125.755 E286.55737
G1 X83.319 Y126.204 E286.66739
G0 F6000 X81.311 Y127.407
G1 F1200 X193.486 Y127.307 E312.41099
G1 X193.486 Y85.453 E322.01627
G1 X41.511 Y85.453 E356.89377
G1 X41.511 Y127.311 E366.49997
G1 X67.955 Y127.397 E372.56876
G1 X67.759 Y127.131 E372.64459
G1 X67.592 Y126.852 E372.71921
G1 X67.071 Y125.778 E372.99316
G1 X66.958 Y125.481 E373.06609
G1 X66.625 Y124.299 E373.34791
G1 X66.565 Y123.976 E373.4233
G1 X66.452 Y122.752 E373.7054
G1 X66.451 Y122.432 E373.77884
G1 X66.57 Y121.04 E374.09946
G1 X66.97 Y119.568 E374.44953
G1 X67.645 Y118.146 E374.81077
G1 X68.556 Y116.891 E375.16667
G1 X69.672 Y115.834 E375.51943
G1 X70.935 Y115.019 E375.86439
G1 X72.359 Y114.442 E376.217
G1 X73.856 Y114.15 E376.56703
G1 X75.406 Y114.151 E376.92274
G1 X76.913 Y114.444 E377.27507
G1 X78.336 Y115.022 E377.62755
G1 X79.597 Y115.836 E377.972
G1 X80.721 Y116.896 E378.32657
G1 X81.632 Y118.159 E378.68395
G1 X82.299 Y119.559 E379.03985
G1 X82.701 Y121.036 E379.39114
G1 X82.82 Y122.432 E379.71268
G1 X82.819 Y122.75 E379.78566
G1 X82.71 Y123.944 E380.06081
G1 X82.654 Y124.256 E380.13356
G1 X82.33 Y125.438 E380.41483
G1 X82.215 Y125.745 E380.49007
G1 X81.682 Y126.852 E380.77203
G1 X81.512 Y127.134 E380.8476
G1 X81.311 Y127.407 E380.9254
G1 F2700 E376.9254
G0 F6000 X79.161 Y128.37
G0 X78.454 Y128.609
;TYPE:WALL-OUTER
G1 F2700 E380.9254
G1 F1200 X194.686 Y128.506 E407.60007
G1 X194.686 Y84.253 E417.75591
G1 X40.311 Y84.253 E453.18419
G1 X40.311 Y128.507 E463.34025
G1 X70.81 Y128.605 E470.33966
G1 X70.565 Y128.441 E470.40732
G1 X70.014 Y127.989 E470.57087
G1 X69.474 Y127.441 E470.74743
G1 X68.698 Y126.381 E471.04892
G1 X68.127 Y125.204 E471.34914
G1 X67.765 Y123.92 E471.6553
G1 X67.642 Y122.59 E471.96183
G1 X67.759 Y121.249 E472.27075
G1 X68.113 Y119.95 E472.57974
G1 X68.681 Y118.762 E472.88194
G1 X69.444 Y117.708 E473.18055
G1 X70.406 Y116.792 E473.4854
G1 X71.497 Y116.085 E473.78376
G1 X72.704 Y115.6 E474.08228
G1 X73.981 Y115.348 E474.381
G1 X75.291 Y115.349 E474.68164
G1 X76.567 Y115.601 E474.98013
G1 X77.78 Y116.089 E475.28019
G1 X78.831 Y116.768 E475.56735
G1 X79.813 Y117.686 E475.87585
G1 X80.592 Y118.762 E476.18071
G1 X81.167 Y119.966 E476.48691
G1 X81.512 Y121.248 E476.79159
G1 X81.629 Y122.589 E477.10052
G1 X81.51 Y123.887 E477.39965
G1 X81.157 Y125.175 E477.70614
G1 X80.575 Y126.381 E478.01345
G1 X79.805 Y127.433 E478.31264
G1 X79.279 Y127.968 E478.48483
G1 X78.711 Y128.436 E478.65373
G1 X78.454 Y128.609 E478.72483
G0 F6000 X79.161 Y128.37
G0 X86.234 Y124.599
G0 X86.234 Y123.899
;TYPE:SKIN
G1 F1200 X86.309 Y123.072 E478.9154
G1 X86.311 Y122.138 E479.12975
G1 X86.204 Y120.888 E479.41766
G1 X86.145 Y120.436 E479.52228
G1 X86.043 Y119.976 E479.63041
G1 X85.717 Y118.772 E479.91667
G1 X85.612 Y118.432 E479.99833
G1 X85.516 Y118.175 E480.06129
G1 X85.388 Y117.89 E480.13299
G1 X84.753 Y116.569 E480.46936
G1 X84.59 Y116.285 E480.54451
G1 X84.384 Y115.977 E480.62955
G1 X83.647 Y114.959 E480.91797
G1 X83.431 Y114.684 E480.99822
G1 X83.146 Y114.367 E481.09605
G1 X82.105 Y113.381 E481.42511
G1 X81.778 Y113.1 E481.52406
G1 X81.512 Y112.899 E481.60057
G1 X80.181 Y112.048 E481.96313
G1 X79.705 Y111.799 E482.08641
G1 X78.241 Y111.2 E482.44943
G1 X77.689 Y111.032 E482.58184
G1 X76.163 Y110.726 E482.93903
G1 X75.605 Y110.651 E483.06824
G1 X73.858 Y110.644 E483.46917
G1 X73.551 Y110.666 E483.5398
G1 X73.123 Y110.722 E483.63886
G1 X71.583 Y111.03 E483.99928
G1 X71.152 Y111.158 E484.10247
G1 X69.748 Y111.719 E484.44945
G1 X69.214 Y111.968 E484.58467
G1 X67.655 Y112.97 E485.00997
G1 X67.268 Y113.288 E485.12493
G1 X66.263 Y114.234 E485.44167
G1 X65.941 Y114.568 E485.54815
G1 X65.738 Y114.807 E485.62011
G1 X64.75 Y116.178 E486.00793
G1 X64.509 Y116.584 E486.11629
G1 X63.822 Y118.018 E486.4812
G1 X63.69 Y118.333 E486.55958
G1 X63.56 Y118.756 E486.66114
G1 X63.227 Y119.98 E486.95225
G1 X63.135 Y120.39 E487.04869
G1 X63.069 Y120.857 E487.15692
G1 X62.959 Y122.138 E487.45199
G1 X62.962 Y123.077 E487.66749
G1 X63.035 Y123.874 E487.85116
G1 X45.016 Y123.818 E491.98645
G1 X45.015 Y88.957 E499.98687
G1 X189.982 Y88.957 E533.25606
G1 X189.982 Y123.805 E541.2535
G1 X86.234 Y123.899 E565.06315
G1 F2700 E561.06315
G0 F6000 X86.234 Y124.599
G0 X82.536 Y124.074
G0 X82.673 Y122.589
G0 X82.543 Y121.072
G0 X82.144 Y119.601
G0 X81.489 Y118.227
G0 X80.597 Y116.999
G0 X79.498 Y115.961
G0 X78.257 Y115.163
G0 X76.863 Y114.598
G0 X75.387 Y114.31
G0 X73.885 Y114.309
G0 X72.408 Y114.597
G0 X71.013 Y115.163
G0 X69.775 Y115.96
G0 X68.676 Y116.998
G0 X63.615 Y123.186
G0 X63.723 Y124.504
G0 X44.387 Y124.445
G0 X44.315 Y121.982
G0 X45.615 Y121.982
G1 F2700 E565.06315
G1 F1200 X46.855 Y123.223 E565.46576
G0 F6000 X46.851 Y124.524
G0 X48.553 Y124.529
G0 X48.557 Y123.228
G1 F1200 X45.615 Y120.285 E566.42077
G0 F6000 X44.315 Y120.285
G0 X44.315 Y118.588
G0 X45.615 Y118.588
G1 F1200 X50.26 Y123.233 E567.92832
G0 F6000 X50.256 Y124.535
G0 X51.958 Y124.54
G0 X51.962 Y123.238
G1 F1200 X45.615 Y116.891 E569.98827
G0 F6000 X44.315 Y116.891
G0 X44.315 Y115.194
G0 X45.615 Y115.194
G1 F1200 X53.665 Y123.244 E572.60094
G0 F6000 X53.661 Y124.545
G0 X55.363 Y124.551
G0 X55.367 Y123.249
G1 F1200 X45.615 Y113.497 E575.766
G0 F6000 X44.315 Y113.497
G0 X44.315 Y111.8
G0 X45.615 Y111.8
G1 F1200 X57.069 Y123.254 E579.48345
G0 F6000 X57.065 Y124.556
G0 X58.767 Y124.561
G0 X58.771 Y123.26
G1 F1200 X45.615 Y110.103 E583.75345
G0 F6000 X44.315 Y110.103
G0 X44.315 Y108.406
G0 X45.615 Y108.406
G1 F1200 X60.473 Y123.264 E588.57569
G0 F6000 X60.469 Y124.566
G0 X62.172 Y124.572
G0 X62.176 Y123.27
G1 F1200 X45.615 Y106.709 E593.95064
G0 F6000 X44.315 Y106.709
G0 X44.315 Y105.012
G0 X45.615 Y105.012
G1 F1200 X62.387 Y121.784 E599.39408
G0 F6000 X63.682 Y121.894
G0 X63.819 Y120.535
G0 X62.55 Y120.25
G1 F1200 X45.615 Y103.315 E604.89041
G0 F6000 X44.315 Y103.315
G0 X44.315 Y101.618
G0 X45.615 Y101.618
G1 F1200 X62.898 Y118.901 E610.49969
G0 F6000 X64.152 Y119.242
G0 X64.509 Y118.206
G0 X63.336 Y117.642
G1 F1200 X45.615 Y99.921 E616.25113
G0 F6000 X44.315 Y99.921
G0 X44.315 Y98.224
G0 X45.615 Y98.224
G1 F1200 X63.887 Y116.495 E622.18124
G0 F6000 X65.06 Y117.058
G0 X65.589 Y116.207
G0 X64.537 Y115.449
G1 F1200 X45.615 Y96.527 E628.32246
G0 F6000 X44.315 Y96.527
G0 X44.315 Y94.83
G0 X45.615 Y94.83
G1 F1200 X65.248 Y114.462 E634.69428
G0 F6000 X66.269 Y115.261
G0 X66.963 Y114.535
G0 X66.072 Y113.589
G1 F1200 X45.615 Y93.133 E641.33354
G0 F6000 X44.315 Y93.133
G0 X44.315 Y91.435
G0 X45.615 Y91.435
G1 F1200 X66.949 Y112.77 E648.25776
G0 F6000 X67.773 Y113.776
G0 X68.648 Y113.162
G0 X67.945 Y112.068
G1 F1200 X45.615 Y89.738 E655.50507
G0 F6000 X44.315 Y89.738
G0 X44.387 Y88.329
G0 X47.13 Y88.257
G0 X47.13 Y89.557
G1 F1200 X68.986 Y111.412 E662.59837
G0 F6000 X69.55 Y112.581
G0 X70.656 Y112.109
G0 X70.173 Y110.902
G1 F1200 X48.827 Y89.557 E669.52616
G0 F6000 X48.827 Y88.257
G0 X50.524 Y88.257
G0 X50.524 Y89.557
G1 F1200 X71.422 Y110.455 E676.30871
G0 F6000 X71.775 Y111.704
G0 X73.083 Y111.445
G0 X72.831 Y110.167
G1 F1200 X52.221 Y89.557 E682.99778
G0 F6000 X52.221 Y88.257
G0 X53.919 Y88.257
G0 X53.919 Y89.557
G1 F1200 X74.406 Y110.044 E689.64694
G0 F6000 X74.4 Y111.345
G0 X76.005 Y111.41
G0 X76.181 Y110.122
G1 F1200 X55.616 Y89.557 E696.32141
G0 F6000 X55.616 Y88.257
G0 X57.313 Y88.257
G0 X57.313 Y89.557
G1 F1200 X78.36 Y110.604 E703.15231
G0 F6000 X77.979 Y111.849
G0 X81.108 Y113.471
G0 X81.885 Y112.432
G1 F1200 X59.01 Y89.557 E710.57651
G0 F6000 X59.01 Y88.257
G0 X60.707 Y88.257
G0 X60.707 Y89.557
G1 F1200 X94.44 Y123.29 E721.52471
G0 F6000 X94.441 Y124.592
G0 X92.745 Y124.593
G0 X92.744 Y123.291
G1 F1200 X84.325 Y114.872 E724.25714
G0 F6000 X83.272 Y115.634
G0 X85.02 Y118.887
G0 X86.263 Y118.507
G1 F1200 X91.049 Y123.293 E725.81046
G0 F6000 X91.05 Y124.595
G0 X89.354 Y124.596
G0 X89.353 Y123.294
G1 F1200 X86.787 Y120.728 E726.64327
G0 F6000 X85.499 Y120.898
G0 X85.613 Y122.542
G0 X86.907 Y122.545
G1 F1200 X87.658 Y123.296 E726.88701
G0 F6000 X87.659 Y124.598
G0 X96.137 Y124.59
G0 X96.136 Y123.289
G1 F1200 X62.404 Y89.557 E737.83489
G0 F6000 X62.404 Y88.257
G0 X64.101 Y88.257
G0 X64.101 Y89.557
G1 F1200 X97.831 Y123.287 E748.78213
G0 F6000 X97.832 Y124.589
G0 X99.528 Y124.587
G0 X99.527 Y123.286
G1 F1200 X65.798 Y89.557 E759.72904
G0 F6000 X65.798 Y88.257
G0 X67.495 Y88.257
G0 X67.495 Y89.557
G1 F1200 X101.222 Y123.284 E770.6753
G0 F6000 X101.223 Y124.586
G0 X102.918 Y124.584
G0 X102.917 Y123.282
G1 F1200 X69.192 Y89.557 E781.62091
G0 F6000 X69.192 Y88.257
G0 X70.889 Y88.257
G0 X70.889 Y89.557
G1 F1200 X104.613 Y123.281 E792.5662
G0 F6000 X104.614 Y124.583
G0 X106.31 Y124.581
G0 X106.309 Y123.279
G1 F1200 X72.586 Y89.557 E803.511
G0 F6000 X72.586 Y88.257
G0 X74.283 Y88.257
G0 X74.283 Y89.557
G1 F1200 X108.004 Y123.278 E814.45531
G0 F6000 X108.005 Y124.58
G0 X109.701 Y124.578
G0 X109.7 Y123.276
G1 F1200 X75.98 Y89.557 E825.39914
