;FLAVOR:Marlin
;TIME:34340
;Filament used: 121.185m
;Layer height: 0.48
;MINX:39.171
;MINY:68.305
;MINZ:0.4
;MAXX:199.284
;MAXY:174.298
;MAXZ:76.24
;Generated with Cura_SteamEngine 5.3.1
M82 ;absolute extrusion mode
; START G-CODE BEGIN

M104 S240.0 ﻿T0
M140 S60.0

G28 ; Home all axes
G92 E0 ; Reset Extruder
M420 S1 ; Load Mesh

M109 S240.0 ﻿T0
M190 S60.0

G92 E0 ; Reset Extruder

G1 X0.6 Y20 Z0.3 F5000.0 ; Move to start position
G1 X0.6 Y200.0 Z0.3 F1500.0 E15 ; Draw the first line
G1 X0.9 Y200.0 Z0.3 F5000.0 ; Move to side a little
G1 X0.9 Y20 Z0.3 F1500.0 E30 ; Draw the second line
G92 E0 ; Reset Extruder
G1 Z2.0 F3000 ; Move Z Axis up little to prevent scratching of Heat Bed
G1 X5 Y20 Z0.3 F5000.0 ; Move over to prevent blob squish

; START G-CODE END
G92 E0
G92 E0
G1 F2700 E-4
;LAYER_COUNT:159
;LAYER:0
M107
G0 F6000 X54.404 Y122.603 Z0.4
;TYPE:SUPPORT
G1 F2700 E0
G1 F1800 X86.227 Y122.875 E4.95367
G1 X87.393 Y122.76 E5.13604
G1 X88.727 Y122.363 E5.35269
G1 X89.483 Y121.964 E5.48575
G1 X90.454 Y122.458 E5.65533
G1 X91.806 Y122.841 E5.87406
G1 X92.794 Y122.932 E6.0285
G1 X146.526 Y123.393 E14.3926
G1 X147.689 Y123.279 E14.57449
G1 X149.065 Y122.865 E14.79816
G1 X149.801 Y122.471 E14.92811
G1 X150.349 Y122.795 E15.0272
G1 X151.747 Y123.286 E15.25784
G1 X153.042 Y123.45 E15.46103
G1 X184.873 Y123.724 E20.41594
G1 X184.748 Y138.319 E22.68785
G1 X184.63 Y138.436 E22.71371
G1 X184.395 Y138.535 E22.75341
G1 X181.948 Y138.812 E23.13673
G1 X179.712 Y139.507 E23.50121
G1 X177.636 Y140.619 E23.86779
G1 X175.999 Y141.947 E24.19591
G1 X175.603 Y142.347 E24.28352
G1 X174.228 Y143.981 E24.61593
G1 X88.482 Y143.225 E37.96346
G1 X87.082 Y142.187 E38.23474
G1 X85.699 Y141.329 E38.48808
G1 X84.282 Y140.607 E38.73562
G1 X82.782 Y139.997 E38.98768
G1 X81.23 Y139.517 E39.24055
G1 X79.67 Y139.176 E39.48911
G1 X77.96 Y138.964 E39.75732
G1 X76.321 Y138.91 E40.01258
G1 X74.705 Y138.996 E40.26448
G1 X73.103 Y139.218 E40.51623
G1 X71.466 Y139.593 E40.77764
G1 X69.956 Y140.075 E41.02436
G1 X68.44 Y140.711 E41.28027
G1 X66.938 Y141.501 E41.54443
G1 X65.506 Y142.433 E41.81038
G1 X64.7 Y143.07 E41.97029
G1 X63.257 Y141.238 E42.3333
G1 X61.442 Y139.681 E42.70552
G1 X59.356 Y138.497 E43.07888
G1 X57.106 Y137.74 E43.4484
G1 X54.631 Y137.416 E43.83694
G1 X54.384 Y137.307 E43.87897
G1 X54.278 Y137.196 E43.90286
G1 X54.404 Y122.603 E46.17445
G0 F6000 X54.512 Y124
G1 F1200 X184.75 Y124 E76.58322
G0 F6000 X184 Y123.837
G1 F1200 X184 Y138.459 E79.99726
G1 F2700 E75.99726
G0 F6000 X184.647 Y136
G1 F2700 E79.99726
G1 F1200 X54.408 Y136 E110.40626
G1 F2700 E106.40626
G0 F6000 X56 Y137.473
G1 F2700 E110.40626
G1 F1200 X56 Y122.737 E113.84691
G1 F2700 E109.84691
G0 F6000 X60 Y122.771
G1 F2700 E113.84691
G1 F1200 X60 Y138.723 E117.57148
G1 F2700 E113.57148
G0 F6000 X61.995 Y140
G1 F2700 E117.57148
G1 F1200 X69.826 Y140 E119.39991
G1 F2700 E115.39991
G0 F6000 X68 Y140.809
G1 F2700 E119.39991
G1 F1200 X68 Y122.839 E123.59566
G1 F2700 E119.59566
G0 F6000 X64 Y122.805
G1 F2700 E123.59566
G1 F1200 X64 Y141.986 E128.07415
G1 F2700 E124.07415
G0 F6000 X63.069 Y142.721
G0 X64.358 Y144.678
G0 X71.763 Y140.616
G0 X72 Y139.349
G1 F2700 E128.07415
G1 F1200 X72 Y122.873 E131.92107
G1 F2700 E127.92107
G0 F6000 X76 Y122.907
G1 F2700 E131.92107
G1 F1200 X76 Y138.81 E135.6342
G1 F2700 E131.6342
G0 F6000 X80 Y139.125
G1 F2700 E135.6342
G1 F1200 X80 Y122.941 E139.41294
G1 F2700 E135.41294
G0 F6000 X84 Y122.974
G1 F2700 E139.41294
G1 F1200 X84 Y140.362 E143.4728
G0 F6000 X83.105 Y140
G1 F1200 X178.541 Y140 E165.75578
G1 F2700 E161.75578
G0 F6000 X180 Y139.292
G1 F2700 E165.75578
G1 F1200 X180 Y123.802 E169.37248
G1 F2700 E165.37248
G0 F6000 X176 Y123.768
G1 F2700 E169.37248
G1 F1200 X176 Y141.795 E173.58154
G1 F2700 E169.58154
G0 F6000 X172 Y143.84
G1 F2700 E173.58154
G1 F1200 X172 Y123.733 E178.27624
G1 F2700 E174.27624
G0 F6000 X168 Y123.699
G1 F2700 E178.27624
G1 F1200 X168 Y143.805 E182.97072
G1 F2700 E178.97072
G0 F6000 X164 Y143.77
G1 F2700 E182.97072
G1 F1200 X164 Y123.664 E187.66519
G1 F2700 E183.66519
G0 F6000 X160 Y123.63
G1 F2700 E187.66519
G1 F1200 X160 Y143.735 E192.35943
G1 F2700 E188.35943
G0 F6000 X156 Y143.699
G1 F2700 E192.35943
G1 F1200 X156 Y123.595 E197.05343
G1 F2700 E193.05343
G0 F6000 X152 Y123.44
G1 F2700 E197.05343
G1 F1200 X152 Y143.664 E201.77546
G1 F2700 E197.77546
G0 F6000 X148 Y143.629
G1 F2700 E201.77546
G1 F1200 X148 Y123.307 E206.52036
G1 F2700 E202.52036
G0 F6000 X144 Y123.49
G1 F2700 E206.52036
G1 F1200 X144 Y143.594 E211.21437
G1 F2700 E207.21437
G0 F6000 X140 Y143.558
G1 F2700 E211.21437
G1 F1200 X140 Y123.455 E215.90814
G1 F2700 E211.90814
G0 F6000 X136 Y123.421
G1 F2700 E215.90814
G1 F1200 X136 Y143.523 E220.60168
G1 F2700 E216.60168
G0 F6000 X132 Y143.488
G1 F2700 E220.60168
G1 F1200 X132 Y123.387 E225.29498
G1 F2700 E221.29498
G0 F6000 X128 Y123.352
G1 F2700 E225.29498
G1 F1200 X128 Y143.453 E229.98829
G1 F2700 E225.98829
G0 F6000 X124 Y143.417
G1 F2700 E229.98829
G1 F1200 X124 Y123.318 E234.68113
G1 F2700 E230.68113
G0 F6000 X120 Y123.284
G1 F2700 E234.68113
G1 F1200 X120 Y143.382 E239.37373
G1 F2700 E235.37373
G0 F6000 X116 Y143.347
G1 F2700 E239.37373
G1 F1200 X116 Y123.25 E244.0661
G1 F2700 E240.0661
G0 F6000 X112 Y123.215
G1 F2700 E244.0661
G1 F1200 X112 Y143.311 E248.75824
G1 F2700 E244.75824
G0 F6000 X108 Y143.276
G1 F2700 E248.75824
G1 F1200 X108 Y123.181 E253.45015
G1 F2700 E249.45015
G0 F6000 X104 Y123.147
G1 F2700 E253.45015
G1 F1200 X104 Y143.241 E258.14182
G1 F2700 E254.14182
G0 F6000 X100 Y143.206
G1 F2700 E258.14182
G1 F1200 X100 Y123.112 E262.83349
G1 F2700 E258.83349
G0 F6000 X96 Y123.078
G1 F2700 E262.83349
G1 F1200 X96 Y143.17 E267.52469
G1 F2700 E263.52469
G0 F6000 X92 Y143.135
G1 F2700 E267.52469
G1 F1200 X92 Y122.98 E272.2306
G1 F2700 E268.2306
G0 F6000 X88 Y122.703
G1 F2700 E272.2306
G1 F1200 X88 Y142.719 E276.90406
G1 F2700 E272.90406
G0 F6000 X86.465 Y143.056
G0 X64.358 Y144.678
G0 X53.765 Y138.187
G0 X53.212 Y137.585
G0 X53.257 Y131.991
G0 X54.443 Y132
G1 F2700 E276.90406
G1 F1200 X184.681 Y132 E307.31283
G1 F2700 E303.31283
G0 F6000 X184.716 Y128
G1 F2700 E307.31283
G1 F1200 X54.477 Y128 E337.72183
G1 F2700 E333.72183
G0 F6000 X53.291 Y127.991
G0 X50.377 Y139.599
G0 X49.452 Y140.126
;TYPE:SUPPORT-INTERFACE
G1 F2700 E337.72183
G1 F1200 X49.479 Y140.178 E337.73551
G1 X50.226 Y141.125 E338.01714
G1 X51.144 Y141.914 E338.29976
G1 X52.196 Y142.512 E338.5823
G1 X53.348 Y142.897 E338.8659
G1 X55.84 Y143.223 E339.45271
G1 X57.069 Y143.636 E339.75543
G1 X58.207 Y144.282 E340.06096
G1 X59.191 Y145.128 E340.36395
G1 X59.998 Y146.151 E340.66818
G1 X60.596 Y147.313 E340.97331
G1 X60.956 Y148.563 E341.27703
G1 X61.068 Y149.836 E341.57541
G1 X61.063 Y150.412 E341.7099
G1 X61.188 Y150.647 E341.77205
G1 X61.296 Y150.8 E341.81578
G1 X61.386 Y150.927 E341.85212
G1 X61.616 Y151.174 E341.93093
G1 X61.885 Y151.392 E342.01177
G1 X62.175 Y151.57 E342.09122
G1 X62.484 Y151.707 E342.17014
G1 X62.81 Y151.802 E342.24942
G1 X63.148 Y151.853 E342.32923
G1 X63.489 Y151.856 E342.40885
G1 X63.683 Y151.834 E342.45444
G1 X63.724 Y151.829 E342.46408
G1 X63.523 Y152.232 E342.56923
G1 X63.036 Y153.476 E342.88115
G1 X62.648 Y154.823 E343.20845
G1 X49.326 Y154.709 E346.31906
G1 X49.452 Y140.126 E349.72412
G1 F2700 E345.72412
G0 F6000 X50.377 Y139.599
G0 X54.812 Y142.014
G0 X53.892 Y149.048
G1 F2700 E349.72412
G1 F1200 X53.71 Y149.184 E349.77717
G1 X53.573 Y149.361 E349.82943
G1 X53.483 Y149.571 E349.88277
G1 X53.453 Y149.795 E349.93554
G1 X53.479 Y150.017 E349.98773
G1 X53.564 Y150.229 E350.04106
G1 X53.702 Y150.409 E350.09402
G1 X53.877 Y150.548 E350.1462
G1 X54.09 Y150.638 E350.20019
G1 X54.309 Y150.668 E350.2518
G1 X54.535 Y150.641 E350.30494
G1 X54.746 Y150.555 E350.35814
G1 X54.928 Y150.419 E350.41119
G1 X55.064 Y150.244 E350.46294
G1 X55.154 Y150.031 E350.51693
G1 X55.184 Y149.81 E350.569
G1 X55.158 Y149.585 E350.62189
G1 X55.073 Y149.374 E350.675
G1 X54.937 Y149.195 E350.72749
G1 X54.759 Y149.055 E350.78036
G1 X54.546 Y148.966 E350.83426
G1 X54.325 Y148.936 E350.88634
G1 X54.104 Y148.962 E350.93829
G1 X53.892 Y149.048 E350.99171
G1 F2700 E346.99171
G0 F6000 X41.076 Y166.291
G1 F2700 E350.99171
G1 F1200 X41.065 Y167.586 E351.29408
G1 X197.434 Y168.935 E387.80544
G1 X197.445 Y167.633 E388.10945
G1 X197.43 Y169.352 E388.51083
G1 X197.423 Y170.102 E388.68595
G1 X197.418 Y170.693 E388.82394
G1 X197.409 Y171.664 E389.05067
G1 X41.041 Y170.312 E425.56179
G1 X41.076 Y166.291 E426.50068
G1 F2700 E422.50068
G0 F6000 X85.772 Y111.97
G1 F2700 E426.50068
G1 F1200 X84.77 Y111.119 E426.80762
G1 X83.953 Y110.093 E427.11385
G1 X83.35 Y108.93 E427.41972
G1 X82.983 Y107.668 E427.72659
G1 X82.869 Y106.387 E428.02687
G1 X82.902 Y102.683 E428.89174
G1 X156.725 Y103.321 E446.12903
G1 X156.692 Y107.017 E446.99203
G1 X156.554 Y108.306 E447.29471
G1 X156.167 Y109.557 E447.60046
G1 X155.544 Y110.712 E447.90686
G1 X154.709 Y111.723 E448.21302
G1 X153.696 Y112.553 E448.51879
G1 X152.534 Y113.176 E448.82664
G1 X151.288 Y113.559 E449.131
G1 X149.979 Y113.694 E449.43825
G1 X148.677 Y113.574 E449.74354
G1 X147.416 Y113.203 E450.05044
G1 X146.281 Y112.611 E450.34933
G1 X143.258 Y110.789 E451.17345
G1 X140.139 Y109.2 E451.99075
G1 X136.905 Y107.832 E452.81063
G1 X133.608 Y106.707 E453.62401
G1 X130.205 Y105.811 E454.44564
G1 X126.78 Y105.164 E455.25948
G1 X123.289 Y104.759 E456.08004
G1 X119.806 Y104.606 E456.89406
G1 X116.292 Y104.7 E457.71482
G1 X112.824 Y105.041 E458.52846
G1 X109.357 Y105.635 E459.34975
G1 X105.958 Y106.468 E460.16686
G1 X102.639 Y107.537 E460.981
G1 X99.386 Y108.847 E461.7998
G1 X96.235 Y110.385 E462.61848
G1 X93.188 Y112.151 E463.44077
G1 X92.038 Y112.724 E463.74076
G1 X90.771 Y113.074 E464.04767
G1 X89.464 Y113.172 E464.35369
G1 X88.162 Y113.015 E464.65989
G1 X86.915 Y112.609 E464.96609
G1 X85.772 Y111.97 E465.27184
G1 F2700 E461.27184
G0 F6000 X89.176 Y107.167
G1 F2700 E465.27184
G1 F1200 X89.39 Y107.257 E465.32605
G1 X89.611 Y107.287 E465.37812
G1 X89.837 Y107.261 E465.43124
G1 X90.045 Y107.176 E465.4837
G1 X90.225 Y107.04 E465.53637
G1 X90.366 Y106.862 E465.58939
G1 X90.455 Y106.649 E465.64329
G1 X90.485 Y106.428 E465.69537
G1 X90.459 Y106.207 E465.74732
G1 X90.373 Y105.995 E465.80074
G1 X90.237 Y105.813 E465.85379
G1 X90.06 Y105.676 E465.90605
G1 X89.85 Y105.586 E465.95939
G1 X89.626 Y105.556 E466.01216
G1 X89.404 Y105.582 E466.06435
G1 X89.192 Y105.667 E466.11768
G1 X89.012 Y105.805 E466.17064
G1 X88.873 Y105.98 E466.22282
G1 X88.783 Y106.193 E466.27681
G1 X88.753 Y106.412 E466.32842
G1 X88.78 Y106.638 E466.38156
G1 X88.866 Y106.849 E466.43476
G1 X89.001 Y107.029 E466.4873
G1 X89.176 Y107.167 E466.53933
G1 F2700 E462.53933
G0 F6000 X82.31 Y109.164
G0 X61.29 Y85.227
G0 X60.475 Y84.542
G1 F2700 E466.53933
G1 F1200 X59.645 Y85.528 E466.84026
G1 X58.657 Y86.331 E467.13753
G1 X57.52 Y86.939 E467.43857
G1 X56.296 Y87.32 E467.73788
G1 X53.829 Y87.597 E468.31751
G1 X53.362 Y87.741 E468.43162
G1 X53.276 Y87.769 E468.45274
G1 X52.683 Y87.956 E468.59791
G1 X52.629 Y87.985 E468.61222
G1 X52.629 Y87.982 E468.61293
G1 X51.609 Y88.538 E468.88417
G1 X51.042 Y89.009 E469.05627
G1 X50.907 Y89.121 E469.09723
G1 X50.667 Y89.322 E469.17032
G1 X49.913 Y90.244 E469.44841
G1 X49.881 Y90.303 E469.46408
G1 X50.008 Y75.718 E472.86961
G1 X64.588 Y75.845 E476.27397
G1 X64.547 Y75.866 E476.28472
G1 X64.124 Y76.198 E476.41027
G1 X63.597 Y76.613 E476.56689
G1 X63.024 Y77.278 E476.77185
G1 X62.81 Y77.527 E476.84851
G1 X62.46 Y78.139 E477.01312
G1 X62.211 Y78.579 E477.13116
G1 X62.106 Y78.888 E477.20736
G1 X62.104 Y78.888 E477.20783
G1 X61.977 Y79.27 E477.30182
G1 X61.823 Y79.726 E477.4142
G1 X61.542 Y81.874 E477.92
G1 X61.498 Y82.209 E477.99889
G1 X61.097 Y83.426 E478.29807
G1 X60.475 Y84.542 E478.59638
G1 F2700 E474.59638
G0 F6000 X55.66 Y81.152
G1 F2700 E478.59638
G1 F1200 X55.75 Y80.943 E478.64951
G1 X55.782 Y80.717 E478.7028
G1 X55.753 Y80.493 E478.75554
G1 X55.667 Y80.282 E478.80874
G1 X55.531 Y80.103 E478.86123
G1 X55.356 Y79.964 E478.91341
G1 X55.143 Y79.874 E478.9674
G1 X54.924 Y79.844 E479.01901
G1 X54.698 Y79.871 E479.07216
G1 X54.487 Y79.957 E479.12536
G1 X54.305 Y80.093 E479.1784
G1 X54.169 Y80.268 E479.23015
G1 X54.079 Y80.481 E479.28414
G1 X54.049 Y80.702 E479.33622
G1 X54.075 Y80.927 E479.3891
G1 X54.159 Y81.134 E479.44126
G1 X54.297 Y81.318 E479.49496
G1 X54.473 Y81.457 E479.54733
G1 X54.686 Y81.546 E479.60122
G1 X54.908 Y81.576 E479.65353
G1 X55.13 Y81.55 E479.70572
G1 X55.342 Y81.465 E479.75905
G1 X55.523 Y81.326 E479.81233
G1 X55.66 Y81.152 E479.86404
G1 F2700 E475.86404
G0 F6000 X61.706 Y84.518
G0 X84.003 Y111.863
G0 X85.161 Y112.847
G0 X86.486 Y113.588
G0 X87.933 Y114.059
G0 X89.291 Y114.222
G0 X145.195 Y113.2
G0 X149.106 Y106.712
G1 F2700 E479.86404
G1 F1200 X149.076 Y106.935 E479.91658
G1 X149.102 Y107.156 E479.96853
G1 X149.188 Y107.368 E480.02195
G1 X149.324 Y107.55 E480.075
G1 X149.502 Y107.688 E480.12759
G1 X149.711 Y107.778 E480.18072
G1 X149.933 Y107.808 E480.23302
G1 X150.158 Y107.781 E480.28593
G1 X150.369 Y107.695 E480.33913
G1 X150.551 Y107.559 E480.39218
G1 X150.688 Y107.384 E480.44407
G1 X150.778 Y107.17 E480.49828
G1 X150.808 Y106.951 E480.54989
G1 X150.781 Y106.725 E480.60303
G1 X150.696 Y106.515 E480.65593
G1 X150.557 Y106.332 E480.70959
G1 X150.383 Y106.196 E480.76115
G1 X150.17 Y106.106 E480.81514
G1 X149.95 Y106.076 E480.86698
G1 X149.725 Y106.102 E480.91987
G1 X149.517 Y106.187 E480.97233
G1 X149.333 Y106.325 E481.02603
G1 X149.196 Y106.502 E481.07829
G1 X149.106 Y106.712 E481.13164
G1 F2700 E477.13164
G0 F6000 X145.195 Y113.2
G0 X147.016 Y114.195
G0 X148.474 Y114.624
G0 X149.986 Y114.764
G0 X151.497 Y114.607
G0 X152.95 Y114.161
G0 X154.289 Y113.444
G0 X155.346 Y112.578
G0 X178.639 Y86.247
G0 X179.465 Y85.575
G1 F2700 E481.13164
G1 F1200 X178.904 Y84.528 E481.40898
G1 X178.873 Y84.497 E481.41921
G1 X178.477 Y83.215 E481.7325
G1 X178.195 Y80.73 E482.31643
G1 X177.793 Y79.461 E482.62724
G1 X177.765 Y79.461 E482.63378
G1 X177.602 Y79.162 E482.71329
G1 X177.302 Y78.616 E482.85875
G1 X177.248 Y78.517 E482.88508
G1 X176.911 Y78.111 E483.00828
G1 X176.474 Y77.587 E483.16759
G1 X175.56 Y76.839 E483.44335
G1 X175.558 Y76.841 E483.44401
G1 X175.54 Y76.826 E483.44948
G1 X175.49 Y76.799 E483.46275
G1 X190.077 Y76.926 E486.86874
G1 X189.95 Y91.509 E490.2738
G1 X189.926 Y91.462 E490.28612
G1 X189.811 Y91.315 E490.32969
G1 X189.183 Y90.517 E490.56679
G1 X188.269 Y89.729 E490.84856
G1 X187.665 Y89.385 E491.01086
G1 X187.665 Y89.384 E491.01109
G1 X187.646 Y89.373 E491.01622
G1 X187.223 Y89.131 E491.13
G1 X186.558 Y88.907 E491.29384
G1 X186.532 Y88.899 E491.30019
G1 X186.532 Y88.898 E491.30043
G1 X186.07 Y88.742 E491.41428
G1 X184.402 Y88.523 E491.80708
G1 X183.586 Y88.417 E491.9992
G1 X182.37 Y88.016 E492.29816
G1 X181.254 Y87.394 E492.59647
G1 X180.268 Y86.564 E492.8974
G1 X179.465 Y85.575 E493.19484
G1 F2700 E489.19484
G0 F6000 X184.33 Y82.258
G1 F2700 E493.19484
G1 F1200 X184.469 Y82.443 E493.24887
G1 X184.644 Y82.579 E493.30062
G1 X184.854 Y82.669 E493.35397
G1 X185.078 Y82.699 E493.40673
G1 X185.3 Y82.673 E493.45892
G1 X185.512 Y82.588 E493.51225
G1 X185.693 Y82.449 E493.56554
G1 X185.831 Y82.274 E493.61757
G1 X185.921 Y82.064 E493.67092
G1 X185.951 Y81.842 E493.72322
G1 X185.924 Y81.617 E493.77613
G1 X185.838 Y81.406 E493.82934
G1 X185.702 Y81.224 E493.88238
G1 X185.527 Y81.087 E493.93428
G1 X185.313 Y80.997 E493.98848
G1 X185.094 Y80.967 E494.04009
G1 X184.868 Y80.994 E494.09323
G1 X184.658 Y81.079 E494.14613
G1 X184.476 Y81.216 E494.19932
G1 X184.338 Y81.392 E494.25154
G1 X184.249 Y81.605 E494.30544
G1 X184.219 Y81.825 E494.35728
G1 X184.245 Y82.05 E494.41016
G1 X184.33 Y82.258 E494.46263
G1 F2700 E490.46263
G0 F6000 X180.901 Y88.415
G0 X188.603 Y140.794
G0 X189.522 Y141.331
G1 F2700 E494.46263
G1 F1200 X189.396 Y155.917 E497.86838
G1 X174.815 Y155.79 E501.27297
G1 X174.858 Y155.768 E501.28425
G1 X175.483 Y155.278 E501.46968
G1 X175.805 Y155.025 E501.5653
G1 X176.041 Y154.75 E501.64991
G1 X176.383 Y154.354 E501.77208
G1 X176.597 Y154.103 E501.84909
G1 X177.29 Y152.892 E502.17487
G1 X177.248 Y152.892 E502.18467
