;FLAVOR:Marlin
;TIME:9635
;Filament used: 34.7423m
;Layer height: 0.6
;MINX:63.012
;MINY:63.747
;MINZ:0.32
;MAXX:234.896
;MAXY:213.659
;MAXZ:29.72
;Generated with Cura_SteamEngine 5.3.1
M140 S30
M105
M190 S30
M104 S220
M105
M109 S220
M82 ;absolute extrusion mode
G28 ; home all axes
G92 X-5.0 Y-10.0 ; set home offsets
M92 E136.8 ; Set E Steps to 136.8
G1 X0 Y0 Z0.2 F3000 ; get ready to prime
G92 E0 ; reset extrusion distance
G92 E0
G92 E0
G1 F1500 E-6.5
;LAYER_COUNT:50
;LAYER:0
M107
G0 F6000 X90.14 Y70.967 Z0.32
;TYPE:SKIRT
G1 F1500 E0
G1 F1200 X90.702 Y70.249 E0.09704
G1 X91.325 Y69.583 E0.19411
G1 X92.004 Y68.974 E0.29118
G1 X92.733 Y68.427 E0.38819
G1 X93.508 Y67.946 E0.48527
G1 X94.303 Y67.543 E0.58013
G1 X96.437 Y66.574 E0.82958
G1 X97.283 Y66.233 E0.92666
G1 X98.128 Y65.976 E1.02066
G1 X98.937 Y65.768 E1.10957
G1 X99.57 Y65.618 E1.1788
G1 X100.466 Y65.447 E1.27589
G1 X101.373 Y65.355 E1.37292
G1 X102.285 Y65.343 E1.46999
G1 X103.194 Y65.411 E1.56701
G1 X104.157 Y65.571 E1.67091
G1 X104.779 Y65.714 E1.73884
G1 X160.716 Y80.172 E7.888
G1 X161.377 Y80.353 E7.96094
G1 X161.937 Y80.524 E8.02326
G1 X162.701 Y80.78 E8.10902
G1 X165.146 Y81.562 E8.38223
G1 X167.649 Y82.285 E8.65952
G1 X169.376 Y82.738 E8.84955
G1 X211.54 Y93.364 E13.47748
G1 X212.687 Y93.67 E13.60383
G1 X215.282 Y94.324 E13.88866
G1 X216.067 Y94.501 E13.9743
G1 X217.468 Y94.841 E14.12774
G1 X222.409 Y96.118 E14.67091
G1 X223.023 Y96.285 E14.73863
G1 X223.891 Y96.562 E14.8356
G1 X224.732 Y96.915 E14.93268
G1 X225.539 Y97.34 E15.02975
G1 X226.08 Y97.679 E15.0977
G1 X226.734 Y98.117 E15.18148
G1 X227.469 Y98.657 E15.27855
G1 X228.007 Y99.122 E15.35423
G1 X228.272 Y99.367 E15.39265
G1 X228.822 Y99.914 E15.47521
G1 X229.271 Y100.396 E15.54532
G1 X229.782 Y100.988 E15.62855
G1 X230.01 Y101.273 E15.6674
G1 X230.328 Y101.692 E15.72338
G1 X231.144 Y102.825 E15.87199
G1 X231.534 Y103.396 E15.94558
G1 X232.008 Y104.174 E16.04255
G1 X232.413 Y104.992 E16.13969
G1 X232.744 Y105.841 E16.23668
G1 X233 Y106.716 E16.33371
G1 X233.178 Y107.611 E16.43083
G1 X233.277 Y108.517 E16.52784
G1 X233.296 Y109.429 E16.62492
G1 X233.236 Y110.339 E16.72199
G1 X233.016 Y111.601 E16.85833
G1 X232.801 Y112.504 E16.95713
G1 X229.724 Y124.417 E18.26667
G1 X229.546 Y125.063 E18.33798
G1 X229.266 Y125.93 E18.43495
G1 X228.91 Y126.77 E18.53205
G1 X228.483 Y127.576 E18.62913
G1 X228.203 Y128.024 E18.68536
G1 X227.324 Y129.357 E18.85531
G1 X225.927 Y131.567 E19.13358
G1 X224.641 Y133.734 E19.40177
G1 X223.405 Y135.957 E19.67248
G1 X222.252 Y138.18 E19.93901
G1 X221.13 Y140.498 E20.2131
G1 X220.108 Y142.773 E20.47855
G1 X219.109 Y145.177 E20.75562
G1 X218.222 Y147.491 E21.01938
G1 X217.376 Y149.905 E21.29163
G1 X216.616 Y152.282 E21.55724
G1 X215.907 Y154.739 E21.82941
G1 X215.269 Y157.211 E22.10114
G1 X214.706 Y159.675 E22.37014
G1 X214.214 Y162.158 E22.63955
G1 X213.794 Y164.638 E22.90726
G1 X213.441 Y167.149 E23.17714
G1 X213.157 Y169.694 E23.4497
G1 X212.949 Y172.204 E23.71776
G1 X212.81 Y174.733 E23.98733
G1 X212.743 Y177.252 E24.25553
G1 X212.749 Y179.811 E24.52789
G1 X212.824 Y182.322 E24.79526
G1 X212.974 Y184.876 E25.06756
G1 X213.036 Y185.599 E25.14479
G1 X213.102 Y186.532 E25.24434
G1 X213.126 Y187.444 E25.34144
G1 X213.071 Y188.354 E25.43847
G1 X212.936 Y189.256 E25.53554
G1 X212.831 Y189.732 E25.58742
G1 X212.642 Y190.503 E25.67191
G1 X209.558 Y202.432 E26.98329
G1 X209.367 Y203.129 E27.06021
G1 X209.088 Y203.997 E27.15724
G1 X208.734 Y204.837 E27.25426
G1 X208.307 Y205.643 E27.35134
G1 X207.811 Y206.409 E27.44847
G1 X207.251 Y207.128 E27.54546
G1 X206.629 Y207.795 E27.64253
G1 X205.952 Y208.405 E27.73952
G1 X205.223 Y208.954 E27.83665
G1 X204.45 Y209.437 E27.93367
G1 X204.011 Y209.671 E27.98661
G1 X203.164 Y210.088 E28.08709
G1 X201.826 Y210.699 E28.24365
G1 X200.981 Y211.041 E28.34067
G1 X200.462 Y211.225 E28.39928
G1 X199.706 Y211.461 E28.48357
G1 X199.407 Y211.542 E28.51654
G1 X198.804 Y211.686 E28.58252
G1 X198.093 Y211.826 E28.65965
G1 X197.542 Y211.918 E28.7191
G1 X196.637 Y212.029 E28.81615
G1 X195.725 Y212.059 E28.91327
G1 X194.815 Y212.01 E29.01026
G1 X193.912 Y211.882 E29.10733
G1 X193.387 Y211.769 E29.16449
G1 X192.339 Y211.515 E29.27926
G1 X187.601 Y210.291 E29.80009
G1 X186.224 Y209.915 E29.95201
G1 X184.854 Y209.521 E30.10373
G1 X183.069 Y209.053 E30.30014
G1 X181.853 Y208.748 E30.43357
G1 X139.741 Y197.59 E35.07031
G1 X137.268 Y196.971 E35.34164
G1 X134.785 Y196.425 E35.61223
G1 X133.418 Y196.165 E35.76033
G1 X133.212 Y196.116 E35.78286
G1 X131.873 Y195.86 E35.92796
G1 X131.226 Y195.714 E35.99855
G1 X75.274 Y181.254 E42.14931
G1 X74.616 Y181.075 E42.22189
G1 X73.747 Y180.798 E42.31896
G1 X72.906 Y180.445 E42.41604
G1 X72.1 Y180.02 E42.51302
G1 X71.333 Y179.526 E42.61012
G1 X70.548 Y178.911 E42.71626
G1 X69.958 Y178.381 E42.80067
G1 X69.51 Y177.941 E42.8675
G1 X68.969 Y177.382 E42.9503
G1 X68.421 Y176.769 E43.03781
G1 X67.882 Y176.107 E43.12867
G1 X67.172 Y175.184 E43.25261
G1 X66.666 Y174.504 E43.34282
G1 X66.154 Y173.749 E43.43991
G1 X65.71 Y172.952 E43.53701
G1 X65.338 Y172.12 E43.63401
G1 X65.04 Y171.258 E43.73108
G1 X64.819 Y170.373 E43.82817
G1 X64.676 Y169.472 E43.92527
G1 X64.612 Y168.563 E44.02225
G1 X64.629 Y167.651 E44.11934
G1 X64.725 Y166.744 E44.21641
G1 X64.898 Y165.859 E44.31238
G1 X65.077 Y165.116 E44.39373
G1 X66.944 Y157.889 E45.18817
G1 X67.12 Y157.251 E45.25861
G1 X67.401 Y156.384 E45.35561
G1 X67.757 Y155.544 E45.45271
G1 X68.185 Y154.739 E45.54974
G1 X68.771 Y153.85 E45.66307
G1 X69.62 Y152.697 E45.81547
G1 X71.083 Y150.651 E46.08317
G1 X72.53 Y148.502 E46.35891
G1 X73.861 Y146.397 E46.62398
G1 X75.155 Y144.217 E46.8938
G1 X76.399 Y141.983 E47.16595
G1 X77.562 Y139.746 E47.43429
G1 X78.658 Y137.483 E47.70191
G1 X79.7 Y135.166 E47.9723
G1 X80.679 Y132.815 E48.24335
G1 X81.592 Y130.43 E48.51516
G1 X82.427 Y128.058 E48.7828
G1 X83.201 Y125.638 E49.05322
G1 X83.902 Y123.212 E49.32199
G1 X84.534 Y120.766 E49.59087
G1 X85.106 Y118.266 E49.86383
G1 X85.595 Y115.809 E50.13046
G1 X86.022 Y113.289 E50.4025
G1 X86.376 Y110.783 E50.67186
G1 X86.655 Y108.288 E50.93907
G1 X86.867 Y105.748 E51.21035
G1 X87.007 Y103.216 E51.48024
G1 X87.075 Y100.696 E51.74855
G1 X87.071 Y98.117 E52.02304
G1 X86.996 Y95.615 E52.28946
G1 X86.85 Y93.099 E52.55769
G1 X86.634 Y90.605 E52.82413
G1 X86.165 Y86.762 E53.23618
G1 X86.077 Y85.854 E53.33327
G1 X86.068 Y84.942 E53.43035
G1 X86.139 Y84.033 E53.52739
G1 X86.353 Y82.856 E53.65471
G1 X86.547 Y82.058 E53.74212
G1 X88.361 Y75.034 E54.51423
G1 X88.578 Y74.244 E54.60142
G1 X88.859 Y73.377 E54.69843
G1 X89.215 Y72.537 E54.79553
G1 X89.643 Y71.732 E54.89256
G1 X90.14 Y70.967 E54.98966
G0 F6000 X89.469 Y70.531
G1 F1200 X90.118 Y69.702 E55.10171
G1 X90.791 Y68.987 E55.20622
G1 X91.47 Y68.378 E55.3033
G1 X92.311 Y67.747 E55.4152
G1 X93.146 Y67.232 E55.51961
G1 X93.941 Y66.829 E55.61448
G1 X96.138 Y65.832 E55.87126
G1 X96.984 Y65.491 E55.96834
G1 X97.929 Y65.201 E56.07355
G1 X98.753 Y64.99 E56.16408
G1 X99.42 Y64.832 E56.23704
G1 X100.316 Y64.661 E56.33412
G1 X101.362 Y64.555 E56.44602
G1 X102.345 Y64.545 E56.55065
G1 X103.254 Y64.613 E56.64767
G1 X104.336 Y64.791 E56.76437
G1 X104.979 Y64.939 E56.8346
G1 X160.927 Y79.4 E62.98497
G1 X161.611 Y79.588 E63.06047
G1 X162.191 Y79.765 E63.12502
G1 X162.955 Y80.021 E63.21077
G1 X165.368 Y80.793 E63.48042
G1 X167.87 Y81.516 E63.75761
G1 X169.572 Y81.962 E63.94487
G1 X211.746 Y92.591 E68.57391
G1 X212.883 Y92.894 E68.69915
G1 X215.478 Y93.548 E68.98398
G1 X216.256 Y93.724 E69.06888
G1 X217.668 Y94.066 E69.2235
G1 X222.619 Y95.346 E69.76778
G1 X223.266 Y95.523 E69.83917
G1 X224.201 Y95.824 E69.94371
G1 X225.042 Y96.177 E70.04079
G1 X225.964 Y96.662 E70.15167
G1 X226.525 Y97.014 E70.22216
G1 X227.208 Y97.472 E70.30968
G1 X227.943 Y98.012 E70.40675
G1 X228.55 Y98.535 E70.49203
G1 X228.836 Y98.8 E70.53353
G1 X229.407 Y99.369 E70.61932
G1 X229.877 Y99.873 E70.69267
G1 X230.407 Y100.488 E70.77908
G1 X230.647 Y100.789 E70.82005
G1 X230.977 Y101.224 E70.87816
G1 X231.805 Y102.374 E71.02899
G1 X232.195 Y102.945 E71.10258
G1 X232.725 Y103.819 E71.21137
G1 X233.13 Y104.637 E71.30852
G1 X233.512 Y105.616 E71.42037
G1 X233.785 Y106.56 E71.52496
G1 X233.963 Y107.455 E71.62208
G1 X234.077 Y108.5 E71.73396
G1 X234.096 Y109.412 E71.83105
G1 X234.024 Y110.476 E71.94455
G1 X233.804 Y111.738 E72.0809
G1 X233.576 Y112.704 E72.18653
G1 X230.495 Y124.63 E73.49752
G1 X230.307 Y125.309 E73.57251
G1 X230.003 Y126.242 E73.67695
G1 X229.617 Y127.145 E73.78147
G1 X229.19 Y127.951 E73.87855
G1 X228.871 Y128.464 E73.94284
G1 X227.992 Y129.797 E74.11279
G1 X226.615 Y131.975 E74.38704
G1 X225.329 Y134.142 E74.65523
G1 X224.104 Y136.346 E74.92361
G1 X222.972 Y138.529 E75.18533
G1 X221.86 Y140.826 E75.45695
G1 X220.838 Y143.101 E75.72239
G1 X219.848 Y145.484 E75.99704
G1 X218.977 Y147.756 E76.25601
G1 X218.131 Y150.17 E76.52826
G1 X217.385 Y152.504 E76.78905
G1 X216.676 Y154.961 E77.06123
G1 X216.044 Y157.411 E77.33052
G1 X215.486 Y159.853 E77.59713
G1 X214.999 Y162.313 E77.86404
G1 X214.583 Y164.772 E78.12947
G1 X214.236 Y167.238 E78.39452
G1 X213.952 Y169.783 E78.66707
G1 X213.748 Y172.248 E78.93033
G1 X213.609 Y174.777 E79.1999
G1 X213.543 Y177.273 E79.46565
G1 X213.549 Y179.787 E79.73322
G1 X213.623 Y182.275 E79.99814
G1 X213.773 Y184.829 E80.27044
G1 X213.834 Y185.543 E80.34671
G1 X213.902 Y186.511 E80.44999
G1 X213.925 Y187.492 E80.55443
G1 X213.87 Y188.402 E80.65146
G1 X213.727 Y189.374 E80.75602
G1 X213.608 Y189.922 E80.81571
G1 X213.417 Y190.703 E80.90128
G1 X210.33 Y202.643 E82.21387
G1 X210.129 Y203.374 E82.29456
G1 X209.85 Y204.242 E82.3916
G1 X209.441 Y205.212 E82.50364
G1 X208.979 Y206.078 E82.60811
G1 X208.483 Y206.844 E82.70523
G1 X207.882 Y207.62 E82.8097
G1 X207.214 Y208.341 E82.91431
G1 X206.488 Y208.999 E83.01859
G1 X205.704 Y209.593 E83.12328
G1 X204.826 Y210.143 E83.23355
G1 X204.364 Y210.389 E83.28926
G1 X203.496 Y210.816 E83.39221
G1 X202.126 Y211.441 E83.55248
G1 X201.281 Y211.783 E83.64951
G1 X200.7 Y211.989 E83.71511
G1 X199.915 Y212.233 E83.80261
G1 X199.593 Y212.32 E83.83811
G1 X198.959 Y212.471 E83.90747
G1 X198.225 Y212.615 E83.98708
G1 X197.639 Y212.712 E84.0503
G1 X196.663 Y212.829 E84.15492
G1 X195.751 Y212.859 E84.25204
G1 X194.772 Y212.809 E84.35638
G1 X193.744 Y212.664 E84.46687
G1 X193.199 Y212.546 E84.52622
G1 X192.139 Y212.29 E84.64228
G1 X187.39 Y211.063 E85.16433
G1 X186.003 Y210.684 E85.31736
G1 X184.636 Y210.291 E85.46875
G1 X182.866 Y209.827 E85.6635
G1 X181.648 Y209.521 E85.79716
G1 X139.547 Y198.366 E90.43269
G1 X137.079 Y197.748 E90.70348
G1 X134.636 Y197.211 E90.9697
G1 X133.269 Y196.951 E91.1178
G1 X133.055 Y196.901 E91.14119
G1 X131.697 Y196.64 E91.28837
G1 X131.026 Y196.489 E91.36157
G1 X75.064 Y182.026 E97.51345
G1 X74.373 Y181.837 E97.58969
G1 X73.437 Y181.536 E97.69434
G1 X72.596 Y181.183 E97.79141
G1 X71.667 Y180.693 E97.9032
G1 X70.9 Y180.199 E98.0003
G1 X70.013 Y179.506 E98.1201
G1 X69.397 Y178.952 E98.20828
G1 X68.935 Y178.497 E98.27729
G1 X68.373 Y177.915 E98.3634
G1 X67.801 Y177.274 E98.45484
G1 X67.248 Y176.595 E98.54804
G1 X66.53 Y175.662 E98.67334
G1 X66.024 Y174.982 E98.76356
G1 X65.455 Y174.138 E98.87189
G1 X65.011 Y173.341 E98.96899
G1 X64.608 Y172.447 E99.07337
G1 X64.264 Y171.452 E99.18542
G1 X64.043 Y170.567 E99.2825
G1 X63.878 Y169.528 E99.39447
G1 X63.812 Y168.548 E99.49901
G1 X63.833 Y167.567 E99.60344
G1 X63.929 Y166.66 E99.70052
G1 X64.12 Y165.672 E99.80762
G1 X64.302 Y164.916 E99.89038
G1 X66.173 Y157.676 E100.68627
G1 X66.359 Y157.004 E100.76048
G1 X66.664 Y156.072 E100.86485
G1 X67.02 Y155.232 E100.96195
G1 X67.479 Y154.363 E101.06655
G1 X68.103 Y153.41 E101.18779
G1 X68.969 Y152.232 E101.3434
G1 X70.419 Y150.204 E101.60874
G1 X71.866 Y148.055 E101.88448
G1 X73.185 Y145.969 E102.14716
G1 X74.467 Y143.809 E102.4145
G1 X75.691 Y141.61 E102.68236
G1 X76.852 Y139.377 E102.95022
G1 X77.93 Y137.15 E103.21356
G1 X78.961 Y134.858 E103.48104
G1 X79.94 Y132.507 E103.7521
G1 X80.837 Y130.164 E104.01912
G1 X81.672 Y127.792 E104.28676
G1 X82.432 Y125.415 E104.55237
G1 X83.133 Y122.99 E104.82103
G1 X83.759 Y120.566 E105.08749
G1 X84.321 Y118.109 E105.35575
G1 X84.81 Y115.653 E105.62228
G1 X85.233 Y113.155 E105.89193
G1 X85.584 Y110.671 E106.15893
G1 X85.86 Y108.199 E106.42367
G1 X86.068 Y105.704 E106.69014
G1 X86.208 Y103.172 E106.96004
G1 X86.275 Y100.674 E107.226
G1 X86.271 Y98.141 E107.4956
G1 X86.196 Y95.639 E107.76201
G1 X86.051 Y93.145 E108.0279
G1 X85.837 Y90.674 E108.29188
G1 X85.369 Y86.839 E108.70308
G1 X85.277 Y85.862 E108.80752
G1 X85.27 Y84.88 E108.91204
G1 X85.341 Y83.971 E109.00908
G1 X85.566 Y82.713 E109.1451
G1 X85.772 Y81.858 E109.2387
G1 X87.59 Y74.822 E110.01215
G1 X87.817 Y73.997 E110.10322
G1 X88.122 Y73.065 E110.2076
G1 X88.478 Y72.225 E110.3047
G1 X88.972 Y71.296 E110.41668
G1 X89.469 Y70.531 E110.51378
G0 F6000 X88.798 Y70.095
G1 F1200 X89.535 Y69.154 E110.64099
G1 X90.257 Y68.391 E110.75279
G1 X90.936 Y67.782 E110.84987
G1 X91.891 Y67.066 E110.97691
G1 X92.784 Y66.518 E111.08842
G1 X93.579 Y66.115 E111.18329
G1 X95.839 Y65.09 E111.44741
G1 X96.749 Y64.726 E111.55172
G1 X97.694 Y64.436 E111.65693
G1 X98.569 Y64.212 E111.75306
G1 X99.27 Y64.046 E111.82973
G1 X100.166 Y63.875 E111.92682
G1 X101.281 Y63.759 E112.04613
G1 X102.405 Y63.747 E112.16577
G1 X103.314 Y63.815 E112.26278
G1 X104.515 Y64.011 E112.3923
G1 X105.179 Y64.164 E112.46482
G1 X161.139 Y78.629 E118.61654
G1 X161.845 Y78.823 E118.69447
G1 X162.445 Y79.006 E118.76123
G1 X163.209 Y79.262 E118.84699
G1 X165.59 Y80.024 E119.11307
G1 X168.091 Y80.747 E119.39016
G1 X169.768 Y81.186 E119.57466
G1 X211.952 Y91.818 E124.20481
G1 X213.079 Y92.118 E124.32894
G1 X215.674 Y92.772 E124.61376
G1 X216.444 Y92.946 E124.69778
G1 X217.868 Y93.291 E124.85373
G1 X222.83 Y94.574 E125.39921
G1 X223.511 Y94.761 E125.47438
G1 X224.511 Y95.086 E125.58629
G1 X225.352 Y95.439 E125.68336
G1 X226.389 Y95.984 E125.80805
G1 X226.971 Y96.35 E125.88122
G1 X227.682 Y96.827 E125.97235
G1 X228.417 Y97.367 E126.06942
G1 X229.094 Y97.948 E126.16437
G1 X229.401 Y98.233 E126.20896
G1 X229.992 Y98.823 E126.29784
G1 X230.483 Y99.351 E126.37458
G1 X231.033 Y99.989 E126.46423
G1 X231.284 Y100.305 E126.50718
G1 X231.626 Y100.757 E126.56751
G1 X232.466 Y101.923 E126.72046
G1 X232.856 Y102.494 E126.79405
G1 X233.442 Y103.464 E126.91467
G1 X233.847 Y104.282 E127.01182
G1 X234.281 Y105.394 E127.13886
G1 X234.554 Y106.338 E127.24345
G1 X234.748 Y107.299 E127.3478
G1 X234.877 Y108.483 E127.47456
G1 X234.896 Y109.395 E127.57165
G1 X234.822 Y110.53 E127.69271
G1 X234.583 Y111.922 E127.84303
G1 X234.351 Y112.904 E127.95042
G1 X231.266 Y124.843 E129.26285
G1 X231.068 Y125.557 E129.34171
G1 X230.764 Y126.49 E129.44615
G1 X230.324 Y127.52 E129.56536
G1 X229.897 Y128.326 E129.66244
G1 X229.539 Y128.904 E129.7348
G1 X228.66 Y130.237 E129.90475
G1 X227.291 Y132.403 E130.17747
G1 X226.017 Y134.55 E130.44318
G1 X224.803 Y136.735 E130.70922
G1 X223.692 Y138.878 E130.96613
G1 X222.59 Y141.154 E131.23527
G1 X221.568 Y143.429 E131.50072
G1 X220.587 Y145.791 E131.77293
G1 X219.732 Y148.021 E132.02712
G1 X218.886 Y150.435 E132.29937
G1 X218.154 Y152.726 E132.55535
G1 X217.445 Y155.183 E132.82753
G1 X216.819 Y157.611 E133.09439
G1 X216.266 Y160.031 E133.3586
G1 X215.784 Y162.468 E133.623
G1 X215.372 Y164.905 E133.88606
G1 X215.031 Y167.327 E134.14638
G1 X214.747 Y169.872 E134.41893
G1 X214.547 Y172.292 E134.67738
G1 X214.408 Y174.821 E134.94695
G1 X214.343 Y177.294 E135.21025
G1 X214.349 Y179.763 E135.47303
G1 X214.422 Y182.228 E135.7355
G1 X214.572 Y184.782 E136.0078
G1 X214.632 Y185.487 E136.0831
G1 X214.702 Y186.492 E136.19033
G1 X214.724 Y187.54 E136.30189
G1 X214.669 Y188.45 E136.39892
G1 X214.509 Y189.544 E136.5166
G1 X214.385 Y190.112 E136.57848
G1 X214.192 Y190.903 E136.66513
G1 X211.101 Y202.855 E137.97907
G1 X210.891 Y203.619 E138.0634
G1 X210.612 Y204.487 E138.16044
G1 X210.147 Y205.589 E138.28774
G1 X209.651 Y206.513 E138.39936
G1 X209.155 Y207.279 E138.49648
G1 X208.469 Y208.164 E138.61566
G1 X207.801 Y208.885 E138.72027
G1 X206.971 Y209.637 E138.83947
G1 X206.129 Y210.271 E138.95165
