;FLAVOR:Marlin
;TIME:6767
;Filament used: 22.3751m
;Layer height: 0.6
;MINX:88.776
;MINY:79.917
;MINZ:0.32
;MAXX:211.232
;MAXY:216.539
;MAXZ:29.72
;Generated with Cura_SteamEngine 5.3.1
M140 S30
M105
M190 S30
M104 S220
M105
M109 S220
M82 ;absolute extrusion mode
G28 ; home all axes
G92 X-5.0 Y-10.0 ; set home offsets
M92 E136.8 ; Set E Steps to 136.8
G1 X0 Y0 Z0.2 F3000 ; get ready to prime
G92 E0 ; reset extrusion distance
G92 E0
G92 E0
G1 F1500 E-6.5
;LAYER_COUNT:50
;LAYER:0
M107
G0 F6000 X95.023 Y85.138 Z0.32
;TYPE:SKIRT
G1 F1500 E0
G1 F1200 X95.648 Y84.473 E0.09713
G1 X96.329 Y83.867 E0.19415
G1 X97.06 Y83.322 E0.2912
G1 X97.836 Y82.843 E0.38826
G1 X98.651 Y82.434 E0.48531
G1 X99.499 Y82.098 E0.58239
G1 X100.373 Y81.838 E0.67944
G1 X101.267 Y81.655 E0.77657
G1 X102.173 Y81.552 E0.87362
G1 X102.748 Y81.527 E0.93487
G1 X103.423 Y81.517 E1.00672
G1 X196.55 Y81.517 E10.91845
G1 X197.249 Y81.527 E10.99286
G1 X198.159 Y81.58 E11.08988
G1 X199.061 Y81.713 E11.18692
G1 X199.949 Y81.924 E11.28406
G1 X200.814 Y82.212 E11.38109
G1 X201.65 Y82.574 E11.47805
G1 X202.452 Y83.009 E11.57516
G1 X203.213 Y83.512 E11.67225
G1 X203.926 Y84.08 E11.76927
G1 X204.587 Y84.708 E11.86631
G1 X205.02 Y85.186 E11.93496
G1 X205.997 Y86.334 E12.0954
G1 X206.697 Y87.256 E12.21861
G1 X207.135 Y87.905 E12.30194
G1 X207.524 Y88.514 E12.37885
G1 X208.105 Y89.58 E12.50807
G1 X208.318 Y90.031 E12.56115
G1 X208.751 Y91.096 E12.68351
G1 X208.936 Y91.635 E12.74417
G1 X209.194 Y92.509 E12.84116
G1 X209.421 Y93.737 E12.97407
G1 X209.488 Y94.28 E13.0323
G1 X209.564 Y95.372 E13.14881
G1 X209.576 Y96.124 E13.22885
G1 X209.573 Y177.816 E21.92353
G1 X209.559 Y179.275 E22.07882
G1 X209.556 Y181.45 E22.31031
G1 X209.592 Y182.807 E22.45479
G1 X209.624 Y184.841 E22.6713
G1 X209.625 Y198.512 E24.12634
G1 X209.632 Y198.988 E24.17701
G1 X209.625 Y199.147 E24.19395
G1 X209.624 Y201.134 E24.40543
G1 X209.614 Y201.837 E24.48026
G1 X209.561 Y202.747 E24.57728
G1 X209.429 Y203.65 E24.67441
G1 X209.218 Y204.537 E24.77145
G1 X208.93 Y205.402 E24.86848
G1 X208.567 Y206.239 E24.96558
G1 X208.124 Y207.054 E25.06431
G1 X207.692 Y207.764 E25.15276
G1 X207.272 Y208.418 E25.23549
G1 X206.744 Y209.166 E25.33294
G1 X205.827 Y210.347 E25.49208
G1 X205.259 Y211.052 E25.58843
G1 X204.656 Y211.736 E25.68548
G1 X203.996 Y212.365 E25.78252
G1 X203.283 Y212.934 E25.87961
G1 X202.523 Y213.438 E25.97667
G1 X201.721 Y213.873 E26.07377
G1 X200.885 Y214.237 E26.17082
G1 X200.02 Y214.526 E26.26789
G1 X199.133 Y214.738 E26.36495
G1 X198.231 Y214.872 E26.46201
G1 X197.329 Y214.926 E26.55818
G1 X196.654 Y214.937 E26.63003
G1 X189.337 Y214.939 E27.4088
G1 X188.478 Y214.928 E27.50023
G1 X187.568 Y214.875 E27.59725
G1 X186.665 Y214.743 E27.69438
G1 X185.778 Y214.532 E27.79142
G1 X184.735 Y214.175 E27.90875
G1 X183.754 Y213.779 E28.02135
G1 X181.329 Y212.834 E28.29835
G1 X178.98 Y211.995 E28.56383
G1 X176.519 Y211.193 E28.83932
G1 X174.12 Y210.486 E29.10551
G1 X171.659 Y209.835 E29.37644
G1 X169.202 Y209.26 E29.64501
G1 X166.725 Y208.753 E29.91411
G1 X164.22 Y208.314 E30.18479
G1 X161.697 Y207.945 E30.45618
G1 X159.197 Y207.651 E30.72409
G1 X156.669 Y207.426 E30.99422
G1 X154.155 Y207.274 E31.26228
G1 X151.597 Y207.191 E31.53467
G1 X149.076 Y207.182 E31.80299
G1 X146.554 Y207.243 E32.07149
G1 X144.001 Y207.378 E32.34359
G1 X141.476 Y207.583 E32.61322
G1 X138.978 Y207.857 E32.88068
G1 X136.444 Y208.207 E33.15294
G1 X133.944 Y208.626 E33.42273
G1 X131.486 Y209.11 E33.68937
G1 X129.031 Y209.663 E33.95721
G1 X126.536 Y210.303 E34.23135
G1 X124.09 Y211.003 E34.50214
G1 X121.721 Y211.756 E34.76671
G1 X119.296 Y212.601 E35.04003
G1 X116.938 Y213.498 E35.30854
G1 X115.225 Y214.189 E35.50513
G1 X114.364 Y214.489 E35.60217
G1 X113.48 Y214.712 E35.69921
G1 X112.58 Y214.858 E35.79625
G1 X111.543 Y214.927 E35.90686
G1 X110.929 Y214.937 E35.97222
G1 X103.611 Y214.939 E36.7511
G1 X102.754 Y214.928 E36.84232
G1 X101.844 Y214.875 E36.93933
G1 X100.942 Y214.743 E37.03636
G1 X100.054 Y214.532 E37.1335
G1 X99.189 Y214.244 E37.23053
G1 X98.352 Y213.882 E37.32759
G1 X97.551 Y213.447 E37.42461
G1 X96.79 Y212.944 E37.52169
G1 X95.956 Y212.278 E37.63529
G1 X95.217 Y211.569 E37.74429
G1 X94.679 Y210.959 E37.83085
G1 X94.011 Y210.139 E37.94342
G1 X93.499 Y209.493 E38.03115
G1 X93.028 Y208.851 E38.1159
G1 X92.534 Y208.119 E38.20989
G1 X92 Y207.281 E38.31565
G1 X91.548 Y206.49 E38.41261
G1 X91.167 Y205.661 E38.50972
G1 X90.86 Y204.803 E38.60671
G1 X90.629 Y203.92 E38.70385
G1 X90.476 Y203.021 E38.80091
G1 X90.398 Y201.948 E38.91541
G1 X90.377 Y200.935 E39.02325
G1 X90.376 Y184.691 E40.75214
G1 X90.398 Y183.228 E40.90787
G1 X90.441 Y181.676 E41.07311
G1 X90.443 Y179.316 E41.32429
G1 X90.426 Y177.743 E41.49172
G1 X90.428 Y95.799 E50.21322
G1 X90.438 Y95.092 E50.28848
G1 X90.491 Y94.182 E50.3855
G1 X90.623 Y93.279 E50.48262
G1 X90.851 Y92.334 E50.58609
G1 X91.039 Y91.71 E50.65545
G1 X91.179 Y91.285 E50.70308
G1 X91.653 Y90.099 E50.83901
G1 X91.882 Y89.614 E50.8961
G1 X92.377 Y88.689 E51.00776
G1 X92.807 Y87.997 E51.09447
G1 X93.082 Y87.586 E51.1471
G1 X93.519 Y86.973 E51.22723
G1 X93.842 Y86.554 E51.28354
G1 X94.386 Y85.884 E51.37539
G1 X95.023 Y85.138 E51.4798
G0 F6000 X94.44 Y84.59
G1 F1200 X95.116 Y83.875 E51.58452
G1 X95.797 Y83.269 E51.68155
G1 X96.64 Y82.641 E51.79343
G1 X97.477 Y82.128 E51.89791
G1 X98.356 Y81.69 E52.00244
G1 X99.204 Y81.354 E52.09952
G1 X100.145 Y81.071 E52.2041
G1 X101.107 Y80.871 E52.30868
G1 X102.083 Y80.757 E52.41327
G1 X102.736 Y80.727 E52.48284
G1 X103.411 Y80.717 E52.55469
G1 X196.561 Y80.717 E62.46887
G1 X197.296 Y80.728 E62.54711
G1 X198.206 Y80.781 E62.64412
G1 X199.246 Y80.935 E62.75602
G1 X200.202 Y81.165 E62.86067
G1 X201.067 Y81.453 E62.95771
G1 X201.968 Y81.84 E63.06207
G1 X202.893 Y82.342 E63.17409
G1 X203.711 Y82.886 E63.27864
G1 X204.477 Y83.5 E63.38313
G1 X205.18 Y84.171 E63.48656
G1 X205.629 Y84.668 E63.55785
G1 X206.634 Y85.85 E63.72298
G1 X207.36 Y86.808 E63.85091
G1 X207.809 Y87.474 E63.9364
G1 X208.198 Y88.083 E64.01331
G1 X208.828 Y89.238 E64.15334
G1 X209.059 Y89.73 E64.21119
G1 X209.508 Y90.836 E64.33824
G1 X209.693 Y91.375 E64.39889
G1 X209.981 Y92.364 E64.50852
G1 X210.208 Y93.592 E64.64143
G1 X210.286 Y94.224 E64.70921
G1 X210.364 Y95.359 E64.8303
G1 X210.376 Y96.124 E64.91173
G1 X210.373 Y177.824 E73.60726
G1 X210.359 Y179.283 E73.76255
G1 X210.356 Y181.429 E73.99095
G1 X210.392 Y182.794 E74.13628
G1 X210.424 Y184.841 E74.35418
G1 X210.425 Y198.512 E75.80922
G1 X210.432 Y198.976 E75.85861
G1 X210.425 Y199.159 E75.8781
G1 X210.424 Y201.145 E76.08947
G1 X210.413 Y201.884 E76.16813
G1 X210.353 Y202.863 E76.27253
G1 X210.221 Y203.766 E76.36966
G1 X209.977 Y204.79 E76.4817
G1 X209.689 Y205.655 E76.57873
G1 X209.27 Y206.621 E76.6908
G1 X208.827 Y207.436 E76.78953
G1 X208.365 Y208.196 E76.88419
G1 X207.926 Y208.879 E76.9706
G1 X207.376 Y209.657 E77.07201
G1 X206.45 Y210.849 E77.23266
G1 X205.859 Y211.581 E77.33279
G1 X205.208 Y212.315 E77.43721
G1 X204.548 Y212.944 E77.53425
G1 X203.725 Y213.601 E77.64633
G1 X202.965 Y214.105 E77.74339
G1 X202.102 Y214.576 E77.84803
G1 X201.139 Y214.996 E77.95985
G1 X200.274 Y215.285 E78.05691
G1 X199.319 Y215.516 E78.16149
G1 X198.279 Y215.671 E78.2734
G1 X197.377 Y215.725 E78.36957
G1 X196.654 Y215.737 E78.44654
G1 X189.327 Y215.739 E79.22637
G1 X188.431 Y215.727 E79.32174
G1 X187.452 Y215.667 E79.42613
G1 X186.549 Y215.535 E79.52326
G1 X185.519 Y215.289 E79.63597
G1 X184.436 Y214.917 E79.75785
G1 X183.455 Y214.521 E79.87044
G1 X181.06 Y213.587 E80.14405
G1 X178.732 Y212.756 E80.40713
G1 X176.271 Y211.954 E80.68262
G1 X173.909 Y211.257 E80.94473
G1 X171.477 Y210.614 E81.21247
G1 X169.037 Y210.043 E81.47918
G1 X166.57 Y209.538 E81.74719
G1 X164.104 Y209.106 E82.01365
G1 X161.591 Y208.739 E82.28396
G1 X159.104 Y208.446 E82.55048
G1 X156.619 Y208.225 E82.81601
G1 X154.117 Y208.074 E83.08279
G1 X151.571 Y207.991 E83.35391
G1 X149.092 Y207.982 E83.61776
G1 X146.581 Y208.043 E83.88509
G1 X144.043 Y208.177 E84.15559
G1 X141.555 Y208.379 E84.42127
G1 X139.065 Y208.652 E84.68787
G1 X136.576 Y208.996 E84.9553
G1 X134.094 Y209.412 E85.22315
G1 X131.641 Y209.895 E85.48924
G1 X129.23 Y210.438 E85.75228
G1 X126.735 Y211.078 E86.02642
G1 X124.31 Y211.772 E86.29488
G1 X121.973 Y212.515 E86.55588
G1 X119.58 Y213.349 E86.8256
G1 X117.222 Y214.246 E87.09412
G1 X115.524 Y214.931 E87.28899
G1 X114.56 Y215.265 E87.39757
G1 X113.676 Y215.488 E87.49461
G1 X112.708 Y215.648 E87.59903
G1 X111.556 Y215.727 E87.72193
G1 X110.929 Y215.737 E87.78867
G1 X103.601 Y215.739 E88.56861
G1 X102.707 Y215.727 E88.66377
G1 X101.728 Y215.667 E88.76816
G1 X100.826 Y215.535 E88.86519
G1 X99.801 Y215.291 E88.97733
G1 X98.936 Y215.003 E89.07436
G1 X97.97 Y214.585 E89.18639
G1 X97.169 Y214.15 E89.2834
G1 X96.291 Y213.569 E89.39545
G1 X95.402 Y212.855 E89.51681
G1 X94.617 Y212.098 E89.63288
G1 X94.059 Y211.464 E89.72277
G1 X93.384 Y210.636 E89.83647
G1 X92.854 Y209.966 E89.92739
G1 X92.365 Y209.299 E90.01542
G1 X91.859 Y208.549 E90.11171
G1 X91.305 Y207.678 E90.22158
G1 X90.853 Y206.887 E90.31854
G1 X90.44 Y205.995 E90.42316
G1 X90.086 Y205.005 E90.53506
G1 X89.84 Y204.054 E90.63961
G1 X89.687 Y203.155 E90.73667
G1 X89.598 Y201.965 E90.86368
G1 X89.577 Y200.935 E90.97333
G1 X89.576 Y184.679 E92.70349
G1 X89.598 Y183.206 E92.86028
G1 X89.641 Y181.654 E93.02553
G1 X89.643 Y179.315 E93.27448
G1 X89.626 Y177.743 E93.4418
G1 X89.628 Y95.788 E102.16447
G1 X89.639 Y95.045 E102.24356
G1 X89.699 Y94.066 E102.34795
G1 X89.831 Y93.163 E102.44508
G1 X90.073 Y92.146 E102.55634
G1 X90.279 Y91.46 E102.63258
G1 X90.436 Y90.988 E102.68552
G1 X90.91 Y89.802 E102.82146
G1 X91.159 Y89.272 E102.88378
G1 X91.698 Y88.267 E103.00516
G1 X92.142 Y87.552 E103.09473
G1 X92.417 Y87.141 E103.14737
G1 X92.885 Y86.485 E103.23313
G1 X93.221 Y86.05 E103.29163
G1 X93.778 Y85.365 E103.3856
G1 X94.44 Y84.59 E103.49408
G0 F6000 X93.832 Y84.07
G1 F1200 X94.584 Y83.277 E103.6104
G1 X95.319 Y82.627 E103.71483
G1 X96.162 Y81.999 E103.82671
G1 X97.12 Y81.412 E103.94629
G1 X98.061 Y80.946 E104.05805
G1 X98.909 Y80.61 E104.15513
G1 X99.982 Y80.288 E104.27437
G1 X101.014 Y80.076 E104.3865
G1 X101.99 Y79.962 E104.49108
G1 X102.724 Y79.927 E104.56929
G1 X103.399 Y79.917 E104.64114
G1 X196.573 Y79.917 E114.55788
G1 X197.343 Y79.929 E114.63984
G1 X198.253 Y79.982 E114.73686
G1 X199.433 Y80.157 E114.86382
G1 X200.389 Y80.387 E114.96848
G1 X201.32 Y80.694 E115.07281
G1 X202.284 Y81.105 E115.18435
G1 X203.275 Y81.639 E115.30416
G1 X204.154 Y82.22 E115.41631
G1 X205.029 Y82.921 E115.53564
G1 X205.774 Y83.635 E115.64546
G1 X206.238 Y84.15 E115.71924
G1 X207.272 Y85.367 E115.88921
G1 X207.998 Y86.325 E116.01714
G1 X208.483 Y87.043 E116.10936
G1 X208.872 Y87.652 E116.18627
G1 X209.552 Y88.898 E116.33735
G1 X209.8 Y89.429 E116.39973
G1 X210.265 Y90.576 E116.53146
G1 X210.45 Y91.115 E116.59211
G1 X210.768 Y92.219 E116.71439
G1 X210.995 Y93.447 E116.8473
G1 X211.084 Y94.169 E116.92473
G1 X211.164 Y95.346 E117.05029
G1 X211.176 Y96.124 E117.1331
G1 X211.173 Y177.832 E125.82948
G1 X211.159 Y179.291 E125.98477
G1 X211.156 Y181.408 E126.21009
G1 X211.192 Y182.781 E126.35627
G1 X211.224 Y184.841 E126.57555
G1 X211.225 Y198.512 E128.03059
G1 X211.232 Y198.964 E128.0787
G1 X211.225 Y199.159 E128.09947
G1 X211.224 Y201.157 E128.31212
G1 X211.212 Y201.933 E128.39472
G1 X211.152 Y202.912 E128.49912
G1 X211.013 Y203.882 E128.60341
G1 X210.736 Y205.043 E128.73045
G1 X210.448 Y205.908 E128.82748
G1 X209.973 Y207.003 E128.95452
G1 X209.511 Y207.852 E129.05739
G1 X209.038 Y208.629 E129.1542
G1 X208.599 Y209.312 E129.24062
G1 X208.008 Y210.148 E129.34959
G1 X207.072 Y211.352 E129.5119
G1 X206.458 Y212.112 E129.61589
G1 X205.807 Y212.846 E129.72031
G1 X205.1 Y213.523 E129.82449
G1 X204.167 Y214.268 E129.95156
G1 X203.407 Y214.772 E130.04862
G1 X202.422 Y215.309 E130.16803
G1 X201.393 Y215.755 E130.28739
G1 X200.462 Y216.063 E130.39176
G1 X199.507 Y216.294 E130.49634
G1 X198.327 Y216.47 E130.62331
G1 X197.425 Y216.524 E130.71949
G1 X196.667 Y216.537 E130.80018
G1 X189.316 Y216.539 E131.58256
G1 X188.382 Y216.526 E131.68198
G1 X187.403 Y216.466 E131.78637
G1 X186.433 Y216.327 E131.89067
G1 X185.259 Y216.046 E132.01915
G1 X184.176 Y215.674 E132.14102
G1 X183.156 Y215.263 E132.25807
G1 X180.769 Y214.332 E132.53076
G1 X178.484 Y213.517 E132.78896
G1 X176.023 Y212.715 E133.06445
G1 X173.689 Y212.026 E133.32346
G1 X171.295 Y211.393 E133.58702
G1 X168.872 Y210.826 E133.85187
G1 X166.415 Y210.323 E134.1188
G1 X163.988 Y209.898 E134.38104
G1 X161.489 Y209.533 E134.64984
G1 X159.01 Y209.241 E134.91551
G1 X156.569 Y209.024 E135.17634
G1 X154.079 Y208.874 E135.44183
G1 X151.545 Y208.791 E135.71168
G1 X149.108 Y208.782 E135.97105
G1 X146.608 Y208.843 E136.23721
G1 X144.085 Y208.976 E136.50612
G1 X141.634 Y209.175 E136.76784
G1 X139.158 Y209.446 E137.03294
G1 X136.708 Y209.785 E137.29619
G1 X134.244 Y210.198 E137.56209
G1 X131.796 Y210.68 E137.82764
G1 X129.429 Y211.213 E138.08588
G1 X126.934 Y211.853 E138.36002
G1 X124.53 Y212.541 E138.62616
G1 X122.225 Y213.274 E138.88359
G1 X119.864 Y214.097 E139.14971
G1 X117.506 Y214.994 E139.41822
G1 X115.786 Y215.687 E139.61558
G1 X114.756 Y216.041 E139.7315
G1 X113.872 Y216.264 E139.82854
G1 X112.763 Y216.446 E139.94815
G1 X111.569 Y216.527 E140.07552
G1 X110.929 Y216.537 E140.14365
G1 X103.59 Y216.539 E140.92475
G1 X102.658 Y216.526 E141.02396
G1 X101.679 Y216.466 E141.12835
G1 X100.71 Y216.327 E141.23254
G1 X99.548 Y216.05 E141.35968
G1 X98.683 Y215.762 E141.45671
G1 X97.588 Y215.288 E141.58371
G1 X96.787 Y214.853 E141.68072
G1 X95.79 Y214.193 E141.80798
G1 X94.901 Y213.479 E141.92933
G1 X94.016 Y212.627 E142.06008
G1 X93.458 Y211.993 E142.14997
G1 X92.757 Y211.132 E142.26814
G1 X92.209 Y210.439 E142.36218
G1 X91.702 Y209.746 E142.45356
G1 X91.184 Y208.978 E142.55216
G1 X90.61 Y208.075 E142.66604
G1 X90.158 Y207.284 E142.76301
G1 X89.714 Y206.331 E142.8749
G1 X89.311 Y205.205 E143.00219
G1 X89.065 Y204.254 E143.10674
G1 X88.898 Y203.289 E143.21097
G1 X88.798 Y201.981 E143.35059
G1 X88.777 Y200.935 E143.46194
G1 X88.776 Y184.667 E145.19339
G1 X88.798 Y183.184 E145.35124
G1 X88.841 Y181.632 E145.51649
G1 X88.843 Y179.314 E145.7632
G1 X88.826 Y177.743 E145.93042
G1 X88.828 Y95.776 E154.65436
G1 X88.84 Y94.996 E154.73739
G1 X88.9 Y94.017 E154.84178
G1 X89.039 Y93.047 E154.94608
G1 X89.307 Y91.916 E155.06979
G1 X89.52 Y91.208 E155.14848
G1 X89.693 Y90.691 E155.2065
G1 X90.167 Y89.505 E155.34244
G1 X90.454 Y88.894 E155.41428
G1 X91.018 Y87.845 E155.54105
G1 X91.477 Y87.107 E155.63355
G1 X91.766 Y86.676 E155.68878
G1 X92.252 Y85.996 E155.77773
G1 X92.6 Y85.545 E155.83836
G1 X93.17 Y84.845 E155.93444
G1 X93.832 Y84.07 E156.04292
G1 F1500 E149.54292
G0 F6000 X100.912 Y201.675
G0 X102.063 Y203.33
G0 X102.963 Y204.4
G0 X111.312 Y204.399
G0 X112.823 Y202.516
G0 X113.363 Y201.654
G0 X113.364 Y192.112
G0 X113.282 Y191.759
G0 X112.972 Y191.469
G1 F1500 E156.04292
G1 F1200 X113.422 Y191.528 E156.09123
G1 X113.474 Y191.531 E156.09677
G1 X114.121 Y191.531 E156.16563
G1 X114 Y191.613 E156.18119
G1 X113.94 Y191.664 E156.18957
G1 X113.665 Y191.944 E156.23134
G1 X113.615 Y192.006 E156.23982
G1 X113.394 Y192.345 E156.28289
G1 X113.354 Y192.424 E156.29231
G1 X113.191 Y192.864 E156.34226
G1 X113.172 Y192.935 E156.35008
G1 X113.106 Y193.315 E156.39113
G1 X113.1 Y193.383 E156.39839
G1 X113.1 Y192.173 E156.52718
G1 X113.093 Y192.099 E156.53509
G1 X112.984 Y191.518 E156.598
G1 X112.972 Y191.47 E156.60327
G1 F1500 E150.10327
G0 F6000 X113.282 Y191.759
G0 X113.365 Y201.463
G0 X113.1 Y201.463
G1 F1500 E156.60327
G1 F1200 X113.1 Y201.577 E156.6154
G1 X113.04 Y201.672 E156.62736
G1 X113.1 Y201.463 E156.6505
G0 F6000 X112.602 Y202.368
G1 F1200 X112.405 Y202.682 E156.68996
G1 X112.014 Y203.158 E156.75552
G1 X112.008 Y203.166 E156.75658
G1 X111.31 Y204.059 E156.87722
G1 X111.196 Y204.138 E156.89198
G1 X107.138 Y204.139 E157.32388
G1 X111.004 Y204.138 E157.73535
G1 X111.177 Y204.098 E157.75425
G1 X111.311 Y203.995 E157.77224
G1 X112.02 Y203.147 E157.88988
G1 X112.029 Y203.135 E157.89148
G1 X112.374 Y202.69 E157.95141
G1 X112.384 Y202.676 E157.95324
