;FLAVOR:Marlin
;TIME:23016
;Filament used: 64.943m
;Layer height: 0.48
;MINX:31.032
;MINY:61.383
;MINZ:0.4
;MAXX:203.968
;MAXY:173.535
;MAXZ:31.6
;Generated with Cura_SteamEngine 5.3.1
M82 ;absolute extrusion mode
; START G-CODE BEGIN

M104 S230.0 ﻿T0
M140 S60.0

G28 ; Home all axes
G92 E0 ; Reset Extruder
M420 S1 ; Load Mesh

M109 S230.0 ﻿T0
M190 S60.0

G92 E0 ; Reset Extruder

G1 X0.6 Y20 Z0.3 F5000.0 ; Move to start position
G1 X0.6 Y200.0 Z0.3 F1500.0 E15 ; Draw the first line
G1 X0.9 Y200.0 Z0.3 F5000.0 ; Move to side a little
G1 X0.9 Y20 Z0.3 F1500.0 E30 ; Draw the second line
G92 E0 ; Reset Extruder
G1 Z2.0 F3000 ; Move Z Axis up little to prevent scratching of Heat Bed
G1 X5 Y20 Z0.3 F5000.0 ; Move over to prevent blob squish

; START G-CODE END
G92 E0
G92 E0
G1 F2100 E-10
;LAYER_COUNT:66
;LAYER:0
M107
;MESH:Chassis.stl
G0 F6000 X33.737 Y97.993 Z0.4
;TYPE:WALL-INNER
G1 F2100 E0
G1 F1148.3 X33.583 Y97.993 E0.03533
G1 X33.504 Y98.128 E0.07121
G1 X33.582 Y98.263 E0.10697
G1 X33.737 Y98.263 E0.14253
G1 X33.816 Y98.128 E0.17841
G1 F2100 E-9.82159
G0 F6000 X72.916 Y102.463
G0 X72.916 Y102.841
G1 F2100 E0.17841
G1 F1200 X72.916 Y92.032 E2.55117
G1 X72.936 Y91.76 E2.61104
G1 X73.009 Y91.457 E2.67946
G1 X73.156 Y91.132 E2.75776
G1 X73.393 Y90.809 E2.8457
G1 X73.667 Y90.571 E2.92537
G1 X73.737 Y90.215 E3.00501
G1 X73.934 Y89.791 E3.10765
G1 X74.291 Y89.381 E3.22698
G1 F1112.8 X74.52 Y89.138 E3.30602
G1 F971.7 X74.75 Y88.895 E3.39673
G1 F804 X75.076 Y88.584 E3.54434
G1 X74.654 Y88.37 E3.69937
G1 F971.7 X74.253 Y88.276 E3.81103
G1 F1112.8 X73.851 Y88.182 E3.90875
G1 F1200 X56.838 Y88.183 E7.64339
G1 X56.333 Y88.112 E7.75534
G1 X55.757 Y87.824 E7.8967
G1 X55.292 Y87.281 E8.05363
G1 X55.292 Y96.037 E9.97572
G1 X55.229 Y96.417 E10.06028
G1 X55.081 Y96.75 E10.14027
G1 X54.932 Y96.983 E10.20099
G1 X54.734 Y97.206 E10.26645
G1 X54.483 Y97.405 E10.33676
G1 X54.185 Y97.564 E10.41091
G1 X53.803 Y97.676 E10.49829
G1 X53.492 Y97.702 E10.5668
G1 F1194 X39.035 Y97.707 E13.75623
G1 F1140.1 X38.33 Y97.759 E13.91955
G1 F1107.7 X37.791 Y97.745 E14.04777
G1 F1091.7 X35.712 Y97.778 E14.54947
G1 F1128.5 X35.115 Y97.601 E14.69482
G1 F1200 X34.549 Y97.295 E14.83606
G1 X34.194 Y96.871 E14.95745
G1 F1162.2 X33.864 Y96.302 E15.10654
G1 F1100.1 X33.842 Y95.902 E15.20246
G1 F1074.6 X33.842 Y66.349 E22.44671
G1 X32.502 Y66.349 E22.77518
G1 X32.502 Y95.902 E30.01942
G1 F1067.5 X32.511 Y96.344 E30.12852
G1 F1084.3 X32.481 Y96.644 E30.20176
G1 F1152.9 X32.432 Y97.386 E30.37166
G1 F1200 X32.433 Y100.496 E31.05436
G1 X32.517 Y100.322 E31.09677
G1 X32.916 Y99.791 E31.24258
G1 X33.394 Y99.476 E31.36824
G1 X33.888 Y99.329 E31.48138
G1 X34.887 Y99.265 E31.70113
G1 F1128.5 X35.756 Y99.13 E31.9064
G1 F1091.7 X37.791 Y99.031 E32.398
G1 F1107.7 X38.189 Y99.059 E32.49288
G1 F1140.1 X38.641 Y99.281 E32.60923
G1 F1194 X39.015 Y99.552 E32.71112
G1 F1200 X39.287 Y99.871 E32.80315
G1 X41.009 Y102.444 E33.48279
G1 X41.253 Y102.363 E33.53922
G1 X71.733 Y102.363 E40.2301
G1 X72.238 Y102.434 E40.34205
G1 X72.814 Y102.722 E40.48341
G1 X72.916 Y102.841 E40.51782
G0 F6000 X72.916 Y102.463
G0 X70.516 Y99.963
G1 F1200 X70.516 Y92.032 E42.25881
G1 X70.563 Y91.399 E42.39814
G1 X70.76 Y90.582 E42.58263
G1 X57.692 Y90.583 E45.45127
G1 X57.692 Y95.902 E46.61888
G1 X57.669 Y96.345 E46.71626
G1 X57.59 Y96.826 E46.82326
G1 X57.439 Y97.341 E46.94107
G1 X57.198 Y97.88 E47.07068
G1 X56.852 Y98.423 E47.21202
G1 X56.388 Y98.945 E47.36534
G1 X55.804 Y99.409 E47.52907
G1 X55.108 Y99.78 E47.70221
G1 F1219.3 X54.275 Y99.999 E47.88828
G1 X55.144 Y99.963 E48.07618
G1 F1200 X70.516 Y99.963 E51.4506
G0 F6000 X71.716 Y101.163
G1 F1200 X71.716 Y92.032 E53.45501
G1 X71.75 Y91.579 E53.55473
G1 X71.872 Y91.074 E53.66877
G1 X72.116 Y90.533 E53.79905
G1 X72.512 Y89.995 E53.94569
G1 X72.592 Y89.856 E53.9809
G1 X72.812 Y89.383 E54.09541
G1 X56.838 Y89.383 E57.60198
G1 X56.492 Y89.334 E57.67869
G1 X56.492 Y95.902 E59.12047
G1 X56.476 Y96.218 E59.18993
G1 X56.419 Y96.562 E59.26647
G1 X56.311 Y96.93 E59.35066
G1 X56.139 Y97.315 E59.44323
G1 X55.892 Y97.703 E59.54419
G1 X55.561 Y98.075 E59.6535
G1 X55.143 Y98.407 E59.77068
G1 X54.646 Y98.672 E59.89432
G1 X54.052 Y98.855 E60.03076
G1 X53.492 Y98.902 E60.15412
G1 X40.026 Y98.902 E63.11014
G1 X40.284 Y99.203 E63.19716
G1 X41.596 Y101.163 E63.71491
G1 X71.716 Y101.163 E70.32676
G0 F6000 X73.088 Y90.404
G0 X73.828 Y89.126
G0 X75.076 Y88.584
G1 F724.3 X75.456 Y88.569 E70.46506
G1 F731 X168.962 Y88.569 E104.16215
G0 F6000 X176.832 Y91.059
G0 X180.719 Y99.996
G1 F1232.9 X179.961 Y99.807 E104.32907
G1 F1201 X179.285 Y99.467 E104.49503
G1 F1200 X178.709 Y99.034 E104.65322
G1 X178.243 Y98.545 E104.8015
G1 X177.885 Y98.029 E104.93936
G1 X177.627 Y97.511 E105.06639
G1 X177.453 Y96.997 E105.18552
G1 X177.349 Y96.527 E105.29118
G1 X177.308 Y95.902 E105.42868
G1 X177.308 Y90.583 E106.59629
G1 X173.149 Y90.584 E107.50926
G1 X173.162 Y90.727 E107.54078
G1 X173.628 Y91.365 E107.71421
G1 X173.928 Y91.979 E107.86422
G1 X174.133 Y92.641 E108.01635
G1 X174.19 Y93.033 E108.10331
G1 X174.216 Y93.51 E108.20817
G1 X174.217 Y99.962 E109.62449
G1 F1201 X179.931 Y99.964 E110.87777
G1 F1232.9 X180.719 Y99.996 E111.04627
G0 F6000 X173.017 Y101.162
G1 F1200 X193.333 Y101.162 E115.50598
G1 X194.301 Y99.487 E115.93065
G1 X194.737 Y98.901 E116.09099
G1 X181.508 Y98.902 E118.99498
G1 X180.94 Y98.849 E119.12021
G1 X180.402 Y98.692 E119.24323
G1 X179.92 Y98.449 E119.36173
G1 X179.508 Y98.139 E119.47491
G1 X179.175 Y97.79 E119.5808
G1 X178.92 Y97.422 E119.67908
G1 X178.736 Y97.051 E119.76999
G1 X178.611 Y96.684 E119.85509
G1 X178.533 Y96.299 E119.94133
G1 X178.508 Y95.902 E120.02865
G1 X178.508 Y89.334 E121.47043
G1 X178.155 Y89.383 E121.54867
G1 X171.62 Y89.382 E122.98321
G1 X171.879 Y90.051 E123.14069
G1 X171.962 Y90.707 E123.28584
G1 X171.962 Y91.264 E123.40811
G1 X172.251 Y91.508 E123.49114
G1 X172.596 Y91.978 E123.61912
G1 X172.81 Y92.416 E123.72613
G1 X172.94 Y92.836 E123.82265
G1 X172.998 Y93.169 E123.89684
G1 X173.016 Y93.51 E123.9718
G1 X173.017 Y101.162 E125.65155
G0 F6000 X171.816 Y102.444
G1 F1200 X172.226 Y102.363 E125.74329
G1 X193.653 Y102.362 E130.44688
G1 X193.989 Y102.425 E130.52192
G1 X195.341 Y100.087 E131.11478
G1 X195.587 Y99.756 E131.20531
G1 X195.94 Y99.464 E131.30588
G1 F1161.3 X196.502 Y99.138 E131.45326
G1 F1097.6 X196.9 Y99.117 E131.54891
G1 F1072.2 X199.288 Y99.117 E132.13558
G1 F1065.1 X199.73 Y99.107 E132.24493
G1 F1124.1 X200.565 Y99.188 E132.44152
G1 F1200 X200.963 Y99.215 E132.52908
G1 X201.609 Y99.52 E132.6859
G1 X202.124 Y100.087 E132.85405
G1 X202.568 Y100.855 E133.04878
G1 X202.568 Y97.357 E133.81665
G1 F1151.1 X202.518 Y96.629 E133.98365
G1 F1082.7 X202.489 Y96.344 E134.05334
G1 F1067.5 X202.498 Y95.902 E134.16244
G1 F1074.6 X202.498 Y67.292 E141.17553
G1 X201.158 Y67.292 E141.504
G1 X201.158 Y95.902 E148.51709
G1 F1100.1 X201.136 Y96.294 E148.6111
G1 F1162.2 X200.816 Y96.856 E148.75768
G1 F1200 X200.463 Y97.286 E148.87981
G1 X200.139 Y97.489 E148.96374
G1 F1161.3 X199.663 Y97.753 E149.08721
G1 F1097.6 X199.288 Y97.773 E149.17734
G1 F1072.2 X196.9 Y97.773 E149.76401
G1 F1065.1 X196.458 Y97.783 E149.87335
G1 F1081.1 X196.166 Y97.753 E149.94488
G1 F1151.1 X195.432 Y97.702 E150.11326
G1 F1200 X181.508 Y97.702 E153.16981
G1 X181.167 Y97.67 E153.24499
G1 X180.844 Y97.576 E153.31884
G1 X180.555 Y97.43 E153.38992
G1 X180.308 Y97.245 E153.45766
G1 X180.108 Y97.035 E153.52132
G1 X179.955 Y96.814 E153.58032
G1 X179.77 Y96.372 E153.68551
G1 X179.708 Y96.066 E153.75404
G1 X179.708 Y87.275 E155.68382
G1 X179.238 Y87.824 E155.84246
G1 X178.661 Y88.112 E155.98402
G1 X178.155 Y88.183 E156.09619
G1 X169.823 Y88.182 E157.9252
G1 F1084.3 X169.537 Y88.31 E158.00132
G1 F908.5 X169.25 Y88.439 E158.09256
G1 F782.2 X168.963 Y88.568 E158.19853
G1 X169.189 Y88.741 E158.29438
G1 F908.5 X169.417 Y88.914 E158.37736
G1 F1084.3 X169.645 Y89.087 E158.44689
G1 F1200 X170.19 Y89.437 E158.58907
G1 X170.539 Y89.885 E158.71373
G1 X170.713 Y90.332 E158.81903
G1 X170.762 Y90.726 E158.90619
G1 X170.762 Y91.924 E159.16917
G1 X170.973 Y91.984 E159.21732
G1 X171.357 Y92.308 E159.32761
G1 X171.564 Y92.591 E159.40458
G1 X171.693 Y92.853 E159.46869
G1 X171.771 Y93.105 E159.52659
G1 X171.816 Y93.37 E159.5856
G1 X171.816 Y102.444 E161.5775
G0 F6000 X180.719 Y99.996
G1 F1309.1 X181.508 Y100.033 E161.73644
G1 F1358.5 X192.682 Y100.033 E163.90315
G0 F6000 X201.434 Y97.954
G1 F1182.3 X201.284 Y97.954 E163.93657
G1 X201.207 Y98.085 E163.97043
G1 X201.283 Y98.216 E164.00417
G1 X201.434 Y98.216 E164.03781
G1 X201.511 Y98.085 E164.07167
G1 F2100 E154.07167
G0 F6000 X179.88 Y97.53
G0 X179.855 Y64.91
G0 X179.61 Y64.91
G1 F2100 E164.07167
G1 F1031.5 X179.61 Y62.881 E164.58982
G1 X178.912 Y62.881 E164.76807
G1 F1052.6 X178.155 Y62.853 E164.95764
G1 F1074.6 X56.838 Y62.853 E194.69573
G1 F1067.5 X56.396 Y62.862 E194.80483
G1 F1045.8 X56.087 Y62.881 E194.88281
G1 F1031.5 X55.39 Y62.881 E195.06081
G1 X55.39 Y64.904 E195.57742
G1 X55.687 Y64.553 E195.69484
G1 F1042 X56.337 Y64.221 E195.87936
G1 F1063.5 X56.838 Y64.193 E196.00365
G1 F1074.6 X178.155 Y64.193 E225.74174
G1 F1052.6 X178.709 Y64.246 E225.88101
G1 F1031.5 X179.311 Y64.554 E226.0537
G1 X179.61 Y64.91 E226.17242
G1 F2100 E216.17242
G0 F6000 X179.855 Y64.91
G0 X178.983 Y87.211
G0 X173.372 Y90.663
G0 X171.398 Y103.335
G0 X170.844 Y117.198
G0 X168.026 Y131.068
G1 F2100 E226.17242
G1 F1200 X168.026 Y122.894 E227.96676
G1 X160.274 Y122.894 E229.66845
G1 X160.99 Y123.326 E229.85202
G1 X161.408 Y123.615 E229.96357
G1 X163.102 Y124.942 E230.43594
G1 X163.482 Y125.278 E230.54729
G1 X164.998 Y126.794 E231.01792
G1 X165.333 Y127.175 E231.12929
G1 X166.661 Y128.869 E231.6018
G1 X166.95 Y129.286 E231.71317
G1 X168.026 Y131.068 E232.17013
G0 F6000 X169.274 Y138.883
G1 F1276.6 X169.25 Y137.811 E232.39139
G1 F1224.5 X169.226 Y136.739 E232.62206
G1 F1200 X169.226 Y121.657 E235.93282
G1 X168.962 Y121.694 E235.99134
G1 X154.723 Y121.695 E239.11704
G1 X155.919 Y122.067 E239.39199
G1 X156.258 Y122.195 E239.47153
G1 X158.216 Y123.078 E239.94303
G1 X158.535 Y123.245 E240.02207
G1 X160.369 Y124.353 E240.49243
G1 X160.668 Y124.56 E240.57226
G1 X162.362 Y125.887 E241.04464
G1 X162.633 Y126.127 E241.1241
G1 X164.149 Y127.643 E241.59473
G1 X164.389 Y127.915 E241.67436
G1 X165.716 Y129.609 E242.14673
G1 X165.923 Y129.907 E242.22638
G1 X167.031 Y131.741 E242.69675
G1 X167.198 Y132.06 E242.77579
G1 X168.079 Y134.019 E243.24731
G1 X168.208 Y134.358 E243.32693
G1 X168.849 Y136.411 E243.79905
G1 X168.935 Y136.765 E243.87902
G1 F1224.5 X169.104 Y137.824 E244.10972
G1 F1276.6 X169.274 Y138.883 E244.33104
G1 F2100 E234.33104
G0 F6000 X165.917 Y132.531
G0 X164.703 Y130.525
G0 X163.257 Y128.677
G0 X161.599 Y127.019
G0 X159.751 Y125.573
G0 X157.745 Y124.359
G0 X155.606 Y123.396
G0 X153.367 Y122.699
G0 X151.059 Y122.276
G0 X148.719 Y122.134
G0 X146.379 Y122.276
G0 X144.071 Y122.699
G0 X141.831 Y123.396
G0 X139.694 Y124.359
G0 X137.686 Y125.573
G0 X135.84 Y127.019
G0 X134.182 Y128.677
G0 X132.736 Y130.525
G0 X131.522 Y132.531
G0 X130.559 Y134.67
G0 X129.862 Y136.909
G0 X129.439 Y139.217
G0 X129.296 Y141.557
G0 X129.439 Y143.897
G0 X129.862 Y146.205
G0 X130.559 Y148.444
G0 X131.522 Y150.583
G0 X138.037 Y161.289
G0 X145.887 Y163.828
G0 X143.272 Y164.877
G0 X121.652 Y171.609
G1 F2100 E244.33104
G1 F1200 X124.184 Y171.488 E244.88749
G1 X128.689 Y171.04 E245.88129
G1 X133.179 Y170.356 E246.8783
G1 X137.641 Y169.437 E247.87834
G1 X142.056 Y168.284 E248.88001
G1 X146.357 Y166.917 E249.87069
G1 X150.648 Y165.307 E250.87676
G1 X154.784 Y163.503 E251.86729
G1 X158.876 Y161.461 E252.87119
G1 X162.818 Y159.228 E253.86571
G1 X166.676 Y156.772 E254.86965
G1 X170.389 Y154.126 E255.87051
G1 X171.16 Y153.514 E256.08659
G1 X169.124 Y153.028 E256.54609
G1 X168.601 Y152.812 E256.6703
G1 X168.18 Y152.471 E256.78923
G1 X167.951 Y152.121 E256.88104
G1 X167.816 Y151.79 E256.95952
G1 X166.914 Y148.76 E257.6535
G1 X166.064 Y150.652 E258.10881
G1 X164.822 Y152.702 E258.63497
G1 X163.381 Y154.542 E259.148
G1 X161.709 Y156.214 E259.66707
G1 X159.838 Y157.677 E260.18844
G1 X157.872 Y158.867 E260.69291
G1 X155.671 Y159.866 E261.2235
G1 X153.405 Y160.572 E261.74451
G1 X151.08 Y160.996 E262.26331
G1 X148.71 Y161.142 E262.78455
G1 X146.357 Y160.996 E263.30206
G1 X144.033 Y160.572 E263.82064
G1 X141.769 Y159.866 E264.34123
G1 X139.618 Y158.897 E264.85911
G1 X137.587 Y157.669 E265.38011
G1 X135.738 Y156.216 E265.89633
G1 X134.05 Y154.531 E266.41989
G1 X132.606 Y152.682 E266.93489
G1 X131.38 Y150.66 E267.45397
G1 X130.409 Y148.506 E267.97263
G1 X129.703 Y146.242 E268.49322
G1 X129.283 Y143.919 E269.01143
G1 X129.134 Y141.557 E269.53095
G1 X129.282 Y139.198 E270.04981
G1 X129.706 Y136.875 E270.56818
G1 X130.411 Y134.612 E271.08849
G1 X131.377 Y132.46 E271.6063
G1 X132.609 Y130.422 E272.12907
G1 X134.055 Y128.576 E272.64382
G1 X135.74 Y126.891 E273.16692
G1 X137.588 Y125.443 E273.68228
G1 X139.618 Y124.216 E274.20298
G1 X141.769 Y123.247 E274.72086
G1 X143.93 Y122.573 E275.21777
G1 F1170.7 X144.712 Y122.387 E275.39863
G1 F1114.6 X145.494 Y122.2 E275.58867
G1 F1063.5 X146.276 Y122.013 E275.78782
G1 F1048 X148.719 Y121.902 E276.40249
G1 X151.162 Y122.013 E277.01717
G1 F1063.5 X151.944 Y122.199 E277.21626
G1 F1114.6 X152.726 Y122.386 E277.4063
G1 F1170.7 X153.508 Y122.573 E277.58721
G1 F1200 X155.668 Y123.246 E278.08385
G1 X157.816 Y124.214 E278.60104
G1 X159.845 Y125.439 E279.12132
G1 X161.7 Y126.892 E279.63858
G1 X163.367 Y128.557 E280.15577
G1 X164.837 Y130.432 E280.67878
G1 X166.062 Y132.46 E281.19888
G1 X167.033 Y134.619 E281.71854
G1 X167.735 Y136.871 E282.23635
G1 X168.141 Y139.089 E282.73133
G1 X168.166 Y139.303 E282.77863
G1 F1121.5 X168.266 Y139.567 E282.84494
G1 F991.1 X168.366 Y139.832 E282.92022
G1 F887.8 X168.466 Y140.097 E283.00426
G1 F850.1 X168.535 Y141.556 E283.45689
G1 F852.6 X168.483 Y142.695 E283.80917
G1 F848.6 X168.406 Y143.953 E284.20043
G1 X168.197 Y145.1 E284.56236
G1 X169.529 Y143.691 E285.16427
G1 X169.823 Y143.435 E285.28529
G1 X170.178 Y143.269 E285.40695
G1 X170.178 Y142.746 E285.5693
G1 F857.1 X170.195 Y141.557 E285.93475
G1 F854.6 X170.173 Y140.047 E286.40024
G1 F887.8 X170.257 Y139.776 E286.48442
G1 F991.1 X170.341 Y139.505 E286.55983
G1 F1121.5 X170.426 Y139.234 E286.62655
G1 F1200 X170.426 Y119.686 E290.91766
G1 X170.042 Y120.134 E291.04719
G1 X169.466 Y120.422 E291.18855
G1 X168.962 Y120.494 E291.30031
G1 X153.479 Y120.495 E294.69909
G1 F1164.1 X152.765 Y120.532 E294.86088
G1 F1096.7 X152.051 Y120.57 E295.03262
G1 F1036.7 X151.336 Y120.607 E295.21453
G1 F1024.2 X149.949 Y120.587 E295.57131
G1 F1055.7 X148.563 Y120.565 E295.91718
G1 X147.333 Y120.586 E296.22413
G1 F1024.2 X146.102 Y120.608 E296.5408
G1 F1036.7 X145.389 Y120.571 E296.72221
G1 F1096.7 X144.675 Y120.533 E296.89395
G1 F1164.1 X143.96 Y120.496 E297.05596
G1 F1200 X116.825 Y120.494 E303.01255
G1 F1138.3 X115.69 Y120.559 E303.27562
G1 F1019.1 X115.247 Y120.642 E303.39212
G1 X115.647 Y120.817 E303.50498
G1 F1138.3 X116.696 Y121.254 E303.76795
G1 F1200 X117.059 Y121.427 E303.85622
G1 X118.021 Y122.032 E304.10568
G1 X118.337 Y122.284 E304.19441
G1 X119.142 Y123.09 E304.44447
G1 X119.393 Y123.405 E304.53289
G1 X119.998 Y124.368 E304.78254
G1 X120.172 Y124.73 E304.8707
G1 X120.549 Y125.806 E305.12098
G1 X120.625 Y126.068 E305.18087
G1 X120.776 Y127.468 E305.48997
G1 X120.766 Y127.733 E305.54819
G1 X120.628 Y128.949 E305.81683
G1 X120.55 Y129.256 E305.88637
G1 X120.167 Y130.347 E306.14019
G1 X120.06 Y130.595 E306.19948
G1 X119.285 Y131.824 E306.51843
G1 X118.337 Y132.778 E306.81366
G1 X118.086 Y132.987 E306.88536
G1 X116.88 Y133.742 E307.19769
G1 X115.544 Y134.21 E307.50844
G1 X115.231 Y134.273 E307.57853
G1 X113.97 Y134.414 E307.85707
G1 X113.696 Y134.4 E307.91729
G1 X112.428 Y134.258 E308.19738
G1 X112.167 Y134.183 E308.25699
G1 X110.977 Y133.765 E308.53386
G1 X110.74 Y133.635 E308.5932
G1 X109.684 Y132.97 E308.86715
G1 X109.453 Y132.775 E308.93351
G1 X108.65 Y131.971 E309.18295
G1 X108.47 Y131.769 E309.24234
G1 X107.794 Y130.693 E309.52129
G1 X107.66 Y130.448 E309.58259
G1 X107.245 Y129.259 E309.85903
