;FLAVOR:Marlin
;TIME:15172
;Filament used: 53.1302m
;Layer height: 0.48
;MINX:138.62
;MINY:144.951
;MINZ:0.3
;MAXX:261.38
;MAXY:293.15
;MAXZ:38.22
;Generated with Cura_SteamEngine 5.3.1
M82 ;absolute extrusion mode
; X5SA Start Code
G21 ; Set units to millimeters
G90 ; Set all axis to Absolute
M82 ; Set extrusion to Absolute
M107 ; Disable all fans
M190 S30 ; Set bed temperature and wait
G28 ; Home all axis
; Uncomment the line below to enable ABL Mesh probing
;G29 ; Probe bed mesh for ABL
; For best results do not run nozzle heater while performing ABL
G1 Z5.0 ; Raise nozzle to prevent scratching of heat bed
G1 X0 Y0 ; Move nozzle to Home before heating
M109 S230.0 T0 ; Set nozzle temp and wait
G92 E0 ; Set Extruder position to zero
; Uncomment the following lines to enable nozzle purge line along left edge of bed
;G1 Z2.0 F3000 ; Raise Z axis
;G1 X1.1 Y20 Z0.2 F3600.0 ; Move to purge line start position
;G1 Y290 F1500.0 E15 ; Draw first purge line
;G1 X1.4 F3600.0 ; Move to side
;G1 Y20 F1500.0 E30 ; Draw second purge line
;G92 E0 ; Reset Extruder
;G1 Z2.0 F3000 ; Move Z Axis up little to prevent scratching of Heat Bed
;G1 X5 Y20 Z0.2 F3600.0 ; Move over to finish nozzle wipe
;G92 E0

G92 E0
G92 E0
G1 F2700 E-6
;LAYER_COUNT:80
;LAYER:0
M107
G1 F300 Z0.5
G0 F2700 X145.054 Y151.569 Z0.5
;TYPE:SKIRT
G1 F300 Z0.3
G1 F2700 E0
G1 F1800 X145.961 Y150.723 E0.19752
G1 X146.627 Y150.124 E0.34017
G1 X147.339 Y149.54 E0.48681
G1 X147.819 Y149.201 E0.58039
G1 X149.042 Y148.39 E0.81409
G1 X149.647 Y148.008 E0.92803
G1 X150.446 Y147.551 E1.07461
G1 X150.861 Y147.348 E1.14819
G1 X151.65 Y146.988 E1.2863
G1 X152.903 Y146.45 E1.50345
G1 X153.764 Y146.124 E1.65006
G1 X154.321 Y145.957 E1.74267
G1 X155.122 Y145.743 E1.8747
G1 X156.42 Y145.425 E2.08752
G1 X157.323 Y145.245 E2.23415
G1 X157.968 Y145.166 E2.33763
G1 X159.436 Y145.033 E2.57237
G1 X160.13 Y144.985 E2.68315
G1 X160.699 Y144.961 E2.77385
G1 X161.354 Y144.951 E2.87817
G1 X242.603 Y144.951 E15.81703
G1 X243.309 Y144.961 E15.92947
G1 X243.792 Y144.979 E16.00644
G1 X244.656 Y145.036 E16.14433
G1 X245.335 Y145.099 E16.25293
G1 X246.556 Y145.285 E16.44962
G1 X247.289 Y145.449 E16.56923
G1 X248.118 Y145.659 E16.70542
G1 X249.273 Y146.023 E16.89827
G1 X249.978 Y146.3 E17.0189
G1 X250.783 Y146.644 E17.15831
G1 X251.915 Y147.209 E17.35978
G1 X252.571 Y147.597 E17.48116
G1 X253.271 Y148.037 E17.61283
G1 X254.263 Y148.743 E17.80672
G1 X254.892 Y149.26 E17.93639
G1 X255.52 Y149.81 E18.06933
G1 X256.387 Y150.662 E18.2629
G1 X256.901 Y151.243 E18.38644
G1 X257.469 Y151.924 E18.52766
G1 X258.189 Y152.894 E18.72003
G1 X258.547 Y153.455 E18.82601
G1 X259.021 Y154.244 E18.97259
G1 X259.605 Y155.361 E19.17332
G1 X259.937 Y156.124 E19.30583
G1 X260.248 Y156.905 E19.4397
G1 X260.654 Y158.142 E19.64703
G1 X260.863 Y158.963 E19.78195
G1 X261.016 Y159.642 E19.89279
G1 X261.221 Y160.907 E20.09687
G1 X261.303 Y161.79 E20.23809
G1 X261.348 Y162.493 E20.35027
G1 X261.368 Y162.97 E20.4263
G1 X261.38 Y163.701 E20.54273
G1 X261.379 Y274.373 E38.16719
G1 X261.369 Y275.078 E38.27947
G1 X261.351 Y275.555 E38.35549
G1 X261.294 Y276.419 E38.49338
G1 X261.23 Y277.105 E38.6031
G1 X261.053 Y278.282 E38.79265
G1 X260.882 Y279.056 E38.91888
G1 X260.673 Y279.882 E39.05456
G1 X260.297 Y281.069 E39.25285
G1 X259.998 Y281.828 E39.38276
G1 X259.683 Y282.562 E39.50996
G1 X259.138 Y283.653 E39.70417
G1 X258.712 Y284.378 E39.83808
G1 X258.271 Y285.075 E39.96943
G1 X257.587 Y286.033 E40.15689
G1 X257.117 Y286.605 E40.27478
G1 X256.524 Y287.285 E40.41847
G1 X255.565 Y288.251 E40.63524
G1 X254.928 Y288.808 E40.76999
G1 X254.392 Y289.252 E40.88083
G1 X253.455 Y289.945 E41.06642
G1 X252.857 Y290.327 E41.17942
G1 X252.07 Y290.799 E41.32557
G1 X250.934 Y291.391 E41.52957
G1 X250.216 Y291.702 E41.65417
G1 X249.449 Y292.009 E41.78574
G1 X248.296 Y292.395 E41.97937
G1 X247.577 Y292.582 E42.09768
G1 X246.726 Y292.777 E42.23671
G1 X245.423 Y292.991 E42.44699
G1 X244.539 Y293.073 E42.58837
G1 X243.835 Y293.118 E42.70071
G1 X243.359 Y293.138 E42.77658
G1 X242.629 Y293.15 E42.89285
G1 X161.426 Y293.149 E55.82439
G1 X160.721 Y293.139 E55.93667
G1 X160.084 Y293.111 E56.03821
G1 X158.889 Y293.022 E56.22904
G1 X157.919 Y292.93 E56.38421
G1 X157.008 Y292.801 E56.53073
G1 X156.544 Y292.704 E56.60622
G1 X155.801 Y292.529 E56.72778
G1 X155.167 Y292.368 E56.83195
G1 X154.31 Y292.138 E56.97326
G1 X153.432 Y291.86 E57.11992
G1 X152.887 Y291.644 E57.21328
G1 X151.794 Y291.175 E57.40269
G1 X150.909 Y290.774 E57.55741
G1 X150.089 Y290.356 E57.70399
G1 X149.664 Y290.102 E57.78283
G1 X148.879 Y289.604 E57.93088
G1 X147.809 Y288.891 E58.13564
G1 X147.066 Y288.348 E58.28219
G1 X146.63 Y287.979 E58.37315
G1 X145.982 Y287.398 E58.51175
G1 X145.039 Y286.516 E58.71738
G1 X144.395 Y285.858 E58.864
G1 X144.024 Y285.423 E58.95504
G1 X143.602 Y284.899 E59.06219
G1 X142.668 Y283.681 E59.30662
G1 X142.141 Y282.926 E59.45324
G1 X141.808 Y282.364 E59.55727
G1 X141.109 Y281.093 E59.78827
G1 X140.774 Y280.451 E59.90359
G1 X140.384 Y279.617 E60.05021
G1 X140.173 Y279.067 E60.14402
G1 X139.759 Y277.891 E60.34256
G1 X139.461 Y276.98 E60.4952
G1 X139.215 Y276.093 E60.64179
G1 X139.117 Y275.62 E60.71871
G1 X138.971 Y274.806 E60.85041
G1 X138.762 Y273.49 E61.06261
G1 X138.657 Y272.575 E61.20928
G1 X138.633 Y272.021 E61.29759
G1 X138.62 Y271.14 E61.4379
G1 X138.631 Y269.802 E61.65098
G1 X138.679 Y268.882 E61.79769
G1 X138.747 Y268.323 E61.88737
G1 X138.867 Y267.533 E62.01462
G1 X138.995 Y266.78 E62.13626
G1 X139.127 Y266.063 E62.25236
G1 X139.333 Y265.165 E62.39908
G1 X139.466 Y264.722 E62.47274
G1 X139.733 Y263.905 E62.60961
G1 X140.179 Y262.638 E62.82352
G1 X140.523 Y261.784 E62.97014
G1 X140.787 Y261.242 E63.06614
G1 X142.199 Y258.48 E63.56014
G1 X143.285 Y256.188 E63.96404
G1 X144.303 Y253.872 E64.36691
G1 X145.262 Y251.512 E64.77259
G1 X146.142 Y249.159 E65.17265
G1 X146.961 Y246.764 E65.57574
G1 X147.705 Y244.366 E65.97557
G1 X148.393 Y241.91 E66.38175
G1 X149.003 Y239.459 E66.78397
G1 X149.547 Y236.985 E67.18737
G1 X150.017 Y234.516 E67.58762
G1 X150.42 Y232.017 E67.99072
G1 X150.75 Y229.516 E68.39246
G1 X151.013 Y226.975 E68.79927
G1 X151.199 Y224.492 E69.1958
G1 X151.318 Y221.926 E69.60487
G1 X151.364 Y219.406 E70.00625
G1 X151.34 Y216.897 E70.40582
G1 X151.243 Y214.364 E70.8095
G1 X151.074 Y211.839 E71.2125
G1 X150.836 Y209.339 E71.61243
G1 X150.525 Y206.824 E72.01599
G1 X150.141 Y204.311 E72.42083
G1 X149.686 Y201.805 E72.82643
G1 X149.173 Y199.369 E73.22287
G1 X148.581 Y196.91 E73.62566
G1 X147.911 Y194.438 E74.03352
G1 X147.188 Y192.041 E74.43223
G1 X146.385 Y189.626 E74.83752
G1 X145.527 Y187.273 E75.23637
G1 X144.587 Y184.904 E75.64225
G1 X143.596 Y182.599 E76.0418
G1 X142.526 Y180.292 E76.44679
G1 X141.093 Y177.439 E76.95522
G1 X140.789 Y176.86 E77.05936
G1 X140.397 Y176.027 E77.20597
G1 X140.204 Y175.531 E77.29072
G1 X139.89 Y174.651 E77.43952
G1 X139.497 Y173.473 E77.63728
G1 X139.244 Y172.587 E77.78401
G1 X139.115 Y171.968 E77.88471
G1 X138.868 Y170.559 E78.11251
G1 X138.752 Y169.801 E78.23463
G1 X138.652 Y168.886 E78.38121
G1 X138.63 Y168.284 E78.47714
G1 X138.62 Y167.046 E78.6743
G1 X138.631 Y166.123 E78.82129
G1 X138.685 Y165.203 E78.96806
G1 X138.747 Y164.708 E79.0475
G1 X138.861 Y163.957 E79.16847
G1 X139.001 Y163.12 E79.30361
G1 X139.118 Y162.477 E79.40769
G1 X139.322 Y161.58 E79.55418
G1 X139.492 Y161.02 E79.64738
G1 X139.879 Y159.86 E79.84212
G1 X140.202 Y158.955 E79.99515
G1 X140.551 Y158.104 E80.14162
G1 X140.806 Y157.589 E80.23314
G1 X141.399 Y156.469 E80.43495
G1 X141.849 Y155.662 E80.5821
G1 X142.334 Y154.879 E80.72877
G1 X142.632 Y154.464 E80.81014
G1 X143.171 Y153.753 E80.95222
G1 X143.972 Y152.741 E81.15775
G1 X144.108 Y152.584 E81.19083
G0 F1620 X144.575 Y152.045
G0 X145.054 Y151.569
G1 F2700 E75.19083
G1 F300 Z0.5
;MESH:TPU Body.STL
G0 F2700 X151.29 Y164.815 Z0.5
;TYPE:WALL-INNER
G1 F300 Z0.3
G1 F2700 E81.19083
G1 F1733.5 X151.246 Y165.357 E81.28075
G1 F1616.8 X151.201 Y165.899 E81.37717
G1 F1515.8 X151.157 Y166.442 E81.4802
G1 F1469.4 X151.156 Y167.663 E81.71839
G1 F1451.6 X151.175 Y168.045 E81.79392
G1 F1419.2 X151.234 Y168.319 E81.85053
G0 F2700 X151.457 Y168.607
G0 X156.248 Y171.374
G0 X157.872 Y170.659
G1 F1732.2 X158.139 Y170.49 E81.90282
G1 F1739.1 X158.984 Y170.014 E82.06267
G1 F1804.5 X159.64 Y169.574 E82.18815
G0 F2700 X161.185 Y166.852
G1 F1792.5 X161.234 Y166.065 E82.31425
G1 F1737.7 X161.22 Y165.272 E82.44508
G1 F1896.4 X161.128 Y164.314 E82.59055
G1 F2089 X161.117 Y164.017 E82.63133
G0 F2700 X161.096 Y164.02
G0 X161.055 Y163.341
G0 X160.88 Y162.487
G0 X161.156 Y159.948
G1 F1408.1 X161.574 Y159.886 E82.71736
G1 F1530.8 X161.992 Y159.824 E82.79648
G1 F1651.4 X162.827 Y159.784 E82.94159
G1 F1706.2 X237.133 Y159.784 E95.42561
G1 F1651.4 X237.969 Y159.824 E95.57089
G1 F1530.8 X238.387 Y159.886 E95.65002
G1 F1409 X238.805 Y159.949 E95.73602
G0 F2700 X243.401 Y158.892
G1 F1284.9 X243.035 Y158.716 E95.82662
G1 F1491.7 X242.483 Y158.634 E95.93385
G1 F1684.9 X241.931 Y158.551 E96.02882
G1 F1800 X161.003 Y158.55 E108.91657
G1 X159.437 Y158.682 E109.16684
G1 X158.052 Y159.032 E109.39433
G1 X157.199 Y159.405 E109.54259
G1 X157.748 Y159.595 E109.6351
G1 X160.907 Y161.418 E110.21593
G1 X161.117 Y161.558 E110.25612
G1 X161.327 Y161.418 E110.29632
G1 X161.687 Y161.241 E110.3602
G1 X162.27 Y161.065 E110.45718
G1 X162.827 Y161.017 E110.54621
G1 X237.133 Y161.017 E122.37941
G1 X237.72 Y161.074 E122.47333
G1 X238.274 Y161.241 E122.56547
G1 X238.634 Y161.418 E122.62936
G1 X238.844 Y161.559 E122.66964
G1 X239.054 Y161.418 E122.70992
G1 X242.211 Y159.595 E123.29047
G1 F1684.9 X242.635 Y159.346 E123.37413
G1 F1491.7 X243.059 Y159.096 E123.46871
G1 F1284.9 X243.401 Y158.892 E123.55755
G0 F2700 X238.494 Y162.317
G0 X238.494 Y162.838
G1 F1810.6 X238.779 Y163.304 E123.64403
G1 F1956.5 X238.844 Y164.017 E123.74892
G1 X238.909 Y163.304 E123.85382
G1 F1810.6 X239.194 Y162.838 E123.9403
G1 F1800 X239.51 Y162.54 E124.00947
G1 X242.811 Y160.635 E124.61641
G1 F1801.5 X243.341 Y160.433 E124.70666
G1 X243.784 Y160.395 E124.77741
G1 F1800 X244.134 Y160.441 E124.83362
G1 X244.448 Y160.544 E124.88625
G1 X247.771 Y162.457 E125.49686
G1 X248.086 Y162.689 E125.55916
G1 F1789.6 X248.546 Y163.34 E125.68684
G1 F1677 X248.685 Y163.678 E125.74931
G1 F1504.2 X248.825 Y164.017 E125.8192
G1 X248.899 Y163.637 E125.89298
G1 F1677 X248.973 Y163.257 E125.95915
G1 F1789.6 X248.901 Y162.251 E126.12071
G1 F1800 X248.691 Y161.378 E126.2637
G1 X248.34 Y160.533 E126.40941
G1 X247.861 Y159.75 E126.55558
G1 X247.272 Y159.058 E126.7003
G1 X246.58 Y158.469 E126.84501
G1 X245.798 Y157.991 E126.99097
G1 X244.951 Y157.64 E127.13698
G1 X244.077 Y157.43 E127.28012
G1 F1801.5 X243.081 Y157.349 E127.43912
G1 X160.953 Y157.35 E140.50707
G1 F1800 X159.238 Y157.494 E140.78114
G1 X157.661 Y157.893 E141.04019
G1 X156.169 Y158.547 E141.29962
G1 X154.792 Y159.446 E141.5615
G1 X153.596 Y160.55 E141.8207
G1 X152.597 Y161.834 E142.07978
G1 X152.292 Y162.399 E142.18203
G1 X155.456 Y160.572 E142.76386
G1 X155.996 Y160.411 E142.8536
G1 X156.503 Y160.412 E142.93434
G1 X157.148 Y160.635 E143.04302
G1 X160.456 Y162.543 E143.65116
G1 X160.768 Y162.837 E143.71943
G1 F1810.6 X161.053 Y163.303 E143.80592
G1 F1958.3 X161.117 Y164.017 E143.91085
G1 X161.181 Y163.303 E144.01578
G1 F1810.6 X161.466 Y162.837 E144.10226
G1 F1800 X161.729 Y162.589 E144.15983
G1 X162.143 Y162.351 E144.23588
G1 X162.475 Y162.251 E144.29109
G1 X162.827 Y162.217 E144.34741
G1 X237.133 Y162.217 E156.1806
G1 X237.283 Y162.232 E156.20461
G0 F1620 X237.485 Y162.251
G0 X237.818 Y162.351
G0 X238.231 Y162.59
G0 X238.494 Y162.838
G0 F2700 X238.494 Y162.317
G0 X239.096 Y162.392
G0 X238.938 Y163.197
G0 X238.862 Y164.02
G0 X238.844 Y164.017
G1 F2089 X238.832 Y164.314 E156.2454
G1 F1896.4 X238.739 Y165.286 E156.39299
G1 F1739.1 X238.729 Y166.109 E156.52865
G1 F1804.5 X238.784 Y166.919 E156.65762
G0 F2700 X240.45 Y169.667
G1 F1774.9 X241.137 Y170.112 E156.78981
G1 F1750.4 X241.847 Y170.494 E156.92185
G0 F2700 X247.44 Y171.189
G1 F1230.1 X247.564 Y171.912 E157.09279
G1 F1357.6 X247.605 Y172.635 E157.24569
G1 F1393.5 X247.605 Y265.465 E176.34057
G1 F1375.8 X247.578 Y266.104 E176.47382
G1 F1298.9 X247.509 Y266.507 E176.56406
G1 F1195.4 X247.44 Y266.911 E176.66234
G0 F2700 X246.321 Y267.086
G0 X244.867 Y267.181
G1 F1800 X245.22 Y267.386 E176.72735
G1 X245.41 Y267.516 E176.76401
G1 X247.77 Y268.877 E177.19786
G1 X248.205 Y269.229 E177.28697
G1 F1788.1 X248.55 Y269.765 E177.38916
G1 F1674.4 X248.687 Y270.101 E177.45128
G1 F1504.2 X248.825 Y270.437 E177.5205
G1 X248.898 Y270.061 E177.59349
G1 F1674.4 X248.972 Y269.684 E177.65926
G1 F1788.1 X248.98 Y268.931 E177.77998
G1 F1800 X248.98 Y169.169 E193.66703
G1 F1687.5 X248.9 Y168.416 E193.79566
G1 F1490.7 X248.811 Y168.003 E193.8769
G1 X248.617 Y168.362 E193.95537
G1 F1687.5 X248.205 Y168.871 E194.06661
G1 F1800 X247.77 Y169.223 E194.15572
G1 X245.41 Y170.584 E194.58957
G1 X245.22 Y170.714 E194.62623
G1 X244.867 Y170.919 E194.69124
G1 X245.23 Y171.021 E194.75128
G1 X245.427 Y171.135 E194.78753
G1 X245.823 Y171.493 E194.87254
G1 X246.053 Y171.855 E194.94084
G1 X246.185 Y172.23 E195.00415
G1 X246.23 Y172.635 E195.06904
G1 X246.23 Y265.465 E209.85218
G1 X246.201 Y265.824 E209.90954
G1 X246.053 Y266.245 E209.9806
G1 X245.957 Y266.395 E210.00896
G0 F1620 X245.823 Y266.607
G0 X245.427 Y266.965
G0 X245.23 Y267.079
G0 X244.867 Y267.181
G0 F2700 X241.847 Y267.606
G1 F1749 X241.137 Y267.988 E210.1411
G1 F1774.9 X240.45 Y268.433 E210.2733
G0 F2700 X238.784 Y271.181
G1 F1804.5 X238.729 Y271.992 E210.40242
G1 F1739.1 X238.739 Y272.807 E210.53676
G1 F1891.4 X238.829 Y273.76 E210.68184
G1 F2070.9 X238.844 Y274.232 E210.7472
G0 F2700 X238.89 Y274.224
G0 X238.922 Y274.865
G0 X239.077 Y275.623
G0 X238.805 Y278.151
G1 F1409 X238.387 Y278.213 E210.83317
G1 F1530.8 X237.969 Y278.276 E210.91232
G1 F1650.1 X237.133 Y278.317 E211.05772
G1 F1703.5 X162.827 Y278.317 E223.56147
G1 F1650.1 X161.991 Y278.276 E223.70687
G1 F1530.8 X161.574 Y278.214 E223.78581
G1 F1408.1 X161.156 Y278.152 E223.87183
G0 F2700 X160.907 Y276.682
G1 F1800 X157.748 Y278.505 E224.45266
G1 X157.199 Y278.695 E224.54518
G1 X158.052 Y279.067 E224.69337
G1 X159.437 Y279.417 E224.92087
G1 X161.003 Y279.55 E225.17115
G1 X241.931 Y279.549 E238.05889
G1 F1675.7 X242.203 Y279.46 E238.10785
G1 F1471.4 X242.476 Y279.371 E238.16379
G1 F1311.5 X242.749 Y279.281 E238.22662
G1 F1182.9 X243.021 Y279.192 E238.29597
G1 X242.818 Y279.021 E238.36029
G1 F1311.5 X242.616 Y278.849 E238.41828
G1 F1471.4 X242.414 Y278.678 E238.46984
G1 F1675.7 X242.212 Y278.506 E238.51522
G1 F1800 X239.054 Y276.682 E239.09599
G1 X238.844 Y276.541 E239.13627
G1 X238.634 Y276.682 E239.17655
G1 X238.274 Y276.859 E239.24043
G1 X237.692 Y277.035 E239.33726
G1 X237.133 Y277.083 E239.42661
G1 X162.827 Y277.083 E251.25981
G1 X162.24 Y277.026 E251.35373
G1 X162.149 Y276.998 E251.36889
G0 F1620 X161.687 Y276.859
G0 X161.327 Y276.682
G0 X161.117 Y276.542
G0 X160.907 Y276.682
G0 F2700 X156.248 Y277.794
G0 X155.98 Y277.714
G0 X155.996 Y277.689
G1 F1800 X155.491 Y277.548 E251.45238
G1 X152.292 Y275.701 E252.04064
G1 X152.597 Y276.266 E252.14289
G1 X153.596 Y277.55 E252.40196
G1 X154.792 Y278.654 E252.66117
G1 X156.169 Y279.553 E252.92305
G1 X157.661 Y280.206 E253.18241
G1 X159.238 Y280.605 E253.44146
G1 X160.953 Y280.75 E253.71555
G1 X243.081 Y280.75 E266.79439
G1 X244.077 Y280.67 E266.95352
G1 X244.951 Y280.46 E267.09666
G1 X245.798 Y280.109 E267.24267
G1 X246.58 Y279.631 E267.38862
G1 X247.272 Y279.042 E267.53334
G1 X247.861 Y278.35 E267.67805
G1 X248.34 Y277.567 E267.82423
G1 X248.69 Y276.72 E267.97017
G1 X248.9 Y275.847 E268.11316
G1 F1688.8 X248.901 Y274.843 E268.28358
G1 F1491.7 X248.811 Y274.423 E268.36612
G1 X248.612 Y274.787 E268.44583
G1 F1688.8 X248.086 Y275.411 E268.58436
G1 F1800 X247.771 Y275.643 E268.64666
G1 X244.451 Y277.554 E269.2567
G1 X244.133 Y277.658 E269.30998
G1 X243.825 Y277.705 E269.35959
G1 X243.341 Y277.668 E269.43689
G1 X242.811 Y277.465 E269.52728
G1 X239.507 Y275.558 E270.13479
G1 X239.193 Y275.262 E270.20351
G1 F1833.6 X238.922 Y274.789 E270.28873
