;FLAVOR:Marlin
;TIME:7046
;Filament used: 20.4084m
;Layer height: 0.48
;MINX:66.458
;MINY:53.448
;MINZ:0.4
;MAXX:166.888
;MAXY:152.969
;MAXZ:28.72
;Generated with Cura_SteamEngine 5.3.1
M82 ;absolute extrusion mode
; START G-CODE BEGIN

M104 S220.0 ﻿T0
M140 S60.0

G28 ; Home all axes
G92 E0 ; Reset Extruder
M420 S1 ; Load Mesh

M109 S220.0 ﻿T0
M190 S60.0

G92 E0 ; Reset Extruder

G1 X0.6 Y20 Z0.3 F5000.0 ; Move to start position
G1 X0.6 Y200.0 Z0.3 F1500.0 E15 ; Draw the first line
G1 X0.9 Y200.0 Z0.3 F5000.0 ; Move to side a little
G1 X0.9 Y20 Z0.3 F1500.0 E30 ; Draw the second line
G92 E0 ; Reset Extruder
G1 Z2.0 F3000 ; Move Z Axis up little to prevent scratching of Heat Bed
G1 X5 Y20 Z0.3 F5000.0 ; Move over to prevent blob squish

; START G-CODE END
G92 E0
G92 E0
G1 F1500 E-6
;LAYER_COUNT:60
;LAYER:0
M107
G0 F6000 X89.234 Y65.48 Z0.4
;TYPE:SUPPORT-INTERFACE
G1 F1500 E0
G1 F1200 X90.22 Y64.733 E0.1728
G1 X90.239 Y64.701 E0.178
G1 X90.267 Y64.681 E0.18281
G1 X90.269 Y64.683 E0.1832
G1 X91.922 Y63.519 E0.46562
G1 X91.955 Y63.497 E0.47116
G1 X92.108 Y63.4 E0.49647
G1 X92.109 Y63.396 E0.49704
G1 X92.944 Y62.858 E0.6358
G1 X92.958 Y62.87 E0.63838
G1 X71.014 Y100.878 E6.76919
G1 X70.812 Y101.329 E6.83822
G1 X70.593 Y101.864 E6.91898
G1 X70.482 Y102.373 E6.99175
G1 X70.408 Y102.947 E7.0726
G1 X70.407 Y103.468 E7.14538
G1 X70.484 Y104.042 E7.22628
G1 X70.591 Y104.551 E7.29894
G1 X70.814 Y105.085 E7.37978
G1 X71.014 Y105.537 E7.44882
G1 X92.96 Y143.547 E13.58002
G1 X92.947 Y143.56 E13.58258
G1 X92.11 Y143.02 E13.72173
G1 X92.109 Y143.016 E13.7223
G1 X91.953 Y142.917 E13.74811
G1 X91.242 Y142.418 E13.86946
G1 X90.528 Y141.916 E13.99138
G1 X90.233 Y141.708 E14.0418
G1 X90.217 Y141.679 E14.04643
G1 X89.234 Y140.934 E14.21873
G1 X69.353 Y106.502 E19.77283
G1 X68.794 Y105.242 E19.96539
G1 X68.508 Y103.886 E20.15898
G1 X68.512 Y102.493 E20.35357
G1 X68.795 Y101.171 E20.54243
G1 X69.354 Y99.914 E20.73461
G1 X89.234 Y65.48 E26.28888
G1 F1500 E20.28888
G0 F6000 X88.591 Y64.632
G0 X91.219 Y62.707
G0 X93.249 Y61.405
G0 X101.447 Y58.255
G0 X104.89 Y57.078
G0 X108.06 Y56.255
G0 X112.241 Y55.482
G0 X113.296 Y56.561
G1 F1500 E26.28888
G1 F1200 X113.296 Y55.623 E26.41992
G1 X113.947 Y55.541 E26.51157
G1 X113.949 Y56.183 E26.60126
G1 X122.096 Y60.889 E27.91556
G1 X129.6 Y56.554 E29.12615
G1 X130.505 Y56.787 E29.2567
G1 X122.096 Y61.643 E30.61317
G1 X113.296 Y56.561 E32.03273
G1 F1500 E26.03273
G0 F6000 X115.006 Y55.571
G0 X129.445 Y55.418
G0 X132.068 Y56.097
G0 X139.328 Y59.662
G0 X142.869 Y61.522
G0 X146.245 Y63.669
G0 X149.43 Y66.086
G0 X152.402 Y68.759
G0 X158.335 Y74.416
G0 X159.174 Y75.626
G0 X158.296 Y76.228
G1 F1500 E32.03273
G1 F1200 X158.948 Y77.18 E32.19391
G1 X158.948 Y82.165 E32.89028
G1 X162.781 Y84.378 E33.50856
G1 X163.176 Y85.359 E33.65629
G1 X158.296 Y82.541 E34.44348
G1 X158.296 Y76.228 E35.32536
G1 F1500 E29.32536
G0 F6000 X159.174 Y75.626
G0 X160.011 Y76.851
G0 X163.63 Y83.642
G0 X164.684 Y86.279
G0 X166.041 Y94.126
G0 X166.623 Y98.008
G0 X166.887 Y101.925
G0 X166.834 Y105.849
G0 X166.459 Y109.757
G0 X165.768 Y113.62
G0 X164.154 Y121.489
G0 X163.612 Y122.752
G0 X162.613 Y122.387
G1 F1500 E35.32536
G1 F1200 X162.521 Y122.601 E35.3579
G1 X162.518 Y122.604 E35.3585
G1 X162.176 Y123.394 E35.47875
G1 X158.948 Y125.257 E35.99939
G1 X158.949 Y129.234 E36.55495
G1 X158.399 Y130.036 E36.69079
G1 X158.296 Y130.186 E36.71621
G1 X158.296 Y124.881 E37.45728
G1 X162.613 Y122.387 E38.15374
G1 F1500 E32.15374
G0 F6000 X163.414 Y123.213
G0 X163.011 Y124.138
G0 X160.012 Y129.563
G0 X158.336 Y131.996
G0 X152.72 Y137.343
G0 X149.94 Y139.901
G0 X146.97 Y142.232
G0 X143.825 Y144.324
G0 X140.527 Y146.162
G0 X130.148 Y150.807
G0 X129.482 Y150.968
G0 X128.591 Y150.069
G1 F1500 E38.15374
G1 F1200 X127.638 Y150.272 E38.28985
G1 X122.096 Y147.073 E39.18374
G1 X115.325 Y150.983 E40.27598
G1 X114.512 Y150.901 E40.39013
G1 X114.508 Y150.903 E40.39075
G1 X114.208 Y150.872 E40.43288
G1 X122.096 Y146.319 E41.70516
G1 X128.591 Y150.069 E42.75283
G1 F1500 E36.75283
G0 F6000 X128.813 Y151.11
G0 X127.46 Y151.395
G0 X115.559 Y152.075
G0 X112.659 Y151.78
G0 X105.265 Y149.448
G0 X101.691 Y148.252
G0 X93.25 Y145.012
G0 X91.129 Y143.617
G0 X89.392 Y142.388
G0 X90.578 Y140.221
G1 F1500 E42.75283
G1 F1200 X89.878 Y140.92 E42.89102
G1 F1500 E36.89102
G0 F6000 X88.422 Y141.653
G0 X86.006 Y137.471
G0 X87.273 Y136.738
G1 F1500 E42.89102
G1 F1200 X88.093 Y135.917 E43.05312
G0 F6000 X87.674 Y135.192
G1 F1200 X84.611 Y132.129 E43.65823
G1 X84.788 Y132.434
G1 X85.608 Y131.614 E43.82022
G1 F1500 E37.82022
G0 F6000 X83.371 Y132.907
G0 X81.036 Y128.864
G0 X82.303 Y128.131
G1 F1500 E43.82022
G1 F1200 X83.123 Y127.311 E43.98222
G1 F1500 E37.98222
G0 F6000 X80.886 Y128.604
G0 X78.551 Y124.56
G0 X79.819 Y123.827
G1 F1500 E43.98222
G1 F1200 X80.639 Y123.007 E44.14421
G1 F1500 E38.14421
G0 F6000 X78.401 Y119.131
G1 F1500 E44.14421
G1 F1200 X75.338 Y116.068 E44.74933
G0 F6000 X74.85 Y115.22
G1 F1200 X75.669 Y114.4 E44.91122
G1 F1500 E38.91122
G0 F6000 X73.431 Y115.693
G0 X71.096 Y111.65
G0 X72.365 Y110.916
G1 F1500 E44.91122
G1 F1200 X73.185 Y110.096 E45.07322
G1 F1500 E39.07322
G0 F6000 X70.946 Y111.39
G0 X68.612 Y107.347
G0 X69.88 Y106.613
G1 F1500 E45.07322
G1 F1200 X70.7 Y105.793 E45.23521
G1 F1500 E39.23521
G0 F6000 X70.078 Y104.019
G1 F1500 E45.23521
G1 F1200 X68.911 Y102.852 E45.46576
G1 F1500 E39.46576
G0 F6000 X69.846 Y99.859
G1 F1500 E45.46576
G1 F1200 X72.905 Y96.8 E46.07008
G1 F1500 E40.07008
G0 F6000 X70.892 Y98.045
G1 F1500 E46.07008
G1 F1200 X71.713 Y98.866 E46.23227
G1 F1500 E40.23227
G0 F6000 X74.198 Y94.562
G1 F1500 E46.23227
G1 F1200 X73.377 Y93.741 E46.39447
G1 F1500 E40.39447
G0 F6000 X72.11 Y93.01
G0 X74.444 Y88.967
G0 X76.682 Y90.259
G1 F1500 E46.39447
G1 F1200 X75.861 Y89.438 E46.55666
G1 F1500 E40.55666
G0 F6000 X74.595 Y88.707
G0 X76.929 Y84.663
G0 X79.167 Y85.955
G1 F1500 E46.55666
G1 F1200 X78.346 Y85.134 E46.71885
G1 F1500 E40.71885
G0 F6000 X79.118 Y83.798
G1 F1500 E46.71885
G1 F1200 X82.179 Y80.737 E47.32357
G0 F6000 X81.652 Y81.652
G1 F1200 X80.831 Y80.831 E47.48576
G1 F1500 E41.48576
G0 F6000 X79.564 Y80.1
G0 X81.899 Y76.056
G0 X84.137 Y77.348
G1 F1500 E47.48576
G1 F1200 X83.315 Y76.527 E47.64805
G1 F1500 E41.64805
G0 F6000 X82.049 Y75.796
G0 X84.383 Y71.753
G0 X86.621 Y73.045
G1 F1500 E47.64805
G1 F1200 X85.8 Y72.223 E47.81034
G1 F1500 E41.81034
G0 F6000 X84.534 Y71.492
G0 X86.868 Y67.45
G0 X89.106 Y68.742
G1 F1500 E47.81034
G1 F1200 X88.285 Y67.92 E47.97264
G1 X88.391 Y67.738
G1 X91.453 Y64.675 E48.57765
G1 X91.591 Y64.438
G1 X91.475 Y64.322 E48.60056
G1 F1500 E42.60056
G0 F6000 X90.362 Y63.316
G0 X88.422 Y64.761
G0 X68.401 Y99.435
G0 X67.777 Y100.839
G0 X67.448 Y102.38
G0 X67.444 Y103.994
G0 X67.776 Y105.573
G0 X68.28 Y106.712
G0 X75.916 Y119.997
G0 X78.154 Y118.704
G1 F1500 E48.60056
G1 F1200 X77.334 Y119.523 E48.76246
G1 F1500 E42.76246
;MESH:WhirlWax_WheelTest_TPU.stl
G0 F6000 X96.442 Y127.327
G0 X99.579 Y131.557
G0 X101.306 Y133.577
G0 X103.277 Y135.362
G0 X105.46 Y136.877
G0 X107.818 Y138.1
G0 X110.068 Y138.92
G0 X114.31 Y139.946
;TYPE:WALL-INNER
G1 F1500 E48.76246
G1 F1200 X114.035 Y139.943 E48.80088
G1 X112.187 Y139.793 E49.05988
G1 X110.205 Y139.356 E49.3434
G1 X107.798 Y138.478 E49.70131
G1 X107.562 Y138.374 E49.73734
G1 X105.387 Y137.245 E50.07966
G1 X105.169 Y137.113 E50.11526
G1 X103.056 Y135.648 E50.47444
G1 X101.136 Y133.911 E50.83612
G1 X100.958 Y133.728 E50.87178
G1 X99.287 Y131.772 E51.23115
G1 X97.799 Y129.483 E51.61253
G1 X96.695 Y127.197 E51.96716
G1 X96.599 Y126.959 E52.00301
G1 X95.824 Y124.631 E52.34576
G1 X95.759 Y124.383 E52.38158
G1 X95.289 Y121.983 E52.72321
G1 X95.256 Y121.728 E52.75912
G1 X95.099 Y119.281 E53.10165
G1 X95.099 Y87.134 E57.59235
G1 X95.256 Y84.687 E57.93488
G1 X95.289 Y84.432 E57.9708
G1 X95.758 Y82.03 E58.31268
G1 X95.824 Y81.781 E58.34866
G1 X96.644 Y79.323 E58.71063
G1 X97.824 Y76.891 E59.08824
G1 X99.216 Y74.752 E59.44474
G1 X99.37 Y74.546 E59.48067
G1 X100.964 Y72.679 E59.8236
G1 X101.144 Y72.494 E59.85966
G1 X103.04 Y70.779 E60.21679
G1 X105.274 Y69.227 E60.59679
G1 X107.562 Y68.04 E60.95685
G1 X107.798 Y67.937 E60.99282
G1 X110.207 Y67.058 E61.35105
G1 X112.034 Y66.653 E61.61246
G1 X112.302 Y66.613 E61.65031
G1 X114.035 Y66.472 E61.8932
G1 X114.31 Y66.469 E61.93162
G1 X116.035 Y66.564 E62.17295
G1 X116.308 Y66.599 E62.2114
G1 X118.013 Y66.931 E62.45405
G1 X118.273 Y67.001 E62.49166
G1 X120.036 Y67.604 E62.75195
G1 X121.716 Y68.443 E63.01427
G1 X140.786 Y79.699 E66.10764
G1 X141.95 Y80.563 E66.31014
G1 X142.143 Y80.726 E66.34543
G1 X143.168 Y81.886 E66.56167
G1 X143.34 Y82.141 E66.60464
G1 X144.053 Y83.391 E66.80566
G1 X144.152 Y83.651 E66.84453
G1 X144.606 Y85.061 E67.05145
G1 X144.648 Y85.332 E67.08976
G1 X144.792 Y86.729 E67.28595
G1 X144.792 Y119.686 E71.88979
G1 X144.639 Y121.154 E72.09597
G1 X144.562 Y121.494 E72.14467
G1 X144.151 Y122.765 E72.33127
G1 X144.053 Y123.021 E72.36956
G1 X143.34 Y124.272 E72.57071
G1 X143.169 Y124.526 E72.61348
G1 X142.092 Y125.742 E72.8404
G1 X140.767 Y126.725 E73.07086
G1 X121.715 Y137.971 E76.16136
G1 X120.037 Y138.809 E76.42337
G1 X118.274 Y139.414 E76.68374
G1 X118.012 Y139.484 E76.72163
G1 X116.307 Y139.815 E76.96425
G1 X116.037 Y139.85 E77.00228
G1 X114.31 Y139.946 E77.2439
G0 F6000 X114.181 Y139.153
G1 F1200 X112.268 Y138.993 E77.51207
G1 X110.436 Y138.588 E77.77416
G1 X108 Y137.7 E78.13636
G1 X105.688 Y136.5 E78.50024
G1 X103.552 Y135.019 E78.86333
G1 X101.615 Y133.266 E79.22827
G1 X99.933 Y131.296 E79.59013
G1 X98.517 Y129.123 E79.95244
G1 X97.382 Y126.778 E80.31637
G1 X96.559 Y124.307 E80.6802
G1 X96.06 Y121.753 E81.04372
G1 X95.898 Y119.229 E81.39703
G1 X95.898 Y87.185 E85.87333
G1 X96.06 Y84.664 E86.22623
G1 X96.559 Y82.106 E86.59029
G1 X97.382 Y79.637 E86.95385
G1 X98.517 Y77.291 E87.31791
G1 X99.927 Y75.125 E87.67895
G1 X101.627 Y73.135 E88.04456
G1 X103.568 Y71.385 E88.40963
G1 X105.684 Y69.916 E88.76947
G1 X107.999 Y68.715 E89.13379
G1 X110.433 Y67.826 E89.49577
G1 X112.292 Y67.416 E89.7617
G1 X114.182 Y67.262 E90.02659
G1 X116.068 Y67.367 E90.29046
G1 X117.944 Y67.733 E90.55747
G1 X119.727 Y68.342 E90.82067
G1 X121.428 Y69.197 E91.08661
G1 X140.346 Y80.369 E94.15573
G1 X141.547 Y81.26 E94.36463
G1 X142.586 Y82.435 E94.58374
G1 X143.353 Y83.78 E94.80003
G1 X143.839 Y85.289 E95.02149
G1 X143.99 Y86.767 E95.22903
G1 X143.99 Y119.648 E99.82226
G1 X143.838 Y121.13 E100.03037
G1 X143.349 Y122.643 E100.25249
G1 X142.564 Y124.007 E100.47233
G1 X141.544 Y125.154 E100.68675
G1 X140.335 Y126.052 E100.89713
G1 X121.427 Y137.217 E103.96455
G1 X119.729 Y138.074 E104.23024
G1 X117.93 Y138.685 E104.49565
G1 X116.068 Y139.047 E104.76063
G1 X114.181 Y139.153 E105.02464
G1 F1500 E99.02464
G0 F6000 X114.14 Y139.649
G0 X113.029 Y140.148
G0 X112.323 Y147.957
G0 X112.374 Y148.237
G1 F1500 E105.02464
G1 F1200 X121.133 Y143.179 E106.43757
G1 X121.4 Y143.057 E106.47857
G1 X121.664 Y142.979 E106.51703
G1 X122.062 Y142.933 E106.573
G1 X122.507 Y142.968 E106.63535
G1 X122.853 Y143.081 E106.6862
G1 X123.096 Y143.2 E106.72399
G1 X130.097 Y147.242 E107.85328
G1 X132.734 Y146.5 E108.23595
G1 X136.07 Y145.275 E108.73239
G1 X139.307 Y143.789 E109.22995
G1 X142.435 Y142.047 E109.73009
G1 X145.403 Y140.072 E110.22811
G1 X148.213 Y137.867 E110.72707
G1 X150.857 Y135.434 E111.22899
G1 X153.256 Y132.852 E111.72134
G1 X155.096 Y130.529 E112.13531
G1 X155.096 Y124.189 E113.02096
G1 X155.114 Y123.913 E113.05959
G1 X155.215 Y123.506 E113.11817
G1 X155.36 Y123.195 E113.16611
G1 X155.584 Y122.879 E113.22022
G1 X155.906 Y122.566 E113.28295
G1 X161.192 Y119.513 E114.13567
G1 X162.216 Y116.627 E114.56345
G1 X163.162 Y113.045 E115.08099
G1 X163.82 Y109.367 E115.60293
G1 X164.171 Y105.716 E116.1153
G1 X164.221 Y101.991 E116.6357
G1 X163.972 Y98.297 E117.1529
G1 X163.423 Y94.635 E117.67017
G1 X162.577 Y91.026 E118.18799
G1 X161.661 Y88.181 E118.6055
G1 X155.892 Y84.849 E119.53615
G1 X155.554 Y84.509 E119.60312
G1 X155.333 Y84.18 E119.65849
G1 X155.171 Y83.78 E119.71877
G1 X155.096 Y83.394 E119.7737
G1 X155.096 Y75.886 E120.82251
G1 X153.132 Y73.419 E121.26301
G1 X150.532 Y70.66 E121.79259
G1 X147.739 Y68.148 E122.31734
G1 X144.721 Y65.858 E122.84656
G1 X141.534 Y63.832 E123.3741
G1 X138.183 Y62.072 E123.90285
G1 X134.695 Y60.598 E124.43182
G1 X131.897 Y59.68 E124.84318
G1 X123.096 Y64.762 E126.26286
G1 X122.799 Y64.902 E126.30872
G1 X122.385 Y65.017 E126.36875
G1 X121.854 Y65.015 E126.44292
G1 X121.519 Y64.945 E126.49073
G1 X121.213 Y64.829 E126.53645
G1 X111.095 Y58.986 E128.16861
G1 X110.79 Y58.769 E128.2209
G1 X110.548 Y58.485 E128.27302
G1 X108.969 Y58.771 E128.49718
G1 X105.662 Y59.631 E128.97451
G1 X102.409 Y60.743 E129.45475
G1 X99.279 Y62.082 E129.93031
G1 X96.376 Y63.591 E130.38736
G1 X73.964 Y102.409 E136.64885
G1 X73.775 Y102.862 E136.71742
G1 X73.731 Y103.202 E136.76531
G1 X73.782 Y103.568 E136.81693
G1 X73.965 Y104.005 E136.88311
G1 X96.377 Y142.823 E143.1446
G1 X99.38 Y144.381 E143.6172
G1 X102.636 Y145.756 E144.11093
G1 X106.018 Y146.889 E144.60918
G1 X109.475 Y147.751 E145.10688
G1 X112.374 Y148.237 E145.5175
G0 F6000 X112.525 Y149.073
G1 F1200 X121.518 Y143.88 E146.96816
G1 X121.836 Y143.761 E147.01559
G1 X122.306 Y143.751 E147.08126
G1 X122.592 Y143.833 E147.12282
G1 X129.989 Y148.103 E148.31594
G1 X132.981 Y147.262 E148.75009
G1 X136.376 Y146.015 E149.25533
G1 X139.669 Y144.503 E149.76151
G1 X142.852 Y142.73 E150.27048
G1 X145.873 Y140.72 E150.77736
G1 X148.732 Y138.477 E151.28499
G1 X151.422 Y136.001 E151.79571
G1 X153.863 Y133.373 E152.29675
G1 X155.896 Y130.808 E152.75396
G1 X155.896 Y124.189 E153.67859
G1 X155.931 Y123.899 E153.71939
G1 X156.007 Y123.683 E153.75138
G1 X156.188 Y123.403 E153.79795
G1 X156.382 Y123.214 E153.83579
G1 X161.847 Y120.058 E154.71737
G1 X162.981 Y116.863 E155.19096
G1 X163.944 Y113.218 E155.71761
G1 X164.613 Y109.476 E156.24863
G1 X164.97 Y105.76 E156.77012
G1 X165.022 Y101.97 E157.2996
G1 X164.768 Y98.21 E157.82604
G1 X164.209 Y94.484 E158.35236
G1 X163.348 Y90.812 E158.87923
G1 X162.328 Y87.643 E159.34428
G1 X156.495 Y84.274 E160.28525
G1 X156.247 Y84.083 E160.32898
G1 X155.985 Y83.69 E160.39496
G1 X155.898 Y83.32 E160.44805
G1 X155.896 Y75.607 E161.5255
G1 X153.737 Y72.895 E162.00974
G1 X151.091 Y70.088 E162.54861
G1 X148.249 Y67.531 E163.08265
G1 X145.179 Y65.201 E163.62104
G1 X141.936 Y63.139 E164.15788
G1 X138.525 Y61.348 E164.69606
G1 X134.976 Y59.848 E165.23429
G1 X131.807 Y58.808 E165.70021
G1 X122.574 Y64.139 E167.18954
G1 X122.233 Y64.222 E167.23857
G1 X121.951 Y64.221 E167.27796
G1 X121.56 Y64.107 E167.33485
G1 X111.353 Y58.211 E168.98148
G1 X111.073 Y57.883 E169.04173
G1 X110.991 Y57.592 E169.08396
G1 X108.797 Y57.989 E169.39542
G1 X105.432 Y58.864 E169.88112
G1 X102.121 Y59.995 E170.36988
G1 X98.936 Y61.359 E170.85389
G1 X95.796 Y62.996 E171.34855
G1 X73.245 Y102.054 E177.64879
G1 X72.996 Y102.652 E177.73928
G1 X72.923 Y103.205 E177.8172
G1 X73.004 Y103.782 E177.89859
G1 X73.247 Y104.362 E177.98643
G1 X95.797 Y143.419 E184.28648
G1 X99.04 Y145.105 E184.79707
G1 X102.352 Y146.505 E185.29936
G1 X105.794 Y147.658 E185.80645
G1 X109.312 Y148.535 E186.31292
G1 X112.525 Y149.073 E186.76801
G0 F6000 X112.676 Y149.91
;TYPE:WALL-OUTER
G1 F1200 X121.903 Y144.582 E188.2564
G1 X122.089 Y144.533 E188.28327
G1 X122.248 Y144.562 E188.30585
G1 X129.881 Y148.965 E189.5368
G1 X133.227 Y148.024 E190.02235
G1 X136.681 Y146.755 E190.53638
G1 X140.031 Y145.217 E191.05131
G1 X143.269 Y143.414 E191.56903
G1 X146.342 Y141.369 E192.08467
G1 X149.25 Y139.087 E192.60104
G1 X151.987 Y136.569 E193.12057
G1 X154.471 Y133.895 E193.63041
G1 X156.696 Y131.086 E194.13099
G1 X156.699 Y124.133 E195.10227
G1 X156.837 Y123.876 E195.14302
G1 X162.503 Y120.604 E196.05702
G1 X163.746 Y117.099 E196.57652
G1 X164.726 Y113.391 E197.11228
G1 X165.407 Y109.585 E197.6524
G1 X165.77 Y105.804 E198.183
G1 X165.822 Y101.948 E198.72171
G1 X165.564 Y98.124 E199.25711
G1 X164.995 Y94.333 E199.79261
G1 X164.12 Y90.598 E200.32849
G1 X162.995 Y87.104 E200.84125
G1 X156.854 Y83.557 E201.83192
G1 X156.743 Y83.424 E201.85612
G1 X156.696 Y83.263 E201.87955
