;FLAVOR:Marlin
;TIME:3042
;Filament used: 8.62042m
;Layer height: 0.6
;MINX:76.458
;MINY:65.453
;MINZ:0.4
;MAXX:176.201
;MAXY:169.661
;MAXZ:4.6
;Generated with Cura_SteamEngine 5.3.1
M82 ;absolute extrusion mode
; START G-CODE BEGIN

M104 S220.0 ﻿T0
M140 S60.0

G28 ; Home all axes
G92 E0 ; Reset Extruder
M420 S1 ; Load Mesh

M109 S220.0 ﻿T0
M190 S60.0

G92 E0 ; Reset Extruder

G1 X0.6 Y20 Z0.3 F5000.0 ; Move to start position
G1 X0.6 Y200.0 Z0.3 F1500.0 E15 ; Draw the first line
G1 X0.9 Y200.0 Z0.3 F5000.0 ; Move to side a little
G1 X0.9 Y20 Z0.3 F1500.0 E30 ; Draw the second line
G92 E0 ; Reset Extruder
G1 Z2.0 F3000 ; Move Z Axis up little to prevent scratching of Heat Bed
G1 X5 Y20 Z0.3 F5000.0 ; Move over to prevent blob squish

; START G-CODE END
G92 E0
G92 E0
G1 F1500 E-6
;LAYER_COUNT:8
;LAYER:0
M107
;MESH:Back Chassis - Spacer.STL(3)
G0 F6000 X90.318 Y71.551 Z0.4
;TYPE:WALL-INNER
G1 F1500 E0
G1 F1324.1 X90.935 Y71.14 E0.09385
G1 X91.477 Y70.894 E0.16921
G1 X90.318 Y70.269 E0.3359
G1 X90.318 Y71.551 E0.4982
G0 F6000 X89.582 Y74.576
G1 F1299.1 X89.621 Y74.073 E0.5633
G1 F1237.1 X89.77 Y73.55 E0.63699
G1 F1200 X90.037 Y73.013 E0.72077
G1 X90.383 Y72.548 E0.80173
G1 X90.807 Y72.141 E0.88383
G1 X91.299 Y71.812 E0.96651
G1 X91.816 Y71.577 E1.04585
G1 X92.372 Y71.435 E1.12601
G1 X92.853 Y71.393 E1.19346
G1 F1194 X93.277 Y71.408 E1.25302
G1 F1122.8 X93.65 Y71.411 E1.30871
G1 F1015.9 X94.019 Y71.458 E1.37009
G1 F1067.9 X93.379 Y71.064 E1.48807
G1 F1191.1 X90.541 Y69.523 E1.94257
G1 F1197 X90.18 Y69.473 E1.99361
G1 F1200 X89.964 Y69.535 E2.025
G1 X89.777 Y69.662 E2.05658
G1 X89.64 Y69.844 E2.0884
G1 F1201.5 X89.556 Y70.096 E2.12546
G1 F1204.5 X89.553 Y73.803 E2.64136
G1 F1261.5 X89.582 Y74.576 E2.74415
G0 F6000 X90.22 Y76.19
G0 X90.374 Y76.44
G0 X91.692 Y77.995
G1 F1107.3 X91.983 Y78.149 E2.79399
G0 F6000 X93.729 Y77.776
G0 X94.218 Y77.604
G0 X94.674 Y77.35
G0 X95.078 Y77.022
G0 X95.421 Y76.633
G0 X95.694 Y76.189
G0 X95.888 Y75.706
G0 X96.283 Y72.839
G0 X95.094 Y71.98
G1 F944 X94.67 Y71.743 E2.88025
G1 F983.6 X94.227 Y71.542 E2.96316
G1 F978.6 X94.019 Y71.458 E3.00159
G0 F6000 X101.691 Y74.668
G0 X103.216 Y74.722
G1 F959 X103.757 Y74.809 E3.09736
G1 F981.6 X104.171 Y74.909 E3.1701
G1 F962.9 X104.382 Y74.97 E3.20833
G0 F6000 X105.89 Y75.599
G0 X106.165 Y78.125
G0 X106.143 Y78.644
G0 X106.035 Y79.151
G0 X105.84 Y79.635
G0 X105.567 Y80.077
G0 X105.224 Y80.466
G0 X105.339 Y81.353
G0 X102.913 Y81.751
G1 F999 X102.223 Y81.636 E3.32572
G1 F988.7 X101.759 Y81.498 E3.4078
G1 F957.1 X101.552 Y81.425 E3.44624
G0 F6000 X100.166 Y80.735
G0 X99.312 Y80.127
G1 F1200 X99.121 Y79.647 E3.5184
G1 X99.024 Y79.333 E3.56431
G1 X98.943 Y78.964 E3.61709
G1 X98.899 Y78.617 E3.66595
G1 X98.881 Y78.056 E3.74436
G1 X98.975 Y77.333 E3.8462
G1 X99.19 Y76.656 E3.94543
G1 X99.496 Y76.048 E4.04051
G1 X99.824 Y75.599 E4.11819
G1 X100.048 Y75.345 E4.1655
G1 X100.324 Y75.079 E4.21904
G1 X100.714 Y74.763 E4.28916
G1 X99.075 Y74.279 E4.52789
G1 X96.961 Y73.493 E4.84295
G1 X97.04 Y73.746 E4.87998
G1 X97.115 Y74.093 E4.92957
G1 X97.164 Y74.472 E4.98296
G1 X97.176 Y74.81 E5.0302
G1 X97.149 Y75.353 E5.10615
G1 X96.995 Y76.071 E5.20873
G1 X96.738 Y76.707 E5.30455
G1 X96.34 Y77.351 E5.41031
G1 X95.995 Y77.739 E5.48284
G1 X95.779 Y77.952 E5.52521
G1 X95.459 Y78.209 E5.58255
G1 X95.175 Y78.401 E5.63043
G1 X94.832 Y78.59 E5.68514
G1 X95.972 Y79.045 E5.85661
G1 X99.053 Y80.059 E6.30971
G1 X99.312 Y80.127 E6.34712
G0 F6000 X100.166 Y80.735
G0 X101.552 Y81.425
G1 F991.7 X101.247 Y81.194 E6.41179
G1 F1120.2 X100.663 Y80.652 E6.53102
G1 F1200 X100.349 Y80.293 E6.59764
G1 X100.045 Y79.803 E6.6782
G1 X99.827 Y79.256 E6.76045
G1 X99.702 Y78.689 E6.84156
G1 X99.679 Y78.122 E6.92083
G1 X99.755 Y77.528 E7.00449
G1 X99.921 Y76.995 E7.08247
G1 X100.177 Y76.471 E7.16394
G1 X100.529 Y75.992 E7.24697
G1 X100.954 Y75.584 E7.32927
G1 X101.43 Y75.262 E7.40955
G1 X101.959 Y75.024 E7.49058
G1 X102.425 Y74.903 E7.55784
G1 F1160.8 X102.623 Y74.841 E7.5878
G1 F1069 X103.183 Y74.71 E7.67798
G1 F1102.2 X102.416 Y74.429 E7.80222
G1 F1200 X99.318 Y73.516 E8.25339
G1 X96.356 Y72.413 E8.69491
G1 F1112.4 X95.864 Y72.193 E8.77613
G1 F1020.2 X95.123 Y71.988 E8.90246
G1 F1060.8 X95.48 Y72.461 E8.99611
G1 F1159.4 X95.59 Y72.629 E9.02514
G1 F1200 X95.868 Y73.01 E9.09102
G1 X96.134 Y73.526 E9.17212
G1 X96.308 Y74.086 E9.25404
G1 X96.382 Y74.673 E9.33669
G1 X96.353 Y75.259 E9.41865
G1 X96.232 Y75.82 E9.49882
G1 X96.017 Y76.356 E9.57949
G1 X95.725 Y76.826 E9.65678
G1 X95.33 Y77.287 E9.74159
G1 X94.872 Y77.654 E9.82357
G1 X94.366 Y77.936 E9.9045
G1 X93.822 Y78.126 E9.98499
G1 X93.254 Y78.225 E10.06553
G1 F1177.9 X92.559 Y78.223 E10.16444
G1 F1128.1 X92.015 Y78.169 E10.24567
G1 F1148.3 X92.681 Y78.591 E10.36077
G1 F1200 X95.698 Y79.798 E10.8147
G1 X98.823 Y80.826 E11.27425
G1 X100.57 Y81.281 E11.52643
G1 F1163.6 X100.939 Y81.352 E11.58057
G1 F1025.6 X101.552 Y81.425 E11.68146
G0 F6000 X100.166 Y80.735
G0 X102.576 Y81.25
G0 X110.457 Y82.053
G1 F1200 X110.258 Y81.785 E11.72809
G1 X110.066 Y81.468 E11.77987
G1 X109.914 Y81.166 E11.82709
G1 X109.72 Y80.681 E11.90006
G1 X109.556 Y79.954 E12.00417
G1 X109.534 Y79.182 E12.11206
G1 X109.624 Y78.534 E12.20345
G1 X109.779 Y78.005 E12.28045
G1 X109.907 Y77.689 E12.32808
G1 X110.082 Y77.348 E12.38162
G1 X110.251 Y77.072 E12.42683
G1 X110.471 Y76.771 E12.47891
G1 X110.682 Y76.533 E12.52334
G1 X108.618 Y76.373 E12.81253
G1 X108.115 Y76.314 E12.88328
G1 X106.744 Y76.107 E13.07697
G1 X106.951 Y76.524 E13.142
G1 X107.076 Y76.836 E13.18896
G1 X107.243 Y77.382 E13.26872
G1 X107.323 Y78.063 E13.3645
G1 X107.304 Y78.786 E13.46553
G1 X107.135 Y79.528 E13.57184
G1 X106.946 Y79.998 E13.6426
G1 X106.789 Y80.31 E13.6914
G1 X106.592 Y80.628 E13.74365
G1 X106.397 Y80.891 E13.78939
G1 X106.146 Y81.179 E13.84275
G1 X105.756 Y81.552 E13.91814
G1 X108.58 Y81.925 E14.31606
G1 X110.457 Y82.053 E14.57887
G0 F6000 X111.438 Y82.493
G0 X112.942 Y82.857
G1 F1084.7 X112.432 Y82.601 E14.66705
G1 F1165 X112.262 Y82.498 E14.69565
G1 F1200 X111.836 Y82.263 E14.76362
G1 X111.384 Y81.898 E14.84477
G1 X110.992 Y81.451 E14.92783
G1 X110.697 Y80.967 E15.00701
G1 X110.482 Y80.43 E15.08781
G1 X110.359 Y79.856 E15.16981
G1 X110.335 Y79.28 E15.25035
G1 X110.407 Y78.7 E15.33199
G1 X110.572 Y78.148 E15.41247
G1 X110.838 Y77.625 E15.49444
G1 X111.181 Y77.157 E15.57549
G1 X111.609 Y76.749 E15.65809
G1 F1194 X112.077 Y76.434 E15.73729
G1 F1179.4 X112.516 Y76.223 E15.80653
G1 F1125.4 X112.707 Y76.12 E15.83885
G1 F1005.2 X113.158 Y75.938 E15.91995
G1 F1042.3 X112.433 Y75.832 E16.03778
G1 F1186.7 X111.81 Y75.818 E16.12581
G1 F1200 X108.68 Y75.575 E16.56437
G1 X108.235 Y75.523 E16.62695
G1 X105.513 Y75.11 E17.01155
G1 X105.362 Y75.079 E17.03308
G1 F1165 X104.993 Y75.022 E17.0868
G1 F1033.4 X104.382 Y74.97 E17.18628
G1 F1000 X104.704 Y75.169 E17.24973
G1 F1122.8 X105.282 Y75.613 E17.35855
G1 F1200 X105.673 Y75.985 E17.43394
G1 X106.022 Y76.456 E17.51582
G1 X106.284 Y76.977 E17.59729
G1 X106.451 Y77.533 E17.67839
G1 X106.529 Y78.111 E17.75986
G1 X106.501 Y78.683 E17.83986
G1 X106.379 Y79.25 E17.92088
G1 X106.165 Y79.799 E18.00319
G1 X105.863 Y80.286 E18.08324
G1 X105.479 Y80.726 E18.16482
G1 X105.039 Y81.083 E18.24397
G1 F1185.2 X104.513 Y81.378 E18.32927
G1 F1155.2 X103.988 Y81.563 E18.41004
G1 F1112.4 X103.294 Y81.711 E18.51697
G1 F1039 X102.913 Y81.751 E18.57878
G1 F1065.5 X103.501 Y81.931 E18.67553
G1 F1172.2 X103.863 Y82.02 E18.72884
G1 F1200 X105.247 Y82.292 E18.92588
G1 X108.5 Y82.721 E19.38423
G1 X111.781 Y82.946 E19.84364
G1 X112.145 Y82.948 E19.89449
G1 F1115 X112.942 Y82.857 E20.01509
G0 F6000 X112.973 Y82.853
G1 F980.6 X113.47 Y82.898 E20.1004
G1 F1008.4 X114.157 Y82.891 E20.21461
G0 F6000 X117.049 Y82.056
G1 F1200 X118.278 Y81.985 E20.38658
G1 X121.495 Y81.602 E20.83914
G1 X121.778 Y81.55 E20.87934
G1 X121.564 Y81.377 E20.91778
G1 X121.365 Y81.179 E20.95699
G1 X121.111 Y80.89 E21.01074
G1 X120.913 Y80.62 E21.05751
G1 X120.719 Y80.306 E21.10907
G1 X120.567 Y80.002 E21.15655
G1 X120.367 Y79.485 E21.23399
G1 X120.22 Y78.843 E21.32599
G1 X120.18 Y78.129 E21.42589
G1 X120.249 Y77.534 E21.50956
G1 X120.322 Y77.195 E21.558
G1 X120.433 Y76.835 E21.61063
G1 X120.558 Y76.524 E21.65745
G1 X120.767 Y76.11 E21.72223
G1 X118.29 Y76.438 E22.07127
G1 X116.826 Y76.531 E22.2762
G1 X117.031 Y76.763 E22.31944
G1 X117.251 Y77.059 E22.37096
G1 X117.435 Y77.357 E22.41989
G1 X117.622 Y77.732 E22.47842
G1 X117.732 Y78.015 E22.52084
G1 X117.893 Y78.529 E22.59608
G1 X117.978 Y79.25 E22.6975
G1 X117.953 Y79.951 E22.79548
G1 X117.834 Y80.498 E22.87368
G1 X117.737 Y80.818 E22.92039
G1 X117.595 Y81.169 E22.97328
G1 X117.443 Y81.473 E23.02076
G1 X117.25 Y81.787 E23.07225
G1 X117.049 Y82.056 E23.11916
G0 F6000 X124.597 Y81.759
G1 F1025.6 X124.216 Y81.715 E23.18184
G1 F1104.7 X123.513 Y81.56 E23.29108
G1 F1166.5 X123.003 Y81.381 E23.36875
G1 F1200 X122.484 Y81.092 E23.45174
G1 X122.036 Y80.731 E23.53211
G1 X121.648 Y80.289 E23.61427
G1 X121.343 Y79.793 E23.69561
G1 X121.133 Y79.253 E23.77654
G1 X121.005 Y78.682 E23.85829
G1 X120.987 Y78.103 E23.93921
G1 X121.056 Y77.529 E24.01997
G1 X121.229 Y76.971 E24.10158
G1 X121.489 Y76.456 E24.18217
G1 X121.831 Y75.998 E24.26202
G1 X122.181 Y75.656 E24.33038
G1 F1122.8 X122.806 Y75.168 E24.44876
G1 F999 X123.128 Y74.969 E24.51228
G1 F1032.3 X122.515 Y75.011 E24.61206
G1 F1165 X122.145 Y75.063 E24.66582
G1 F1200 X121.378 Y75.22 E24.77519
G1 X118.2 Y75.643 E25.22304
G1 X115.44 Y75.815 E25.60934
G1 F1160.8 X115.064 Y75.866 E25.66414
G1 F1015.9 X114.464 Y75.956 E25.76425
G1 F995.9 X114.901 Y76.146 E25.84446
G1 F1134.8 X115.51 Y76.486 E25.9475
G1 F1200 X115.908 Y76.755 E26.01461
G1 X116.333 Y77.164 E26.097
G1 X116.676 Y77.627 E26.17749
G1 X116.938 Y78.153 E26.25958
G1 X117.103 Y78.704 E26.33993
G1 X117.177 Y79.283 E26.42147
G1 X117.157 Y79.822 E26.49682
G1 X117.032 Y80.426 E26.58298
G1 X116.816 Y80.965 E26.66409
G1 X116.517 Y81.451 E26.7438
G1 X116.127 Y81.898 E26.82667
G1 X115.678 Y82.26 E26.90724
G1 X115.17 Y82.541 E26.98834
G1 X114.623 Y82.737 E27.06951
G1 X114.151 Y82.82 E27.13645
G1 X114.163 Y82.96 E27.15608
G1 X115.081 Y82.967 E27.28432
G1 X118.329 Y82.785 E27.73876
G1 X121.645 Y82.388 E28.20528
G1 X123.644 Y82.022 E28.48917
G1 F1170.7 X124.007 Y81.936 E28.54259
G1 F1054.9 X124.597 Y81.759 E28.64047
G1 F990.7 X124.853 Y81.723 E28.68421
G1 F1016.9 X125.271 Y81.634 E28.75465
G1 F1009.5 X125.75 Y81.492 E28.83762
G0 F6000 X128.198 Y80.123
G1 F1200 X130.915 Y79.267 E29.23555
G1 X132.677 Y78.588 E29.49934
G1 X132.338 Y78.403 E29.55328
G1 X132.057 Y78.213 E29.60067
G1 X131.763 Y77.977 E29.65333
G1 X131.512 Y77.737 E29.70185
G1 X131.261 Y77.45 E29.75511
G1 X131.104 Y77.253 E29.7903
G1 X130.784 Y76.724 E29.87666
G1 X130.507 Y76.04 E29.97975
G1 X130.359 Y75.353 E30.07792
G1 X130.334 Y74.803 E30.15483
G1 X130.348 Y74.47 E30.20139
G1 X130.396 Y74.089 E30.25503
G1 X130.469 Y73.751 E30.30334
G1 X130.543 Y73.512 E30.33829
G1 X127.834 Y74.475 E30.73991
G1 X126.8 Y74.768 E30.89004
G1 X127.187 Y75.081 E30.95957
G1 X127.481 Y75.363 E31.01648
G1 X127.682 Y75.595 E31.05936
G1 X128.033 Y76.084 E31.14345
G1 X128.342 Y76.705 E31.24034
G1 X128.515 Y77.278 E31.32395
G1 X128.565 Y77.534 E31.36039
G1 X128.629 Y78.057 E31.434
G1 X128.61 Y78.617 E31.51227
G1 X128.566 Y78.967 E31.56155
G1 X128.485 Y79.333 E31.61391
G1 X128.389 Y79.643 E31.65924
G1 X128.198 Y80.123 E31.73141
G0 F6000 X125.776 Y81.488
G1 F1125.4 X126.578 Y81.376 E31.85202
G1 F1200 X128.042 Y81.012 E32.06276
G1 X131.179 Y80.022 E32.52228
G1 X134.264 Y78.835 E32.98403
G1 X134.821 Y78.58 E33.06961
G1 F1132.1 X135.503 Y78.185 E33.18631
G1 F1106 X134.954 Y78.228 E33.26977
G1 F1156.6 X134.26 Y78.224 E33.37036
G1 F1177.9 X133.685 Y78.126 E33.45337
G1 F1192.5 X133.139 Y77.932 E33.53482
G1 F1200 X132.639 Y77.654 E33.61473
G1 X132.179 Y77.285 E33.69711
G1 X131.788 Y76.829 E33.78102
G1 X131.487 Y76.331 E33.86231
G1 X131.278 Y75.811 E33.9406
G1 X131.154 Y75.247 E34.02126
G1 X131.129 Y74.675 E34.10124
G1 X131.203 Y74.088 E34.18389
G1 X131.374 Y73.533 E34.26502
G1 F1182.3 X131.634 Y73.016 E34.34707
G1 F1148.3 X131.954 Y72.582 E34.42579
G1 F1100.9 X132.459 Y72.045 E34.53803
G1 F1022.4 X132.746 Y71.8 E34.5999
G1 F1051.5 X132.166 Y71.977 E34.69658
G1 F1167.9 X131.807 Y72.11 E34.75153
G1 F1200 X130.484 Y72.685 E34.95304
G1 X127.566 Y73.721 E35.38559
G1 F1147 X125.014 Y74.435 E35.7729
G1 F1084.7 X124.354 Y74.723 E35.88418
G1 F1099.7 X124.888 Y74.844 E35.96765
G1 F1163.6 X125.083 Y74.903 E35.99699
G1 F1200 X125.55 Y75.022 E36.06432
G1 X126.08 Y75.263 E36.14565
G1 X126.562 Y75.59 E36.22701
G1 X126.976 Y75.993 E36.30772
G1 X127.322 Y76.462 E36.38914
G1 X127.59 Y76.986 E36.47135
G1 X127.759 Y77.542 E36.55253
G1 X127.829 Y78.099 E36.63095
G1 X127.807 Y78.695 E36.71427
G1 X127.684 Y79.252 E36.79395
G1 X127.463 Y79.807 E36.8774
G1 X127.161 Y80.295 E36.95757
G1 F1185.2 X126.779 Y80.727 E37.03913
G1 F1155.2 X126.248 Y81.161 E37.13864
G1 F1098.4 X125.776 Y81.488 E37.22627
G0 F6000 X126.872 Y80.077
G0 X127.143 Y79.633
G0 X127.338 Y79.151
G0 X127.446 Y78.644
G0 X127.468 Y78.125
G0 X127.403 Y77.609
G0 X127.251 Y77.113
G0 X125.803 Y74.662
G0 X124.296 Y74.731
G1 F972.6 X123.773 Y74.81 E37.31743
G1 F977.6 X123.187 Y74.949 E37.42071
G1 F953.3 X123.128 Y74.969 E37.43166
G0 F6000 X121.619 Y75.604
G0 X118.556 Y76.034
G0 X115.887 Y76.219
G0 X114.464 Y75.956
G1 F943 X114.248 Y75.937 E37.4702
G1 F974.6 X113.766 Y75.915 E37.55319
G1 F962.9 X113.158 Y75.938 E37.65912
G0 F6000 X111.597 Y76.236
G0 X121.272 Y74.87
G0 X124.37 Y74.237
G0 X132.746 Y71.8
G1 F988.7 X132.944 Y71.701 E37.69665
G1 F996.9 X133.445 Y71.485 E37.78839
G0 F6000 X135.574 Y71.921
G0 X136.048 Y72.135
G0 X136.478 Y72.425
G0 X136.854 Y72.785
G0 X137.642 Y72.571
G0 X138.65 Y75.806
G1 F1200 X139.691 Y75.247 E37.95345
G1 X140.282 Y74.844 E38.05338
G1 X140.748 Y74.413 E38.14205
G1 X141.155 Y73.901 E38.23341
G1 X141.482 Y73.335 E38.32473
G1 X141.716 Y72.74 E38.41404
G1 X141.863 Y72.092 E38.50686
G1 X141.918 Y71.378 E38.6069
G1 X141.918 Y67.141 E39.19878
G1 X139.491 Y68.877 E39.61561
G1 X136.727 Y70.581 E40.0692
G1 X136.129 Y70.896 E40.16362
G1 X136.646 Y71.137 E40.2433
G1 X137.072 Y71.425 E40.31513
G1 X137.338 Y71.64 E40.36291
G1 X137.612 Y71.905 E40.41616
G1 X137.83 Y72.153 E40.46229
G1 X138.161 Y72.599 E40.53987
G1 X138.496 Y73.284 E40.64639
G1 X138.694 Y73.947 E40.74305
G1 X138.759 Y74.471 E40.81681
G1 X138.774 Y74.728 E40.85277
G1 X138.757 Y75.176 E40.9154
G1 X138.713 Y75.514 E40.96301
G1 X138.65 Y75.806 E41.00474
G0 F6000 X136.609 Y77.658
G1 F1057.3 X137.238 Y77.454 E41.10958
G1 F1176.5 X137.552 Y77.303 E41.15923
G1 F1200 X140.107 Y75.932 E41.56428
G1 X140.783 Y75.471 E41.67858
G1 X141.336 Y74.958 E41.78395
G1 X141.818 Y74.353 E41.89201
G1 X142.205 Y73.683 E42.00009
G1 X142.482 Y72.976 E42.10617
G1 X142.657 Y72.212 E42.21566
G1 X142.718 Y71.408 E42.32829
G1 X142.718 Y67.013 E42.94224
G1 X142.673 Y66.722 E42.98337
G1 X142.548 Y66.505 E43.01836
G1 X142.369 Y66.353 E43.05116
G1 X142.156 Y66.27 E43.0831
G1 X141.914 Y66.262 E43.11692
G1 X141.638 Y66.357 E43.15769
G1 X138.956 Y68.272 E43.61805
G1 X136.234 Y69.941 E44.06408
G1 X134.32 Y70.94 E44.36568
G1 F1177.9 X133.992 Y71.127 E44.41941
G1 F1069 X133.445 Y71.485 E44.52192
G1 F1042.3 X133.867 Y71.422 E44.59054
G1 F1120.2 X134.587 Y71.386 E44.69842
G1 F1159.4 X135.136 Y71.433 E44.77809
G1 F1186.7 X135.706 Y71.582 E44.86131
G1 F1200 X136.214 Y71.816 E44.93944
G1 X136.703 Y72.14 E45.02139
G1 X137.13 Y72.551 E45.10418
G1 X137.477 Y73.022 E45.1859
G1 X137.729 Y73.533 E45.26549
G1 X137.907 Y74.102 E45.34877
G1 X137.977 Y74.664 E45.42789
G1 X137.953 Y75.242 E45.5087
G1 X137.831 Y75.812 E45.59013
G1 X137.614 Y76.353 E45.67155
G1 X137.366 Y76.758 E45.73789
G1 F1132.1 X136.873 Y77.39 E45.85658
G1 F1021.3 X136.609 Y77.658 E45.91833
G1 F983.6 X136.528 Y77.708 E45.93455
G1 F1018 X135.994 Y77.979 E46.03316
G1 F1025.6 X135.536 Y78.166 E46.11401
G0 F6000 X133.763 Y78.571
G0 X134.294 Y77.42
;TYPE:WALL-OUTER
G1 F1200 X133.861 Y77.339 E46.17555
G1 X133.502 Y77.212 E46.22874
G1 X133.115 Y77.003 E46.29018
G1 X132.739 Y76.709 E46.35686
G1 X132.438 Y76.363 E46.42092
G1 X132.221 Y76.01 E46.47881
