;FLAVOR:Marlin
;TIME:18647
;Filament used: 54.8421m
;Layer height: 0.48
;MINX:52.2
;MINY:16.376
;MINZ:0.4
;MAXX:182.845
;MAXY:218.624
;MAXZ:38.32
;Generated with Cura_SteamEngine 5.3.1
M82 ;absolute extrusion mode
; START G-CODE BEGIN

M104 S230.0 ﻿T0
M140 S60.0

G28 ; Home all axes
G92 E0 ; Reset Extruder
M420 S1 ; Load Mesh

M109 S230.0 ﻿T0
M190 S60.0

G92 E0 ; Reset Extruder

G1 X0.6 Y20 Z0.3 F5000.0 ; Move to start position
G1 X0.6 Y200.0 Z0.3 F1500.0 E15 ; Draw the first line
G1 X0.9 Y200.0 Z0.3 F5000.0 ; Move to side a little
G1 X0.9 Y20 Z0.3 F1500.0 E30 ; Draw the second line
G92 E0 ; Reset Extruder
G1 Z2.0 F3000 ; Move Z Axis up little to prevent scratching of Heat Bed
G1 X5 Y20 Z0.3 F5000.0 ; Move over to prevent blob squish

; START G-CODE END
G92 E0
G92 E0
G1 F2100 E-7.5
;LAYER_COUNT:80
;LAYER:0
M107
;MESH:Left robot side.3mf
G0 F6000 X53.839 Y27.286 Z0.4
;TYPE:WALL-INNER
G1 F2100 E0
G1 F966.4 X53.655 Y27.286 E0.05015
G1 X53.561 Y27.447 E0.10097
G1 X53.654 Y27.608 E0.15165
G1 X53.839 Y27.608 E0.20207
G1 X53.933 Y27.447 E0.25289
G1 F2100 E-7.24711
G0 F6000 X100.183 Y28.986
G0 X98.353 Y38.416
G0 X101.398 Y41.728
G0 X102.155 Y41.626
G0 X102.914 Y41.728
G0 X103.614 Y42.019
G0 X104.223 Y42.481
G0 X104.687 Y43.091
G0 X104.979 Y43.795
G0 X105.079 Y44.55
G0 X104.979 Y45.307
G0 X104.687 Y46.01
G0 X104.224 Y46.617
G0 X103.615 Y47.082
G0 X100.181 Y48.339
G1 F2100 E0.25289
G1 F1200 X99.858 Y48.749 E0.36746
G1 X99.225 Y49.422 E0.57028
G1 X98.938 Y49.696 E0.65738
G1 X98.076 Y50.287 E0.88681
G1 X97.8 Y50.453 E0.95751
G1 X97.5 Y50.593 E1.03018
G1 X96.761 Y50.887 E1.20477
G1 X96.451 Y50.992 E1.27662
G1 X96.168 Y51.056 E1.34031
G1 X95.34 Y51.189 E1.5244
G1 X95.025 Y51.223 E1.59395
G1 X94.706 Y51.224 E1.66398
G1 X93.914 Y51.183 E1.83807
G1 X93.551 Y51.142 E1.91826
G1 X93.265 Y51.077 E1.98264
G1 X92.492 Y50.862 E2.15877
G1 X92.183 Y50.757 E2.23041
G1 X91.893 Y50.622 E2.30063
G1 X91.048 Y50.175 E2.51047
G1 X90.731 Y49.95 E2.59581
G1 X89.953 Y49.288 E2.82005
G1 X89.688 Y49.017 E2.90325
G1 X89.171 Y48.337 E3.09077
G1 X88.426 Y48.637 E3.26707
G1 X88.031 Y48.729 E3.3561
G1 X87.57 Y48.794 E3.4583
G1 X87.284 Y48.819 E3.52132
G1 X86.995 Y48.815 E3.58477
G1 X86.462 Y48.754 E3.70253
G1 X86.198 Y48.709 E3.76132
G1 X85.942 Y48.64 E3.81952
G1 X85.696 Y48.551 E3.87695
G1 X85.384 Y48.422 E3.95106
G1 X85.138 Y48.307 E4.01067
G1 X84.909 Y48.173 E4.06892
G1 X84.697 Y48.024 E4.1258
G1 X84.438 Y47.824 E4.19763
G1 X84.236 Y47.653 E4.25573
G1 X83.998 Y47.415 E4.32961
G1 X83.613 Y46.917 E4.46779
G1 X83.462 Y46.673 E4.53078
G1 X83.293 Y46.326 E4.61551
G1 X83.108 Y45.863 E4.72496
G1 X83.002 Y45.495 E4.80902
G1 X82.897 Y44.741 E4.97614
G1 X82.911 Y44.271 E5.07936
G1 X82.973 Y43.798 E5.18408
G1 X83.026 Y43.521 E5.24599
G1 X83.111 Y43.228 E5.31296
G1 X83.338 Y42.664 E5.44641
G1 X83.516 Y42.326 E5.53027
G1 X83.893 Y41.822 E5.66844
G1 X84.054 Y41.63 E5.72344
G1 X84.236 Y41.446 E5.78025
G1 X84.441 Y41.273 E5.83914
G1 X84.702 Y41.073 E5.91132
G1 X84.917 Y40.921 E5.96912
G1 X85.151 Y40.786 E6.02842
G1 X85.401 Y40.671 E6.08883
G1 X85.863 Y40.483 E6.19832
G1 X86.25 Y40.379 E6.28628
G1 X86.909 Y40.286 E6.43238
G1 X87.283 Y40.281 E6.51449
G1 X87.567 Y40.306 E6.57707
G1 X88.03 Y40.371 E6.6797
G1 X88.426 Y40.465 E6.76905
G1 X89.17 Y40.765 E6.94515
G1 X89.687 Y40.084 E7.13284
G1 X89.953 Y39.812 E7.21635
G1 X90.732 Y39.151 E7.44062
G1 X91.052 Y38.924 E7.52674
G1 X91.893 Y38.479 E7.73561
G1 X92.183 Y38.344 E7.80583
G1 X92.492 Y38.239 E7.87747
G1 X93.265 Y38.024 E8.0536
G1 X93.551 Y37.959 E8.11798
G1 X93.914 Y37.918 E8.19817
G1 X94.706 Y37.877 E8.37226
G1 X95.026 Y37.878 E8.44251
G1 X95.342 Y37.912 E8.51227
G1 X96.126 Y38.039 E8.68662
G1 X96.447 Y38.109 E8.75874
G1 X96.755 Y38.212 E8.83003
G1 X97.499 Y38.508 E9.0058
G1 X97.8 Y38.648 E9.07867
G1 X98.076 Y38.814 E9.14938
G1 X98.888 Y39.366 E9.36491
G1 X99.185 Y39.637 E9.45317
G1 X99.86 Y40.354 E9.66934
G1 X100.181 Y40.761 E9.78312
G1 X100.801 Y40.504 E9.93045
G1 X101.305 Y40.369 E10.04499
G1 X101.963 Y40.28 E10.19075
G1 X102.337 Y40.285 E10.27285
G1 X102.882 Y40.35 E10.39334
G1 X103.14 Y40.396 E10.45087
G1 X103.39 Y40.464 E10.50774
G1 X103.63 Y40.551 E10.56378
G1 X103.937 Y40.678 E10.63671
G1 X104.177 Y40.79 E10.69485
G1 X104.402 Y40.92 E10.75189
G1 X104.609 Y41.064 E10.80724
G1 X105.034 Y41.397 E10.92577
G1 X105.314 Y41.678 E11.01284
G1 X105.634 Y42.084 E11.12632
G1 X105.861 Y42.426 E11.21643
G1 X105.983 Y42.657 E11.27378
G1 X106.215 Y43.232 E11.40989
G1 X106.321 Y43.592 E11.49227
G1 X106.425 Y44.336 E11.65718
G1 X106.412 Y44.836 E11.76697
G1 X106.333 Y45.418 E11.8959
G1 X106.247 Y45.786 E11.97886
G1 X105.989 Y46.431 E12.13136
G1 X105.866 Y46.665 E12.18939
G1 X105.641 Y47.005 E12.27888
G1 X105.321 Y47.414 E12.39288
G1 X105.043 Y47.695 E12.47965
G1 X104.617 Y48.031 E12.59875
G1 X104.404 Y48.181 E12.65594
G1 X104.172 Y48.314 E12.71464
G1 X103.925 Y48.429 E12.77445
G1 X103.622 Y48.553 E12.84632
G1 X103.384 Y48.639 E12.90187
G1 X103.067 Y48.723 E12.97386
G1 X102.412 Y48.813 E13.119
G1 X101.992 Y48.823 E13.21122
G1 X101.308 Y48.733 E13.36266
G1 X100.805 Y48.599 E13.47693
G1 X100.181 Y48.339 E13.62532
G0 F6000 X99.777 Y46.477
G1 F1200 X99.622 Y46.903 E13.72484
G1 X99.023 Y47.886 E13.97753
G1 X98.323 Y48.628 E14.20145
G1 X98.13 Y48.796 E14.25762
G1 X97.402 Y49.294 E14.45124
G1 X97.176 Y49.43 E14.50914
G1 X96.316 Y49.773 E14.71239
G1 X95.96 Y49.874 E14.79362
G1 X95.149 Y50.005 E14.97396
G1 X94.897 Y50.032 E15.02959
G1 X93.976 Y49.984 E15.23204
G1 X93.706 Y49.954 E15.29168
G1 X92.691 Y49.672 E15.52293
G1 X92.455 Y49.562 E15.58008
G1 X91.575 Y49.089 E15.79939
G1 X90.734 Y48.38 E16.04086
G1 X90.551 Y48.17 E16.10201
G1 X89.955 Y47.377 E16.31977
G1 X89.544 Y46.496 E16.53317
G1 X89.167 Y46.874 E16.65036
G1 X88.773 Y47.169 E16.75841
G1 X88.485 Y47.319 E16.82969
G1 X88.126 Y47.464 E16.91468
G1 X87.849 Y47.547 E16.97816
G1 X87.18 Y47.631 E17.12617
G1 X86.413 Y47.54 E17.29572
G1 X85.657 Y47.239 E17.47435
G1 X85.092 Y46.815 E17.62941
G1 X84.901 Y46.621 E17.68917
G1 X84.569 Y46.183 E17.80982
G1 X84.403 Y45.87 E17.8876
G1 X84.187 Y45.332 E18.01486
G1 X84.097 Y44.658 E18.16413
G1 X84.106 Y44.382 E18.22475
G1 X84.189 Y43.756 E18.36337
G1 X84.497 Y43.015 E18.53952
G1 X84.961 Y42.399 E18.70881
G1 X85.518 Y41.956 E18.86504
G1 X85.854 Y41.782 E18.9481
G1 X86.4 Y41.568 E19.07683
G1 X87.168 Y41.468 E19.24685
G1 X87.847 Y41.553 E19.39706
G1 X88.123 Y41.636 E19.46033
G1 X88.489 Y41.784 E19.54699
G1 X88.774 Y41.932 E19.61749
G1 X89.163 Y42.224 E19.72426
G1 X89.545 Y42.602 E19.84223
G1 X89.955 Y41.724 E20.05494
G1 X90.679 Y40.77 E20.31784
G1 X91.585 Y40 E20.57885
G1 X92.57 Y39.478 E20.82356
G1 X92.814 Y39.395 E20.88013
G1 X93.706 Y39.147 E21.08337
G1 X93.976 Y39.117 E21.14301
G1 X94.768 Y39.076 E21.3171
G1 X95.02 Y39.076 E21.37241
G1 X95.934 Y39.224 E21.57567
G1 X96.189 Y39.279 E21.63293
G1 X97.056 Y39.624 E21.83777
G1 X97.292 Y39.732 E21.89474
G1 X98.221 Y40.364 E22.14139
G1 X99.02 Y41.211 E22.39699
G1 X99.621 Y42.194 E22.64991
G1 X99.77 Y42.601 E22.74505
G1 X100.077 Y42.286 E22.84161
G1 X100.423 Y42.021 E22.93728
G1 X100.708 Y41.842 E23.01116
G1 X101.21 Y41.632 E23.13061
G1 X101.512 Y41.551 E23.19925
G1 X102.15 Y41.469 E23.34045
G1 X102.723 Y41.539 E23.46717
G1 X103.028 Y41.608 E23.53581
G1 X103.566 Y41.821 E23.66283
G1 X103.807 Y41.961 E23.72401
G1 X104.338 Y42.373 E23.87155
G1 X104.826 Y43.01 E24.0477
G1 X105.082 Y43.629 E24.19474
G1 X105.152 Y43.889 E24.25385
G1 X105.23 Y44.476 E24.38384
G1 X105.21 Y44.788 E24.45247
G1 X105.151 Y45.231 E24.55057
G1 X105.082 Y45.472 E24.6056
G1 X104.876 Y45.971 E24.72411
G1 X104.687 Y46.277 E24.80306
G1 X104.375 Y46.679 E24.91476
G1 X104.154 Y46.874 E24.97946
G1 X103.69 Y47.22 E25.10652
G1 X103.079 Y47.48 E25.25228
G1 X102.796 Y47.55 E25.31628
G1 X102.264 Y47.617 E25.43398
G1 X101.989 Y47.613 E25.49436
G1 X101.517 Y47.551 E25.59886
G1 X101.215 Y47.471 E25.66744
G1 X100.707 Y47.258 E25.78836
G1 X100.416 Y47.074 E25.86394
G1 X100.07 Y46.808 E25.95974
G1 X99.777 Y46.477 E26.05678
G1 F2100 E18.55678
G0 F6000 X100.694 Y47.082
G0 X101.4 Y47.374
G0 X105.627 Y47.809
G0 X105.624 Y60.121
G0 X138.07 Y61.964
G0 X152.234 Y69.925
G1 F2100 E26.05678
G1 F1200 X153.131 Y70.071 E26.25628
G1 X154.134 Y70.126 E26.47678
G1 X171.738 Y70.126 E30.34116
G1 X172.826 Y70.06 E30.58043
G1 X173.825 Y69.877 E30.80338
G1 X174.805 Y69.572 E31.02868
G1 X175.728 Y69.156 E31.25093
G1 X176.594 Y68.632 E31.47312
G1 X177.403 Y67.997 E31.69888
G1 X178.116 Y67.284 E31.92023
G1 X178.751 Y66.475 E32.14599
G1 X179.275 Y65.609 E32.36818
G1 X179.691 Y64.686 E32.59042
G1 X179.996 Y63.706 E32.81573
G1 X180.179 Y62.707 E33.03868
G1 X180.245 Y61.625 E33.27663
G1 X180.245 Y27.477 E40.7727
G1 X180.179 Y26.395 E41.01066
G1 X179.996 Y25.396 E41.2336
G1 X179.691 Y24.416 E41.45891
G1 X179.275 Y23.493 E41.68115
G1 X178.75 Y22.626 E41.90364
G1 X178.117 Y21.818 E42.12896
G1 X177.404 Y21.105 E42.35031
G1 X176.595 Y20.471 E42.57593
G1 X175.728 Y19.946 E42.79843
G1 X174.804 Y19.531 E43.02078
G1 X173.825 Y19.225 E43.24594
G1 X172.826 Y19.042 E43.46889
G1 X171.738 Y18.976 E43.70816
G1 X154.133 Y18.976 E47.57276
G1 X153.131 Y19.03 E47.79303
G1 X152.232 Y19.176 E47.99296
G1 X151.371 Y19.412 E48.18894
G1 X150.534 Y19.743 E48.38652
G1 X149.721 Y20.168 E48.5879
G1 X148.927 Y20.7 E48.7977
G1 X139.188 Y28.006 E51.47028
G1 X138.757 Y28.245 E51.57846
G1 X138.404 Y28.371 E51.66074
G1 X138.091 Y28.449 E51.73155
G1 X137.834 Y28.486 E51.78855
G1 X137.437 Y28.501 E51.87576
G1 X137.544 Y28.886 E51.96348
G1 X137.589 Y29.143 E52.02075
G1 X137.644 Y29.553 E52.11156
G1 X137.666 Y29.813 E52.16884
G1 X137.658 Y30.195 E52.25271
G1 X137.58 Y30.816 E52.3901
G1 X137.521 Y31.097 E52.45313
G1 X137.396 Y31.483 E52.5422
G1 X137.152 Y32.063 E52.68032
G1 X136.95 Y32.411 E52.76865
G1 X136.443 Y33.071 E52.95135
G1 X136.181 Y33.324 E53.0313
G1 X135.678 Y33.719 E53.17169
G1 X135.366 Y33.935 E53.25499
G1 X135.018 Y34.096 E53.33916
G1 X134.423 Y34.338 E53.48017
G1 X133.997 Y34.441 E53.57638
G1 X133.228 Y34.535 E53.74644
G1 X132.841 Y34.524 E53.83143
G1 X132.278 Y34.454 E53.95597
G1 X131.972 Y34.397 E54.0243
G1 X131.677 Y34.31 E54.09181
G1 X131.025 Y34.044 E54.24639
G1 X130.788 Y33.921 E54.305
G1 X130.569 Y33.782 E54.36194
G1 X130.036 Y33.373 E54.50942
G1 X129.771 Y33.123 E54.5894
G1 X129.582 Y32.901 E54.6534
G1 X129.178 Y32.368 E54.80021
G1 X128.986 Y32.018 E54.88784
G1 X128.771 Y31.497 E55.01157
G1 X128.655 Y31.157 E55.09043
G1 X128.57 Y30.74 E55.18385
G1 X128.517 Y30.331 E55.27438
G1 X128.518 Y29.551 E55.44561
G1 X128.572 Y29.143 E55.53595
G1 X128.743 Y28.502 E55.68158
G1 X60.581 Y28.501 E70.64429
G1 X60.754 Y29.143 E70.79025
G1 X60.808 Y29.553 E70.88103
G1 X60.808 Y30.336 E71.05291
G1 X60.754 Y30.747 E71.14391
G1 X60.67 Y31.162 E71.23685
G1 X60.553 Y31.5 E71.31537
G1 X60.397 Y31.881 E71.40574
G1 X60.266 Y32.156 E71.47261
G1 X60.098 Y32.44 E71.54504
G1 X59.663 Y33.007 E71.70192
G1 X59.388 Y33.297 E71.78965
G1 X58.747 Y33.791 E71.9673
G1 X58.455 Y33.965 E72.04192
G1 X58.183 Y34.094 E72.108
G1 X57.8 Y34.252 E72.19895
G1 X57.464 Y34.367 E72.27691
G1 X57.054 Y34.452 E72.36882
G1 X56.645 Y34.507 E72.45941
G1 X55.844 Y34.507 E72.63525
G1 X55.435 Y34.452 E72.72584
G1 X54.8 Y34.282 E72.87014
G1 X54.8 Y60.6 E78.64738
G1 X137.634 Y60.602 E96.83085
G1 X138.021 Y60.641 E96.91623
G1 X138.331 Y60.707 E96.9858
G1 X138.642 Y60.815 E97.05807
G1 X138.933 Y60.951 E97.12859
G1 X139.195 Y61.102 E97.19497
G1 X148.927 Y68.402 E99.86552
G1 X149.717 Y68.93 E100.07411
G1 X150.53 Y69.356 E100.27559
G1 X151.377 Y69.691 E100.47554
G1 X152.234 Y69.925 E100.67055
G0 F6000 X151.978 Y71.1
G1 F1200 X153.003 Y71.266 E100.89848
G1 X154.102 Y71.326 E101.14009
G1 X171.774 Y71.326 E105.0194
G1 X172.971 Y71.253 E105.28265
G1 X174.113 Y71.045 E105.53746
G1 X175.231 Y70.696 E105.79456
G1 X176.287 Y70.22 E106.04883
G1 X177.277 Y69.621 E106.30283
G1 X178.2 Y68.897 E106.56034
G1 X179.016 Y68.081 E106.81367
G1 X179.74 Y67.158 E107.07118
G1 X180.339 Y66.168 E107.32518
G1 X180.815 Y65.112 E107.57945
G1 X181.163 Y63.994 E107.83649
G1 X181.372 Y62.851 E108.09155
G1 X181.445 Y61.661 E108.35327
G1 X181.445 Y27.441 E115.86514
G1 X181.372 Y26.251 E116.12685
G1 X181.163 Y25.108 E116.38192
G1 X180.815 Y23.99 E116.63896
G1 X180.339 Y22.934 E116.89323
G1 X179.74 Y21.943 E117.14742
G1 X179.017 Y21.02 E117.4048
G1 X178.202 Y20.205 E117.65781
G1 X177.278 Y19.481 E117.91549
G1 X176.287 Y18.882 E118.16968
G1 X175.231 Y18.407 E118.42386
G1 X174.113 Y18.058 E118.68096
G1 X172.971 Y17.849 E118.93582
G1 X171.774 Y17.776 E119.19906
G1 X154.101 Y17.776 E123.07859
G1 X153.002 Y17.835 E123.32018
G1 X151.977 Y18.002 E123.54816
G1 X150.991 Y18.272 E123.77257
G1 X150.034 Y18.65 E123.99844
G1 X149.107 Y19.135 E124.2281
G1 X148.233 Y19.72 E124.45897
G1 X138.573 Y26.966 E127.10977
G1 X138.201 Y27.171 E127.203
G1 X137.865 Y27.27 E127.2799
G1 X137.526 Y27.301 E127.35462
G1 X135.208 Y27.302 E127.86346
G1 X135.632 Y27.726 E127.99509
G1 X135.886 Y28.058 E128.08685
G1 X136.122 Y28.468 E128.1907
G1 X136.359 Y29.059 E128.33048
G1 X136.468 Y29.807 E128.49641
G1 X136.462 Y30.095 E128.55965
G1 X136.381 Y30.737 E128.70169
G1 X136.274 Y31.055 E128.77535
G1 X136.097 Y31.476 E128.8756
G1 X135.929 Y31.773 E128.9505
G1 X135.502 Y32.334 E129.10527
G1 X134.891 Y32.808 E129.27502
G1 X134.633 Y32.955 E129.3402
G1 X134.175 Y33.145 E129.44905
G1 X133.87 Y33.247 E129.51965
G1 X133.191 Y33.335 E129.66994
G1 X132.936 Y33.328 E129.72594
G1 X132.316 Y33.249 E129.86314
G1 X132.075 Y33.178 E129.91829
G1 X131.529 Y32.955 E130.04776
G1 X131.255 Y32.798 E130.11708
G1 X130.744 Y32.406 E130.25846
G1 X130.532 Y32.168 E130.32843
G1 X130.142 Y31.657 E130.46954
G1 X129.826 Y30.911 E130.64738
G1 X129.76 Y30.586 E130.72018
G1 X129.707 Y30.177 E130.81072
G1 X129.708 Y29.709 E130.91345
G1 X129.762 Y29.3 E131.00401
G1 X129.881 Y28.855 E131.10513
G1 X130.038 Y28.468 E131.19681
G1 X130.281 Y28.048 E131.30332
G1 X130.535 Y27.72 E131.39439
G1 X130.956 Y27.302 E131.52462
G1 X58.374 Y27.301 E147.4576
G1 X58.798 Y27.729 E147.58985
G1 X59.05 Y28.059 E147.68099
G1 X59.281 Y28.457 E147.78201
G1 X59.44 Y28.84 E147.87304
G1 X59.564 Y29.299 E147.97741
G1 X59.618 Y29.71 E148.06841
G1 X59.618 Y30.18 E148.17158
G1 X59.564 Y30.591 E148.26258
G1 X59.501 Y30.903 E148.33245
G1 X59.205 Y31.622 E148.50314
G1 X58.73 Y32.253 E148.67651
G1 X58.525 Y32.448 E148.73862
G1 X57.918 Y32.906 E148.90554
G1 X57.202 Y33.199 E149.07537
G1 X56.895 Y33.263 E149.14421
G1 X56.485 Y33.318 E149.23501
G1 X56.004 Y33.317 E149.3406
G1 X55.595 Y33.263 E149.43116
G1 X55.153 Y33.144 E149.53164
G1 X54.765 Y32.985 E149.62369
G1 X54.351 Y32.747 E149.72852
G1 X54.026 Y32.498 E149.81839
G1 X53.601 Y32.074 E149.95018
G1 X53.6 Y61.8 E156.47554
G1 X137.655 Y61.805 E174.92703
G1 X137.974 Y61.857 E174.99798
G1 X138.282 Y61.967 E175.06977
G1 X138.547 Y62.118 E175.13673
G1 X148.233 Y69.381 E177.79433
G1 X149.103 Y69.963 E178.0241
G1 X150.03 Y70.449 E178.25386
G1 X150.997 Y70.831 E178.4821
G1 X151.978 Y71.1 E178.7054
G1 F2100 E171.2054
G0 F6000 X154.147 Y69.622
G0 X162.253 Y51.906
G0 X163.445 Y51.913
G1 F2100 E178.7054
G1 F1200 X162.332 Y51.41 E178.97351
G1 X162.05 Y51.247 E179.04501
G1 X161.14 Y50.598 E179.29037
G1 X160.899 Y50.396 E179.3594
G1 X160.136 Y49.606 E179.60049
G1 X159.887 Y49.31 E179.6854
G1 X159.218 Y48.278 E179.95538
G1 X159.1 Y48.049 E180.01193
G1 X158.646 Y46.927 E180.27763
G1 X158.545 Y46.587 E180.35549
G1 X158.335 Y45.499 E180.59873
G1 X158.298 Y45.147 E180.67643
G1 X158.298 Y43.956 E180.93787
G1 X158.325 Y43.672 E181.0005
G1 X158.546 Y42.495 E181.26338
G1 X158.645 Y42.177 E181.33649
G1 X159.051 Y41.158 E181.57728
G1 X159.189 Y40.877 E181.646
G1 X159.783 Y39.945 E181.88861
G1 X160.039 Y39.597 E181.98345
G1 X160.996 Y38.606 E182.28587
G1 X162.041 Y37.859 E182.56784
G1 X162.326 Y37.694 E182.64013
G1 X163.536 Y37.148 E182.93154
G1 X164.704 Y36.858 E183.19572
G1 X165.078 Y36.792 E183.27909
G1 X166.304 Y36.727 E183.54859
G1 X166.638 Y36.742 E183.62199
G1 X167.835 Y36.92 E183.88764
G1 X168.162 Y37.006 E183.96186
G1 X169.199 Y37.363 E184.20261
G1 X169.499 Y37.5 E184.27501
G1 X170.399 Y38.021 E184.50329
G1 X170.633 Y38.17 E184.56419
