;FLAVOR:Marlin
;TIME:15321
;Filament used: 44.869m
;Layer height: 0.48
;MINX:59.697
;MINY:50.16
;MINZ:0.4
;MAXX:175.315
;MAXY:153.078
;MAXZ:31.6
;Generated with Cura_SteamEngine 5.3.1
M82 ;absolute extrusion mode
; START G-CODE BEGIN

M104 S230.0 ﻿T0
M140 S60.0

G28 ; Home all axes
G92 E0 ; Reset Extruder
M420 S1 ; Load Mesh

M109 S230.0 ﻿T0
M190 S60.0

G92 E0 ; Reset Extruder

G1 X0.6 Y20 Z0.3 F5000.0 ; Move to start position
G1 X0.6 Y200.0 Z0.3 F1500.0 E15 ; Draw the first line
G1 X0.9 Y200.0 Z0.3 F5000.0 ; Move to side a little
G1 X0.9 Y20 Z0.3 F1500.0 E30 ; Draw the second line
G92 E0 ; Reset Extruder
G1 Z2.0 F3000 ; Move Z Axis up little to prevent scratching of Heat Bed
G1 X5 Y20 Z0.3 F5000.0 ; Move over to prevent blob squish

; START G-CODE END
G92 E0
G92 E0
G1 F2100 E-7.5
;LAYER_COUNT:66
;LAYER:0
M107
;MESH:Dominick. G - Robot Body.STL
G0 F6000 X139.9 Y149.425 Z0.4
;TYPE:WALL-INNER
G1 F2100 E0
G1 F1200 X139.905 Y139.543 E2.16927
G1 X139.943 Y139.214 E2.24197
G1 X140.007 Y138.928 E2.3063
G1 X140.165 Y138.468 E2.41307
G1 X140.408 Y138.053 E2.51864
G1 X140.658 Y137.721 E2.60987
G1 X141 Y137.394 E2.71374
G1 X141.46 Y137.081 E2.83588
G1 X141.896 Y136.897 E2.93976
G1 X142.32 Y136.771 E3.03686
G1 X142.827 Y136.725 E3.14861
G1 X171.65 Y136.725 E9.47574
G1 X171.65 Y53.825 E27.67369
G1 X63.351 Y53.826 E51.44715
G1 X63.35 Y136.725 E69.64489
G1 X92.173 Y136.725 E75.97202
G1 X92.678 Y136.771 E76.08334
G1 X93.201 Y136.925 E76.20302
G1 X93.56 Y137.103 E76.29098
G1 X93.85 Y137.287 E76.36637
G1 X94.134 Y137.512 E76.44591
G1 X94.396 Y137.792 E76.53008
G1 X94.592 Y138.053 E76.60173
G1 X94.835 Y138.468 E76.7073
G1 X94.993 Y138.928 E76.81407
G1 X95.057 Y139.214 E76.87841
G1 X95.095 Y139.543 E76.95111
G1 X95.1 Y149.425 E79.12037
G1 X139.9 Y149.425 E88.95473
G0 F6000 X141.1 Y150.625
G1 F1200 X141.103 Y139.616 E91.37139
G1 X141.143 Y139.329 E91.435
G1 X141.275 Y138.916 E91.53018
G1 X141.522 Y138.565 E91.6244
G1 X141.769 Y138.323 E91.7003
G1 X142.13 Y138.097 E91.7938
G1 X142.546 Y137.959 E91.89001
G1 X142.814 Y137.926 E91.94928
G1 X172.85 Y137.925 E98.54269
G1 X172.85 Y52.625 E117.26748
G1 X62.151 Y52.626 E141.56779
G1 X62.15 Y137.925 E160.29236
G1 X92.186 Y137.926 E166.88577
G1 X92.454 Y137.959 E166.94504
G1 X92.897 Y138.11 E167.04778
G1 X93.265 Y138.333 E167.14224
G1 X93.63 Y138.754 E167.26455
G1 X93.841 Y139.213 E167.37545
G1 X93.897 Y139.616 E167.46476
G1 X93.9 Y150.625 E169.88142
G1 X141.1 Y150.625 E180.24262
G1 F2100 E172.74262
G0 F6000 X142.3 Y151.825
;TYPE:WALL-OUTER
G1 F2100 E180.24262
G1 F1200 X142.301 Y139.688 E182.9069
G1 X142.337 Y139.516 E182.94547
G1 X142.499 Y139.277 E183.00885
G1 X142.815 Y139.125 E183.08583
G1 X174.05 Y139.125 E189.94244
G1 X174.05 Y51.425 E209.19407
G1 X60.951 Y51.426 E234.02121
G1 X60.95 Y139.125 E253.27262
G1 X92.219 Y139.126 E260.1367
G1 X92.456 Y139.241 E260.19452
G1 X92.663 Y139.516 E260.27008
G1 X92.699 Y139.688 E260.30865
G1 X92.7 Y151.825 E262.97293
G1 X142.3 Y151.825 E273.86097
G0 F6000 X141.23 Y150.755
G0 X139.496 Y148.321
G0 X138.796 Y148.321
;TYPE:SKIN
G1 F1200 X96.204 Y148.321 E283.21063
G1 X96.202 Y139.539 E285.13843
G1 X96.172 Y139.198 E285.21357
G1 X96.089 Y138.731 E285.3177
G1 X95.916 Y138.201 E285.44008
G1 X95.694 Y137.731 E285.55418
G1 X95.447 Y137.347 E285.65441
G1 X95.235 Y137.074 E285.73029
G1 X95.018 Y136.835 E285.80115
G1 X94.75 Y136.588 E285.88116
G1 X94.405 Y136.319 E285.97719
G1 X93.8 Y135.98 E286.12942
G1 X93.332 Y135.809 E286.2388
G1 X92.889 Y135.694 E286.33927
G1 X92.564 Y135.646 E286.41139
G1 X92.227 Y135.622 E286.48555
G1 X64.454 Y135.621 E292.58219
G1 X64.455 Y54.93 E310.29523
G1 X170.546 Y54.929 E333.584
G1 X170.546 Y135.621 E351.29726
G1 X142.786 Y135.621 E357.39104
G1 X142.438 Y135.646 E357.46763
G1 X141.892 Y135.736 E357.58911
G1 X141.21 Y135.971 E357.74746
G1 X140.712 Y136.251 E357.87287
G1 X140.347 Y136.51 E357.97112
G1 X139.991 Y136.827 E358.07576
G1 X139.752 Y137.089 E358.1536
G1 X139.551 Y137.351 E358.22609
G1 X139.286 Y137.766 E358.33418
G1 X139.069 Y138.238 E358.44822
G1 X138.91 Y138.738 E358.56339
G1 X138.827 Y139.207 E358.66795
G1 X138.798 Y139.538 E358.74088
G1 X138.796 Y148.321 E360.6689
G1 F2100 E353.1689
G0 F6000 X139.496 Y148.321
G0 X139.424 Y148.949
G0 X95.576 Y148.949
G0 X93.728 Y138.097
G0 X63.826 Y136.249
G0 X63.755 Y134.632
G0 X65.053 Y134.633
G1 F2100 E360.6689
G1 F1200 X65.441 Y135.02 E360.7892
G0 F6000 X65.441 Y136.321
G0 X67.138 Y136.321
G0 X67.138 Y135.02
G1 F1200 X65.053 Y132.936 E361.43632
G0 F6000 X63.755 Y132.935
G0 X63.755 Y131.238
G0 X65.053 Y131.239
G1 F1200 X68.835 Y135.02 E362.61026
G0 F6000 X68.835 Y136.321
G0 X70.532 Y136.321
G0 X70.532 Y135.02
G1 F1200 X65.053 Y129.541 E364.31118
G0 F6000 X63.755 Y129.54
G0 X63.755 Y127.843
G0 X65.053 Y127.844
G1 F1200 X72.229 Y135.02 E366.53893
G0 F6000 X72.229 Y136.321
G0 X73.926 Y136.321
G0 X73.926 Y135.02
G1 F1200 X65.053 Y126.147 E369.29349
G0 F6000 X63.755 Y126.146
G0 X63.755 Y124.449
G0 X65.053 Y124.45
G1 F1200 X75.623 Y135.02 E372.57489
G0 F6000 X75.623 Y136.321
G0 X77.32 Y136.321
G0 X77.32 Y135.02
G1 F1200 X65.053 Y122.753 E376.3831
G0 F6000 X63.755 Y122.752
G0 X63.755 Y121.055
G0 X65.053 Y121.056
G1 F1200 X79.017 Y135.02 E380.71814
G0 F6000 X79.017 Y136.321
G0 X80.714 Y136.321
G0 X80.714 Y135.02
G1 F1200 X65.053 Y119.359 E385.58
G0 F6000 X63.755 Y119.358
G0 X63.755 Y117.661
G0 X65.053 Y117.662
G1 F1200 X82.411 Y135.02 E390.96868
G0 F6000 X82.411 Y136.321
G0 X84.108 Y136.321
G0 X84.108 Y135.02
G1 F1200 X65.053 Y115.965 E396.88418
G0 F6000 X63.755 Y115.964
G0 X63.755 Y114.267
G0 X65.053 Y114.268
G1 F1200 X85.805 Y135.02 E403.32651
G0 F6000 X85.805 Y136.321
G0 X87.503 Y136.321
G0 X87.503 Y135.02
G1 F1200 X65.053 Y112.571 E410.29582
G0 F6000 X63.755 Y112.57
G0 X63.755 Y110.873
G0 X65.053 Y110.874
G1 F1200 X89.2 Y135.02 E417.79195
G0 F6000 X89.2 Y136.321
G0 X90.897 Y136.321
G0 X90.897 Y135.02
G1 F1200 X65.053 Y109.177 E425.8149
G0 F6000 X63.755 Y109.176
G0 X63.755 Y107.479
G0 X65.053 Y107.48
G1 F1200 X92.621 Y135.047 E434.37306
G0 F6000 X92.492 Y136.343
G0 X95.481 Y139.322
G0 X96.772 Y139.198
G1 F1200 X105.293 Y147.72 E437.01851
G0 F6000 X105.293 Y149.021
G0 X103.596 Y149.021
G0 X103.596 Y147.72
G1 F1200 X96.8 Y140.924 E439.12829
G0 F6000 X95.504 Y140.924
G0 X95.504 Y142.622
G0 X96.801 Y142.622
G1 F1200 X101.899 Y147.72 E440.71093
G0 F6000 X101.899 Y149.021
G0 X100.202 Y149.021
G0 X100.202 Y147.72
G1 F1200 X96.802 Y144.319 E441.76659
G0 F6000 X95.504 Y144.319
G0 X95.504 Y146.017
G0 X96.802 Y146.017
G1 F1200 X98.505 Y147.72 E442.29528
G0 F6000 X98.505 Y149.021
G0 X106.99 Y149.021
G0 X106.99 Y147.72
G1 F1200 X65.053 Y105.783 E455.31436
G0 F6000 X63.755 Y105.782
G0 X63.755 Y104.085
G0 X65.053 Y104.086
G1 F1200 X108.687 Y147.72 E468.86026
G0 F6000 X108.687 Y149.021
G0 X110.385 Y149.021
G0 X110.385 Y147.72
G1 F1200 X65.053 Y102.389 E482.93314
G0 F6000 X63.755 Y102.388
G0 X63.755 Y100.691
G0 X65.053 Y100.692
G1 F1200 X112.082 Y147.72 E497.53285
G0 F6000 X112.082 Y149.021
G0 X113.779 Y149.021
G0 X113.779 Y147.72
G1 F1200 X65.053 Y98.994 E512.65953
G0 F6000 X63.755 Y98.993
G0 X63.755 Y97.296
G0 X65.053 Y97.297
G1 F1200 X115.476 Y147.72 E528.31304
G0 F6000 X115.476 Y149.021
G0 X117.173 Y149.021
G0 X117.173 Y147.72
G1 F1200 X65.053 Y95.6 E544.49336
G0 F6000 X63.755 Y95.599
G0 X63.755 Y93.902
G0 X65.053 Y93.903
G1 F1200 X118.87 Y147.72 E561.20052
G0 F6000 X118.87 Y149.021
G0 X120.567 Y149.021
G0 X120.567 Y147.72
G1 F1200 X65.053 Y92.206 E578.43449
G0 F6000 X63.755 Y92.205
G0 X63.755 Y90.508
G0 X65.053 Y90.509
G1 F1200 X122.264 Y147.72 E596.19529
G0 F6000 X122.264 Y149.021
G0 X123.961 Y149.021
G0 X123.961 Y147.72
G1 F1200 X65.053 Y88.812 E614.48291
G0 F6000 X63.755 Y88.811
G0 X63.755 Y87.114
G0 X65.053 Y87.115
G1 F1200 X125.658 Y147.72 E633.29736
G0 F6000 X125.658 Y149.021
G0 X127.355 Y149.021
G0 X127.355 Y147.72
G1 F1200 X65.053 Y85.418 E652.63862
G0 F6000 X63.755 Y85.417
G0 X63.755 Y83.72
G0 X65.053 Y83.721
G1 F1200 X129.052 Y147.72 E672.50671
G0 F6000 X129.052 Y149.021
G0 X130.749 Y149.021
G0 X130.749 Y147.72
G1 F1200 X65.053 Y82.024 E692.90163
G0 F6000 X63.755 Y82.023
G0 X63.755 Y80.326
G0 X65.053 Y80.327
G1 F1200 X132.446 Y147.72 E713.82336
G0 F6000 X132.446 Y149.021
G0 X134.143 Y149.021
G0 X134.143 Y147.72
G1 F1200 X65.053 Y78.63 E735.27192
G0 F6000 X63.755 Y78.629
G0 X63.755 Y76.932
G0 X65.053 Y76.933
G1 F1200 X135.84 Y147.72 E757.24731
G0 F6000 X135.84 Y149.021
G0 X137.537 Y149.021
G0 X137.537 Y147.72
G1 F1200 X65.053 Y75.236 E779.74951
G0 F6000 X63.755 Y75.235
G0 X63.755 Y73.538
G0 X65.053 Y73.539
G1 F1200 X138.195 Y146.68 E802.45584
G0 F6000 X139.496 Y146.68
G0 X139.496 Y144.983
G0 X138.195 Y144.983
G1 F1200 X65.053 Y71.842 E825.16216
G0 F6000 X63.755 Y71.841
G0 X63.755 Y70.143
G0 X65.053 Y70.144
G1 F1200 X138.195 Y143.286 E847.86864
G0 F6000 X139.496 Y143.286
G0 X139.496 Y141.589
G0 X138.195 Y141.589
G1 F1200 X65.053 Y68.447 E870.57511
G0 F6000 X63.755 Y68.446
G0 X63.755 Y66.749
G0 X65.053 Y66.75
G1 F1200 X138.195 Y139.892 E893.28159
G0 F6000 X139.496 Y139.892
G0 X139.627 Y138.787
G0 X138.392 Y138.392
G1 F1200 X65.053 Y65.053 E916.04923
G0 F6000 X63.755 Y65.052
G0 X63.755 Y63.355
G0 X65.053 Y63.356
G1 F1200 X138.921 Y137.223 E938.98093
G0 F6000 X140.012 Y137.927
G0 X140.558 Y137.258
G0 X139.687 Y136.293
G1 F1200 X65.053 Y61.659 E962.15059
G0 F6000 X63.755 Y61.658
G0 X63.755 Y59.961
G0 X65.053 Y59.962
G1 F1200 X140.675 Y135.584 E985.62697
G0 F6000 X141.309 Y136.719
G0 X142.227 Y136.387
G0 X141.909 Y135.121
G1 F1200 X65.053 Y58.265 E1009.48644
G0 F6000 X63.755 Y58.264
G0 X63.755 Y56.567
G0 X65.053 Y56.568
G1 F1200 X143.506 Y135.021 E1033.84168
G0 F6000 X143.506 Y136.321
G0 X145.203 Y136.321
G0 X145.203 Y135.021
G1 F1200 X65.712 Y55.529 E1058.51932
G0 F6000 X65.712 Y54.229
G0 X67.409 Y54.229
G0 X67.409 Y55.529
G1 F1200 X146.9 Y135.021 E1083.19696
G0 F6000 X146.9 Y136.321
G0 X148.597 Y136.321
G0 X148.597 Y135.021
G1 F1200 X69.106 Y55.529 E1107.8746
G0 F6000 X69.106 Y54.229
G0 X70.803 Y54.229
G0 X70.803 Y55.529
G1 F1200 X150.294 Y135.021 E1132.55224
G0 F6000 X150.294 Y136.321
G0 X151.991 Y136.321
G0 X151.991 Y135.021
G1 F1200 X72.5 Y55.529 E1157.22988
G0 F6000 X72.5 Y54.229
G0 X74.197 Y54.229
G0 X74.197 Y55.529
G1 F1200 X153.688 Y135.021 E1181.90752
G0 F6000 X153.688 Y136.321
G0 X155.386 Y136.321
G0 X155.386 Y135.021
G1 F1200 X75.894 Y55.529 E1206.58532
G0 F6000 X75.894 Y54.229
G0 X77.591 Y54.229
G0 X77.591 Y55.529
G1 F1200 X157.083 Y135.021 E1231.26312
G0 F6000 X157.083 Y136.321
G0 X158.78 Y136.321
G0 X158.78 Y135.021
G1 F1200 X79.288 Y55.529 E1255.94091
G0 F6000 X79.288 Y54.229
G0 X80.985 Y54.229
G0 X80.985 Y55.529
G1 F1200 X160.477 Y135.021 E1280.61871
G0 F6000 X160.477 Y136.321
G0 X162.174 Y136.321
G0 X162.174 Y135.021
G1 F1200 X82.682 Y55.529 E1305.2965
G0 F6000 X82.682 Y54.229
G0 X84.379 Y54.229
G0 X84.379 Y55.529
G1 F1200 X163.871 Y135.021 E1329.9743
G0 F6000 X163.871 Y136.321
G0 X165.568 Y136.321
G0 X165.568 Y135.021
G1 F1200 X86.076 Y55.529 E1354.65209
G0 F6000 X86.076 Y54.229
G0 X87.773 Y54.229
G0 X87.773 Y55.529
G1 F1200 X167.265 Y135.021 E1379.32989
G0 F6000 X167.265 Y136.321
G0 X168.962 Y136.321
G0 X168.962 Y135.021
G1 F1200 X89.47 Y55.529 E1404.00769
G0 F6000 X89.47 Y54.229
G0 X91.167 Y54.229
G0 X91.167 Y55.529
G1 F1200 X169.945 Y134.307 E1428.46382
G0 F6000 X171.246 Y134.307
G0 X171.246 Y132.61
G0 X169.945 Y132.61
G1 F1200 X92.865 Y55.529 E1452.39299
G0 F6000 X92.865 Y54.229
G0 X94.562 Y54.229
G0 X94.562 Y55.529
G1 F1200 X169.945 Y130.913 E1475.79532
G0 F6000 X171.246 Y130.913
G0 X171.246 Y129.215
G0 X169.945 Y129.215
G1 F1200 X96.259 Y55.529 E1498.67068
G0 F6000 X96.259 Y54.229
G0 X97.956 Y54.229
G0 X97.956 Y55.529
G1 F1200 X169.945 Y127.518 E1521.01922
G0 F6000 X171.246 Y127.518
G0 X171.246 Y125.821
G0 X169.945 Y125.821
G1 F1200 X99.653 Y55.529 E1542.84093
G0 F6000 X99.653 Y54.229
G0 X101.35 Y54.229
G0 X101.35 Y55.529
G1 F1200 X169.945 Y124.124 E1564.13582
G0 F6000 X171.246 Y124.124
G0 X171.246 Y122.427
G0 X169.945 Y122.427
G1 F1200 X103.047 Y55.529 E1584.90389
G0 F6000 X103.047 Y54.229
G0 X104.744 Y54.229
G0 X104.744 Y55.529
G1 F1200 X169.945 Y120.73 E1605.14513
G0 F6000 X171.246 Y120.73
G0 X171.246 Y119.033
G0 X169.945 Y119.033
G1 F1200 X106.441 Y55.529 E1624.85955
G0 F6000 X106.441 Y54.229
G0 X108.138 Y54.229
G0 X108.138 Y55.529
G1 F1200 X169.945 Y117.336 E1644.04715
G0 F6000 X171.246 Y117.336
G0 X171.246 Y115.639
G0 X169.945 Y115.639
G1 F1200 X109.835 Y55.529 E1662.70793
G0 F6000 X109.835 Y54.229
G0 X111.532 Y54.229
G0 X111.532 Y55.529
G1 F1200 X169.945 Y113.942 E1680.84188
G0 F6000 X171.246 Y113.942
G0 X171.246 Y112.245
G0 X169.945 Y112.245
G1 F1200 X113.229 Y55.529 E1698.44901
G0 F6000 X113.229 Y54.229
G0 X114.926 Y54.229
G0 X114.926 Y55.529
G1 F1200 X169.945 Y110.548 E1715.52931
G0 F6000 X171.246 Y110.548
G0 X171.246 Y108.851
G0 X169.945 Y108.851
G1 F1200 X116.623 Y55.529 E1732.08279
G0 F6000 X116.623 Y54.229
G0 X118.32 Y54.229
G0 X118.32 Y55.529
G1 F1200 X169.945 Y107.154 E1748.10945
G0 F6000 X171.246 Y107.154
G0 X171.246 Y105.457
G0 X169.945 Y105.457
G1 F1200 X120.017 Y55.529 E1763.60929
G0 F6000 X120.017 Y54.229
G0 X121.714 Y54.229
G0 X121.714 Y55.529
G1 F1200 X169.945 Y103.76 E1778.5823
G0 F6000 X171.246 Y103.76
G0 X171.246 Y102.063
G0 X169.945 Y102.063
G1 F1200 X123.411 Y55.529 E1793.02849
G0 F6000 X123.411 Y54.229
G0 X125.108 Y54.229
G0 X125.108 Y55.529
G1 F1200 X169.945 Y100.366 E1806.94786
G0 F6000 X171.246 Y100.366
G0 X171.246 Y98.668
G0 X169.945 Y98.668
G1 F1200 X126.805 Y55.529 E1820.34025
G0 F6000 X126.805 Y54.229
G0 X128.502 Y54.229
G0 X128.502 Y55.529
G1 F1200 X169.945 Y96.971 E1833.20581
G0 F6000 X171.246 Y96.971
G0 X171.246 Y95.274
G0 X169.945 Y95.274
G1 F1200 X130.199 Y55.529 E1845.54456
G0 F6000 X130.199 Y54.229
G0 X131.896 Y54.229
G0 X131.896 Y55.529
G1 F1200 X169.945 Y93.577 E1857.35648
G0 F6000 X171.246 Y93.577
G0 X171.246 Y91.88
G0 X169.945 Y91.88
G1 F1200 X133.593 Y55.529 E1868.64157
G0 F6000 X133.593 Y54.229
G0 X135.29 Y54.229
G0 X135.29 Y55.529
G1 F1200 X169.945 Y90.183 E1879.39985
G0 F6000 X171.246 Y90.183
G0 X171.246 Y88.486
G0 X169.945 Y88.486
G1 F1200 X136.987 Y55.529 E1889.6313
G0 F6000 X136.987 Y54.229
G0 X138.684 Y54.229
G0 X138.684 Y55.529
G1 F1200 X169.945 Y86.789 E1899.33592
G0 F6000 X171.246 Y86.789
G0 X171.246 Y85.092
G0 X169.945 Y85.092
G1 F1200 X140.381 Y55.529 E1908.51373
G0 F6000 X140.381 Y54.229
G0 X142.078 Y54.229
G0 X142.078 Y55.529
G1 F1200 X169.945 Y83.395 E1917.16471
G0 F6000 X171.246 Y83.395
G0 X171.246 Y81.698
G0 X169.945 Y81.698
G1 F1200 X143.776 Y55.529 E1925.28871
G0 F6000 X143.776 Y54.229
G0 X145.473 Y54.229
G0 X145.473 Y55.529
G1 F1200 X169.945 Y80.001 E1932.88589
G0 F6000 X171.246 Y80.001
G0 X171.246 Y78.304
G0 X169.945 Y78.304
G1 F1200 X147.17 Y55.529 E1939.95625
G0 F6000 X147.17 Y54.229
G0 X148.867 Y54.229
G0 X148.867 Y55.529
G1 F1200 X169.945 Y76.607 E1946.49978
G0 F6000 X171.246 Y76.607
G0 X171.246 Y74.91
G0 X169.945 Y74.91
G1 F1200 X150.564 Y55.529 E1952.51649
G0 F6000 X150.564 Y54.229
G0 X152.261 Y54.229
G0 X152.261 Y55.529
G1 F1200 X169.945 Y73.213 E1958.00638
G0 F6000 X171.246 Y73.213
G0 X171.246 Y71.516
G0 X169.945 Y71.516
G1 F1200 X153.958 Y55.529 E1962.96945
G0 F6000 X153.958 Y54.229
G0 X155.655 Y54.229
G0 X155.655 Y55.529
G1 F1200 X169.945 Y69.819 E1967.40569
G0 F6000 X171.246 Y69.819
G0 X171.246 Y68.121
G0 X169.945 Y68.121
G1 F1200 X157.352 Y55.529 E1971.31495
G0 F6000 X157.352 Y54.229
G0 X159.049 Y54.229
G0 X159.049 Y55.529
G1 F1200 X169.945 Y66.424 E1974.69739
G0 F6000 X171.246 Y66.424
G0 X171.246 Y64.727
G0 X169.945 Y64.727
G1 F1200 X160.746 Y55.529 E1977.55301
G0 F6000 X160.746 Y54.229
G0 X162.443 Y54.229
G0 X162.443 Y55.529
G1 F1200 X169.945 Y63.03 E1979.8818
G0 F6000 X171.246 Y63.03
G0 X171.246 Y61.333
G0 X169.945 Y61.333
G1 F1200 X164.14 Y55.529 E1981.68377
G0 F6000 X164.14 Y54.229
G0 X165.837 Y54.229
G0 X165.837 Y55.529
G1 F1200 X169.945 Y59.636 E1982.95892
G0 F6000 X171.246 Y59.636
G0 X171.246 Y57.939
G0 X169.945 Y57.939
G1 F1200 X167.534 Y55.529 E1983.70724
G0 F6000 X167.534 Y54.229
G0 X169.231 Y54.229
G0 X169.231 Y55.529
G1 F1200 X169.945 Y56.242 E1983.92875
