;FLAVOR:Marlin
;TIME:14449
;Filament used: 45.8576m
;Layer height: 0.6
;MINX:8.093
;MINY:27.962
;MINZ:0.4
;MAXX:217.129
;MAXY:211.386
;MAXZ:38.2
;Generated with Cura_SteamEngine 5.3.1
M82 ;absolute extrusion mode
; START G-CODE BEGIN

M104 S230.0 ﻿T0
M140 S60.0

G28 ; Home all axes
G92 E0 ; Reset Extruder
M420 S1 ; Load Mesh

M109 S230.0 ﻿T0
M190 S60.0

G92 E0 ; Reset Extruder

G1 X0.6 Y20 Z0.3 F5000.0 ; Move to start position
G1 X0.6 Y200.0 Z0.3 F1500.0 E15 ; Draw the first line
G1 X0.9 Y200.0 Z0.3 F5000.0 ; Move to side a little
G1 X0.9 Y20 Z0.3 F1500.0 E30 ; Draw the second line
G92 E0 ; Reset Extruder
G1 Z2.0 F3000 ; Move Z Axis up little to prevent scratching of Heat Bed
G1 X5 Y20 Z0.3 F5000.0 ; Move over to prevent blob squish

; START G-CODE END
G92 E0
G92 E0
G1 F2400 E-10
;LAYER_COUNT:64
;LAYER:0
M107
;MESH:Lid jaxson.stl
G0 F6000 X74.812 Y126.967 Z0.4
;TYPE:WALL-OUTER
G1 F2400 E0
G1 F836.2 X74.137 Y127.4 E0.25262
G1 F858.7 X73.979 Y127.483 E0.30737
G1 F2400 E-9.69263
G0 F6000 X73.946 Y127.439
G0 X73.099 Y128.174
G0 X72.296 Y129.049
G0 X71.645 Y130.043
G0 X71.169 Y131.132
G0 X70.877 Y132.283
G0 X70.778 Y133.466
G0 X70.877 Y134.649
G0 X71.169 Y135.8
G0 X71.645 Y136.889
G0 X72.296 Y137.883
G0 X73.099 Y138.758
G0 X74.038 Y139.487
G0 X75.081 Y140.052
G0 X80.084 Y142.466
G0 X80.201 Y143.342
G0 X80.538 Y144.158
G0 X81.077 Y144.861
G0 X81.779 Y145.398
G0 X84.705 Y146.52
G0 X84.285 Y145.504
G1 F2400 E0.30737
G1 F1200 X83.448 Y145.609 E0.49254
G1 X82.658 Y145.499 E0.66764
G1 X81.902 Y145.187 E0.84717
G1 X81.252 Y144.696 E1.02599
G1 X80.74 Y144.025 E1.21127
G1 X80.438 Y143.289 E1.3859
G1 X80.325 Y142.468 E1.56783
G1 X80.435 Y141.647 E1.74966
G1 X80.714 Y140.968 E1.9108
G1 X80.794 Y140.829 E1.94601
G1 F1061.9 X80.996 Y140.31 E2.08416
G1 F874.8 X81.132 Y139.964 E2.1961
G1 X80.771 Y139.996 E2.30522
G1 F1061.9 X80.215 Y140.022 E2.44329
G1 F1200 X79.669 Y140.208 E2.56991
G1 X78.52 Y140.394 E2.82542
G1 X77.41 Y140.393 E3.06908
G1 X76.247 Y140.199 E3.32791
G1 X75.175 Y139.83 E3.57678
G1 X74.17 Y139.287 E3.82754
G1 X73.258 Y138.578 E4.08112
G1 X72.48 Y137.726 E4.33439
G1 X71.849 Y136.758 E4.58804
G1 X71.396 Y135.722 E4.83625
G1 X71.114 Y134.607 E5.08872
G1 X71.019 Y133.467 E5.33984
G1 X71.112 Y132.322 E5.59201
G1 X71.395 Y131.215 E5.84283
G1 X71.854 Y130.164 E6.09459
G1 X72.474 Y129.214 E6.34361
G1 X73.226 Y128.389 E6.58866
G1 X73.484 Y128.178 E6.66182
G1 F1135.6 X73.636 Y127.974 E6.72083
G1 F1011.2 X73.807 Y127.729 E6.79866
G1 F899.4 X73.979 Y127.483 E6.88657
G1 X73.681 Y127.51 E6.9742
G1 F1011.2 X73.383 Y127.538 E7.05217
G1 F1135.6 X73.208 Y127.515 E7.09311
G1 F1200 X72.466 Y127.612 E7.25738
G1 X71.657 Y127.504 E7.43655
G1 X70.909 Y127.195 E7.6142
G1 X70.234 Y126.677 E7.80098
G1 X69.745 Y126.037 E7.97779
G1 X69.436 Y125.283 E8.15666
G1 X69.326 Y124.465 E8.33784
G1 X69.437 Y123.64 E8.52058
G1 X69.741 Y122.903 E8.69558
G1 X70.245 Y122.242 E8.87805
G1 X70.916 Y121.733 E9.06293
G1 X71.658 Y121.427 E9.23912
G1 X72.494 Y121.322 E9.42408
G1 X73.285 Y121.432 E9.59939
G1 X74.025 Y121.732 E9.77467
G1 X74.696 Y122.242 E9.95968
G1 X75.19 Y122.884 E10.13751
G1 X75.503 Y123.634 E10.31591
G1 X75.617 Y124.464 E10.49981
G1 X75.508 Y125.279 E10.68031
G1 X75.225 Y125.967 E10.84362
G1 X75.147 Y126.105 E10.87842
G1 F1061.9 X74.946 Y126.623 E11.01624
G1 F874.8 X74.812 Y126.967 E11.1274
G1 X75.171 Y126.936 E11.2359
G1 F1061.9 X75.725 Y126.912 E11.37345
G1 F1200 X76.266 Y126.725 E11.49911
G1 X77.423 Y126.538 E11.75638
G1 X78.533 Y126.539 E12.00005
G1 X79.695 Y126.733 E12.25866
G1 X80.767 Y127.102 E12.50753
G1 X81.772 Y127.645 E12.75829
G1 X82.683 Y128.353 E13.01156
G1 X83.451 Y129.191 E13.26108
G1 X84.097 Y130.181 E13.52058
G1 X84.548 Y131.217 E13.76861
G1 X84.827 Y132.318 E14.01794
G1 X84.923 Y133.466 E14.27082
G1 X84.824 Y134.628 E14.52683
G1 X84.547 Y135.717 E14.77349
G1 X84.088 Y136.767 E15.02505
G1 X83.468 Y137.719 E15.27444
G1 X82.716 Y138.543 E15.51932
G1 F1181.3 X82.359 Y138.835 E15.62217
G1 F1069.8 X82.12 Y139.164 E15.72229
G1 F921.9 X81.881 Y139.494 E15.83872
G1 F916.6 X82.225 Y139.458 E15.93812
G1 F1048 X82.569 Y139.422 E16.02506
G1 F1163.2 X82.734 Y139.416 E16.06245
G1 F1200 X83.476 Y139.319 E16.22672
G1 X84.288 Y139.428 E16.40656
G1 X85.05 Y139.745 E16.58773
G1 X85.69 Y140.238 E16.76507
G1 X86.198 Y140.896 E16.94755
G1 X86.507 Y141.65 E17.12643
G1 X86.615 Y142.466 E17.30711
G1 X86.509 Y143.278 E17.48688
G1 X86.191 Y144.046 E17.66934
G1 X85.69 Y144.696 E17.8495
G1 X85.04 Y145.187 E18.02832
G1 X84.285 Y145.504 E18.20807
G0 F6000 X84.705 Y146.52
G0 X85.714 Y146.189
;TYPE:WALL-INNER
G1 F1200 X85.426 Y146.332 E18.27865
G1 X84.815 Y146.584 E18.42374
G1 X84.439 Y146.693 E18.50967
G1 X83.708 Y146.791 E18.67158
G1 X83.387 Y146.811 E18.74218
G1 X82.577 Y146.704 E18.92153
G1 X82.269 Y146.643 E18.99045
G1 X81.516 Y146.332 E19.16929
G1 X81.228 Y146.189 E19.23988
G1 X80.495 Y145.627 E19.44264
G1 X80.307 Y145.439 E19.501
G1 X79.844 Y144.836 E19.66789
G1 X79.649 Y144.52 E19.7494
G1 X79.352 Y143.804 E19.91956
G1 X79.251 Y143.492 E19.99155
G1 X79.146 Y142.704 E20.16606
G1 X79.138 Y142.299 E20.25498
G1 X79.244 Y141.495 E20.433
G1 X78.66 Y141.593 E20.56299
G1 X77.275 Y141.591 E20.86702
G1 X75.982 Y141.375 E21.15479
G1 X74.687 Y140.933 E21.45516
G1 X73.477 Y140.268 E21.75825
G1 X72.563 Y139.558 E22.01231
G1 X72.342 Y139.355 E22.07818
G1 X71.539 Y138.477 E22.33937
G1 X70.806 Y137.364 E22.63192
G1 X70.256 Y136.111 E22.93231
G1 X69.923 Y134.792 E23.23093
G1 X69.816 Y133.452 E23.52602
G1 X69.924 Y132.135 E23.8161
G1 X70.27 Y130.783 E24.12245
G1 X70.812 Y129.559 E24.4163
G1 X71.401 Y128.662 E24.65186
G1 X71.127 Y128.584 E24.7144
G1 X70.516 Y128.332 E24.85948
G1 X70.214 Y128.178 E24.9339
G1 X69.467 Y127.606 E25.14043
G1 X69.243 Y127.357 E25.21395
G1 X68.754 Y126.716 E25.39094
G1 X68.618 Y126.452 E25.45613
G1 X68.341 Y125.775 E25.6167
G1 X68.248 Y125.472 E25.68627
G1 X68.13 Y124.583 E25.88314
G1 X68.135 Y124.332 E25.93824
G1 X68.246 Y123.476 E26.12772
G1 X68.313 Y123.218 E26.18624
G1 X68.642 Y122.42 E26.37572
G1 X68.776 Y122.184 E26.43529
G1 X69.338 Y121.454 E26.63753
G1 X69.577 Y121.243 E26.70751
G1 X70.227 Y120.742 E26.88766
G1 X70.511 Y120.602 E26.95717
G1 X71.125 Y120.348 E27.10303
G1 X71.503 Y120.238 E27.18945
G1 X72.234 Y120.14 E27.35135
G1 X72.555 Y120.12 E27.42195
G1 X73.365 Y120.227 E27.60131
G1 X73.671 Y120.288 E27.6698
G1 X74.431 Y120.602 E27.85031
G1 X74.715 Y120.742 E27.91982
G1 X75.493 Y121.342 E28.13549
G1 X75.694 Y121.571 E28.20238
G1 X76.256 Y122.312 E28.40653
G1 X76.589 Y123.122 E28.59878
G1 X76.687 Y123.428 E28.66931
G1 X76.796 Y124.227 E28.84633
G1 X76.804 Y124.633 E28.93547
G1 X76.697 Y125.438 E29.11374
G1 X77.294 Y125.338 E29.24661
G1 X78.653 Y125.341 E29.54494
G1 X79.959 Y125.556 E29.83549
G1 X81.218 Y125.986 E30.12753
G1 X82.429 Y126.636 E30.42924
G1 X83.379 Y127.374 E30.69331
G1 X83.6 Y127.577 E30.75919
G1 X84.4 Y128.447 E31.01863
G1 X85.145 Y129.581 E31.31648
G1 X85.686 Y130.819 E31.61306
G1 X86.014 Y132.112 E31.90588
G1 X86.127 Y133.465 E32.20392
G1 X86.016 Y134.815 E32.50127
G1 X85.672 Y136.15 E32.8039
G1 X85.126 Y137.38 E33.09931
G1 X84.542 Y138.268 E33.33262
G1 X84.817 Y138.348 E33.39549
G1 X85.569 Y138.666 E33.57472
G1 X85.84 Y138.839 E33.6453
G1 X86.38 Y139.254 E33.7948
G1 X86.629 Y139.486 E33.86951
G1 X87.167 Y140.192 E34.06436
G1 X87.302 Y140.43 E34.12442
G1 X87.674 Y141.338 E34.33982
G1 X87.824 Y142.464 E34.58918
G1 X87.698 Y143.432 E34.80347
G1 X87.64 Y143.683 E34.86002
G1 X87.297 Y144.517 E35.05797
G1 X87.168 Y144.745 E35.11548
G1 X86.636 Y145.437 E35.30709
G1 X86.454 Y145.622 E35.36405
G1 X85.714 Y146.189 E35.5687
G1 F2400 E25.5687
G0 F6000 X84.637 Y147.155
G0 X84.637 Y156.022
G0 X38.886 Y156.697
G0 X38.886 Y175.574
G0 X91.349 Y175.583
G0 X107.017 Y176.222
G0 X107.008 Y204.308
G0 X102.793 Y204.103
G0 X101.775 Y206.426
G0 X101.67 Y207.214
G0 X101.775 Y208.003
G0 X102.079 Y208.738
G0 X102.354 Y209.097
G0 X103.157 Y209.985
G1 F2400 E35.5687
G1 F1200 X102.934 Y209.857 E35.62514
G1 X102.642 Y209.636 E35.70553
G1 X102.303 Y209.299 E35.81046
G1 X102.082 Y209.011 E35.89015
G1 X101.843 Y208.593 E35.99585
G1 X101.706 Y208.254 E36.07611
G1 X101.589 Y207.818 E36.17521
G1 X101.54 Y207.457 E36.25518
G1 X101.519 Y207.122 E36.32886
G1 X101.589 Y206.611 E36.44208
G1 X101.653 Y206.301 E36.51157
G1 X101.945 Y205.603 E36.67766
G1 X102.358 Y205.064 E36.82672
G1 X102.574 Y204.848 E36.89377
G1 X103.141 Y204.42 E37.04972
G1 X103.807 Y204.145 E37.20789
G1 X104.116 Y204.082 E37.27712
G1 X104.634 Y204.013 E37.39183
G1 X104.964 Y204.033 E37.4644
G1 X105.324 Y204.082 E37.54416
G1 X105.761 Y204.199 E37.64347
G1 X106.1 Y204.337 E37.72381
G1 X106.516 Y204.574 E37.82891
G1 X106.802 Y204.793 E37.90798
G1 X107.137 Y205.128 E38.01198
G1 X107.363 Y205.422 E38.09339
G1 X107.493 Y205.652 E38.15138
G1 X107.493 Y175.746 E44.71625
G1 X40.437 Y175.745 E59.43618
G1 X40.137 Y175.707 E59.50256
G1 X39.749 Y175.59 E59.59152
G1 X39.419 Y175.376 E59.67786
G1 X39.199 Y175.177 E59.74298
G1 X38.955 Y174.864 E59.8301
G1 X38.781 Y174.468 E59.92505
G1 X38.714 Y174.078 E60.01191
G1 X38.716 Y158.097 E63.52001
G1 X38.847 Y157.643 E63.62374
G1 X39.055 Y157.244 E63.72251
G1 X39.358 Y156.944 E63.81611
G1 X39.643 Y156.749 E63.89192
G1 X39.989 Y156.588 E63.97569
G1 X40.453 Y156.525 E64.07848
G1 X107.493 Y156.525 E78.7949
G1 X107.493 Y116.321 E87.62035
G1 X107.354 Y116.564 E87.68181
G1 X107.132 Y116.85 E87.76128
G1 X106.805 Y117.173 E87.86218
G1 X106.517 Y117.394 E87.94187
G1 X106.115 Y117.627 E88.04386
G1 X105.775 Y117.769 E88.12475
G1 X105.32 Y117.893 E88.22827
G1 X104.96 Y117.941 E88.308
G1 X104.631 Y117.96 E88.38034
G1 X104.122 Y117.893 E88.49304
G1 X103.805 Y117.828 E88.56407
G1 X103.222 Y117.583 E88.70289
G1 X103 Y117.452 E88.75947
G1 X102.434 Y117.014 E88.91658
G1 X102.04 Y116.497 E89.05927
G1 X101.908 Y116.278 E89.1154
G1 X101.653 Y115.676 E89.25892
G1 X101.589 Y115.362 E89.32926
G1 X101.519 Y114.849 E89.44292
G1 X101.54 Y114.515 E89.51638
G1 X101.589 Y114.154 E89.59635
G1 X101.705 Y113.72 E89.69497
G1 X101.842 Y113.383 E89.77482
G1 X102.081 Y112.965 E89.88052
G1 X102.303 Y112.674 E89.96087
G1 X102.641 Y112.337 E90.06564
G1 X102.936 Y112.113 E90.14695
G1 X103.158 Y111.986 E90.2031
G1 X13.829 Y111.986 E109.81232
G1 X14.06 Y112.118 E109.87072
G1 X14.346 Y112.337 E109.9498
G1 X14.681 Y112.672 E110.0538
G1 X14.906 Y112.966 E110.13507
G1 X15.144 Y113.383 E110.24046
G1 X15.281 Y113.72 E110.32032
G1 X15.397 Y114.154 E110.41894
G1 X15.446 Y114.515 E110.49891
G1 X15.467 Y114.849 E110.57237
G1 X15.397 Y115.362 E110.68603
G1 X15.333 Y115.673 E110.75573
G1 X15.039 Y116.375 E110.9228
G1 X14.624 Y116.913 E111.07195
G1 X14.436 Y117.108 E111.13141
G1 X13.853 Y117.548 E111.29175
G1 X13.176 Y117.828 E111.45257
G1 X12.863 Y117.893 E111.52274
G1 X12.357 Y117.96 E111.63479
G1 X12.028 Y117.941 E111.70713
G1 X11.666 Y117.893 E111.78729
G1 X11.206 Y117.769 E111.89187
G1 X10.87 Y117.628 E111.97186
G1 X10.477 Y117.401 E112.07149
G1 X10.187 Y117.18 E112.15153
G1 X9.847 Y116.843 E112.25661
G1 X9.626 Y116.554 E112.33648
G1 X9.494 Y116.322 E112.39507
G1 X9.494 Y205.65 E132.00408
G1 X9.624 Y205.421 E132.06188
G1 X9.847 Y205.13 E132.14236
G1 X10.186 Y204.793 E132.24729
G1 X10.48 Y204.569 E132.32843
G1 X10.883 Y204.338 E132.43039
G1 X11.212 Y204.202 E132.50854
G1 X11.66 Y204.081 E132.61041
G1 X12.025 Y204.032 E132.69125
G1 X12.358 Y204.013 E132.76447
G1 X12.869 Y204.082 E132.87766
G1 X13.182 Y204.146 E132.94779
G1 X13.773 Y204.395 E133.08857
G1 X14.06 Y204.574 E133.16282
G1 X14.414 Y204.848 E133.26109
G1 X14.626 Y205.061 E133.32706
G1 X15.04 Y205.603 E133.47677
G1 X15.333 Y206.301 E133.64295
G1 X15.397 Y206.611 E133.71243
G1 X15.467 Y207.122 E133.82566
G1 X15.446 Y207.457 E133.89934
G1 X15.397 Y207.818 E133.97931
G1 X15.282 Y208.253 E134.07808
G1 X15.144 Y208.592 E134.15843
G1 X14.898 Y209.019 E134.2666
G1 X14.676 Y209.306 E134.34625
G1 X14.349 Y209.63 E134.4473
G1 X14.061 Y209.85 E134.52686
G1 X13.825 Y209.986 E134.58665
G1 X103.157 Y209.985 E154.19653
G1 F2400 E144.19653
G0 F6000 X102.565 Y209.372
G0 X102.079 Y208.738
G0 X101.775 Y208.003
G0 X101.452 Y205.563
G0 X105.035 Y203.574
G0 X107.008 Y204.308
G0 X107.017 Y176.222
G0 X88.036 Y175.582
G0 X38.886 Y175.574
G0 X38.886 Y156.697
G0 X79.441 Y156.022
G0 X81.943 Y147.031
G0 X80.507 Y145.432
G0 X79.839 Y144.561
G0 X79.421 Y143.55
G0 X79.292 Y142.575
G0 X79.441 Y141.306
G0 X81.132 Y139.964
;TYPE:WALL-OUTER
G1 F2400 E154.19653
G1 F835.3 X81.802 Y139.533 E154.44778
G1 F862.8 X81.881 Y139.494 E154.47468
G1 F2400 E144.47468
G0 F6000 X81.911 Y139.551
G0 X82.843 Y138.758
G0 X83.646 Y137.883
G0 X84.172 Y137.079
G0 X86.481 Y131.981
G0 X106.989 Y131.981
G0 X105.661 Y117.708
G0 X105.24 Y116.692
G1 F2400 E154.47468
G1 F1200 X104.741 Y116.759 E154.5852
G1 X104.218 Y116.695 E154.70086
G1 X103.74 Y116.497 E154.81444
G1 X103.305 Y116.174 E154.93337
G1 X102.989 Y115.765 E155.04683
G1 X102.794 Y115.28 E155.16158
G1 X102.718 Y114.761 E155.27672
G1 X102.788 Y114.244 E155.39125
G1 X102.986 Y113.757 E155.50665
G1 X103.304 Y113.342 E155.62142
G1 X103.728 Y113.019 E155.73843
G1 F1185.2 X104.274 Y112.8 E155.86918
G1 F1114.6 X104.81 Y112.63 E156.00208
G1 F1038.2 X105.178 Y112.705 E156.09737
G1 F1024.9 X105.595 Y112.867 E156.21235
G1 F1058 X105.865 Y113.032 E156.29113
G1 F1083.5 X106.176 Y113.296 E156.39031
G1 F1077.8 X106.373 Y113.528 E156.46469
G1 F1067.5 X106.546 Y113.774 E156.53891
G1 F1064.3 X106.755 Y114.21 E156.65858
G1 F1070.6 X106.843 Y114.641 E156.76681
G1 F1136.5 X106.625 Y115.345 E156.93762
G1 F1200 X106.454 Y115.766 E157.03737
G1 X106.139 Y116.172 E157.15017
G1 X105.724 Y116.49 E157.26494
G1 X105.24 Y116.692 E157.38007
G1 F2400 E147.38007
G0 F6000 X105.661 Y117.708
G0 X104.721 Y117.808
G0 X102.361 Y117.55
G0 X101.126 Y114.105
G0 X101.767 Y112.586
G0 X15.296 Y112.456
G0 X15.458 Y115.709
G0 X14.867 Y116.434
G0 X13.997 Y115.766
G1 F2400 E157.38007
G1 F1200 X13.677 Y116.177 E157.49441
G1 X13.281 Y116.482 E157.60414
G1 X12.766 Y116.696 E157.72656
G1 X12.246 Y116.759 E157.84154
G1 X11.742 Y116.692 E157.95315
G1 X11.264 Y116.492 E158.0669
G1 X10.845 Y116.172 E158.18263
G1 X10.529 Y115.76 E158.29661
G1 F1184.2 X10.306 Y115.203 E158.43007
G1 F1113.7 X10.137 Y114.67 E158.56233
G1 F1037.5 X10.212 Y114.302 E158.65769
G1 F1025.6 X10.32 Y114.021 E158.735
G1 F1054.9 X10.463 Y113.726 E158.81686
G1 F1073.8 X10.803 Y113.294 E158.95172
G1 F1073 X11.184 Y112.995 E159.07062
G1 F1054.2 X11.53 Y112.812 E159.16843
G1 F1025.6 X11.805 Y112.705 E159.24421
G1 F1045 X12.148 Y112.636 E159.33241
G1 F1136.5 X12.853 Y112.854 E159.50344
G1 F1200 X13.267 Y113.022 E159.60152
G1 X13.679 Y113.339 E159.71563
G1 X14.001 Y113.758 E159.83163
G1 X14.198 Y114.244 E159.94675
G1 X14.268 Y114.761 E160.06128
G1 X14.192 Y115.28 E160.17642
G1 X13.997 Y115.766 E160.29137
G1 F2400 E150.29137
G0 F6000 X14.867 Y116.434
G0 X12.918 Y118.355
G0 X10.094 Y117.712
G0 X9.964 Y204.185
G0 X14.236 Y204.13
G0 X14.865 Y204.744
G0 X15.358 Y207.066
G0 X14.268 Y207.21
G1 F2400 E160.29137
G1 F1200 X14.198 Y207.733 E160.40721
G1 X14.001 Y208.217 E160.52192
G1 X13.681 Y208.63 E160.6366
G1 X13.267 Y208.947 E160.75107
G1 X12.857 Y209.118 E160.84858
G1 F1136.5 X12.15 Y209.337 E161.02013
G1 F1045 X11.809 Y209.269 E161.10778
G1 F1025.6 X11.538 Y209.164 E161.18242
G1 F1046.5 X11.227 Y209.011 E161.26967
G1 F1065.1 X10.803 Y208.679 E161.40285
G1 F1065.9 X10.412 Y208.183 E161.55894
G1 F1034.5 X10.212 Y207.671 E161.69891
G1 F1045 X10.143 Y207.33 E161.78661
G1 F1136.5 X10.361 Y206.628 E161.95698
G1 F1200 X10.529 Y206.214 E162.05506
G1 X10.848 Y205.798 E162.17014
G1 X11.269 Y205.477 E162.28635
G1 X11.741 Y205.282 E162.39846
G1 X12.269 Y205.211 E162.51541
G1 X12.787 Y205.287 E162.63033
G1 X13.27 Y205.481 E162.74459
G1 X13.679 Y205.795 E162.85778
G1 X14 Y206.214 E162.97365
G1 X14.192 Y206.693 E163.08693
G1 X14.268 Y207.21 E163.20164
G1 F2400 E153.20164
G0 F6000 X15.358 Y207.066
G0 X15.22 Y209.386
G0 X103.932 Y210.136
G0 X104.838 Y209.337
G1 F2400 E163.20164
G1 F1136.5 X104.126 Y209.118 E163.37429
G1 F1200 X103.724 Y208.949 E163.47002
G1 X103.304 Y208.631 E163.58566
G1 X102.986 Y208.218 E163.70009
G1 X102.788 Y207.731 E163.81549
