;FLAVOR:Marlin
;TIME:15543
;Filament used: 42.3676m
;Layer height: 0.4
;MINX:14.9
;MINY:61.943
;MINZ:0.4
;MAXX:219.458
;MAXY:180.031
;MAXZ:10.4
;Generated with Cura_SteamEngine 5.3.1
M82 ;absolute extrusion mode
; START G-CODE BEGIN

M104 S220.0 ﻿T0
M140 S60.0

G28 ; Home all axes
G92 E0 ; Reset Extruder
M420 S1 ; Load Mesh

M109 S220.0 ﻿T0
M190 S60.0

G92 E0 ; Reset Extruder

G1 X0.6 Y20 Z0.3 F5000.0 ; Move to start position
G1 X0.6 Y200.0 Z0.3 F1500.0 E15 ; Draw the first line
G1 X0.9 Y200.0 Z0.3 F5000.0 ; Move to side a little
G1 X0.9 Y20 Z0.3 F1500.0 E30 ; Draw the second line
G92 E0 ; Reset Extruder
G1 Z2.0 F3000 ; Move Z Axis up little to prevent scratching of Heat Bed
G1 X5 Y20 Z0.3 F5000.0 ; Move over to prevent blob squish

; START G-CODE END
G92 E0
G92 E0
G1 F1500 E-6
;LAYER_COUNT:27
;LAYER:0
M107
G0 F6000 X16.79 Y69.904 Z0.4
;TYPE:SUPPORT-INTERFACE
G1 F1500 E0
G1 F1200 X55.196 Y69.707 E5.3651
G1 X67.188 Y69.686 E7.0403
G1 X167.187 Y69.304 E21.00952
G1 X179.181 Y69.231 E22.68502
G1 X217.589 Y69.134 E28.05035
G1 X217.594 Y70.519 E28.24383
G1 X217.614 Y75.76 E28.97596
G1 X217.612 Y75.76 E28.97624
G1 X217.607 Y74.461 E29.1577
G1 X168.118 Y74.539 E36.07096
G1 X66.299 Y74.928 E50.29442
G1 X16.81 Y75.23 E57.20779
G1 X16.79 Y69.904 E57.9518
G0 F6000 X17.194 Y71.052
G1 F1200 X17.949 Y70.297 E58.10095
G0 F6000 X17.196 Y71.501
G1 F1200 X20.501 Y74.806 E58.75387
G1 X20.226 Y74.809
G1 X24.772 Y70.262 E59.65206
G1 F1500 E53.65206
G0 F6000 X22.755 Y70.272
G1 F1500 E59.65206
G1 F1200 X27.248 Y74.765 E60.53967
G1 X27.056 Y74.767
G1 X31.596 Y70.227 E61.43657
G1 F1500 E55.43657
G0 F6000 X29.508 Y70.238
G1 F1500 E61.43657
G1 F1200 X33.995 Y74.724 E62.3229
G1 X33.885 Y74.725
G1 X38.419 Y70.192 E63.21852
G1 F1500 E57.21852
G0 F6000 X36.263 Y70.204
G1 F1500 E63.21852
G1 F1200 X40.742 Y74.683 E64.10337
G1 X40.715 Y74.683
G1 X45.242 Y70.157 E64.9976
G1 F1500 E58.9976
G0 F6000 X43.016 Y70.169
G1 F1500 E64.9976
G1 F1200 X47.489 Y74.642 E65.88127
G1 X47.545 Y74.642
G1 X52.065 Y70.122 E66.77422
G1 F1500 E60.77422
G0 F6000 X49.77 Y70.135
G1 F1500 E66.77422
G1 F1200 X54.236 Y74.601 E67.6565
G1 X54.375 Y74.6
G1 X58.876 Y70.099 E68.54569
G1 F1500 E62.54569
G0 F6000 X56.528 Y70.104
G1 F1500 E68.54569
G1 F1200 X60.983 Y74.559 E69.4258
G1 X61.205 Y74.558
G1 X65.676 Y70.087 E70.30907
G1 F1500 E64.30907
G0 F6000 X63.304 Y70.092
G1 F1500 E70.30907
G1 F1200 X67.733 Y74.521 E71.18404
G1 X68.031 Y74.521
G1 X72.487 Y70.065 E72.06435
G1 F1500 E66.06435
G0 F6000 X70.074 Y70.074
G1 F1500 E72.06435
G1 F1200 X74.495 Y74.495 E72.93774
G1 X74.845 Y74.495
G1 X79.302 Y70.038 E73.81824
G1 F1500 E67.81824
G0 F6000 X76.837 Y70.048
G1 F1500 E73.81824
G1 F1200 X81.258 Y74.47 E74.69173
G0 F6000 X81.659 Y74.469
G1 F1200 X86.116 Y70.012 E75.57223
G1 F1500 E69.57223
G0 F6000 X83.599 Y70.023
G1 F1500 E75.57223
G1 F1200 X88.02 Y74.444 E76.44563
G0 F6000 X88.473 Y74.443
G1 F1200 X92.93 Y69.986 E77.32613
G1 F1500 E71.32613
G0 F6000 X90.361 Y69.997
G1 F1500 E77.32613
G1 F1200 X94.783 Y74.418 E78.19962
G0 F6000 X95.288 Y74.417
G1 F1200 X99.744 Y69.961 E79.07992
G1 F1500 E73.07992
G0 F6000 X97.124 Y69.971
G1 F1500 E79.07992
G1 F1200 X101.545 Y74.392 E79.95332
G0 F6000 X102.102 Y74.391
G1 F1200 X106.558 Y69.934 E80.83372
G1 F1500 E74.83372
G0 F6000 X103.886 Y69.945
G1 F1500 E80.83372
G1 F1200 X108.308 Y74.367 E81.70731
G0 F6000 X108.917 Y74.365
G1 F1200 X113.373 Y69.908 E82.58771
G1 F1500 E76.58771
G0 F6000 X110.649 Y69.92
G1 F1500 E82.58771
G1 F1200 X115.07 Y74.34 E83.46101
G0 F6000 X115.731 Y74.338
G1 F1200 X120.187 Y69.882 E84.34131
G1 F1500 E78.34131
G0 F6000 X117.411 Y69.893
G1 F1500 E84.34131
G1 F1200 X121.833 Y74.315 E85.2149
G0 F6000 X122.545 Y74.313
G1 F1200 X127.001 Y69.857 E86.09521
G1 F1500 E80.09521
G0 F6000 X124.174 Y69.868
G1 F1500 E86.09521
G1 F1200 X128.595 Y74.289 E86.9686
G0 F6000 X129.359 Y74.287
G1 F1200 X133.815 Y69.831 E87.8489
G1 F1500 E81.8489
G0 F6000 X130.936 Y69.842
G1 F1500 E87.8489
G1 F1200 X135.357 Y74.263 E88.72229
G0 F6000 X136.173 Y74.261
G1 F1200 X140.63 Y69.804 E89.6028
G1 F1500 E83.6028
G0 F6000 X137.699 Y69.816
G1 F1500 E89.6028
G1 F1200 X142.119 Y74.237 E90.47609
G0 F6000 X142.988 Y74.234
G1 F1200 X147.444 Y69.778 E91.3564
G1 F1500 E85.3564
G0 F6000 X144.461 Y69.79
G1 F1500 E91.3564
G1 F1200 X148.882 Y74.211 E92.22979
G0 F6000 X149.802 Y74.208
G1 F1200 X154.258 Y69.752 E93.11009
G1 F1500 E87.11009
G0 F6000 X151.223 Y69.765
G1 F1500 E93.11009
G1 F1200 X155.644 Y74.186 E93.98348
G0 F6000 X156.616 Y74.183
G1 F1200 X161.072 Y69.727 E94.86379
G1 F1500 E88.86379
G0 F6000 X157.986 Y69.739
G1 F1500 E94.86379
G1 F1200 X162.406 Y74.159 E95.73698
G0 F6000 X163.43 Y74.157
G1 F1200 X167.888 Y69.699 E96.61768
G1 F1500 E90.61768
G0 F6000 X164.748 Y69.713
G1 F1500 E96.61768
G1 F1200 X169.171 Y74.136 E97.49147
G0 F6000 X170.24 Y74.135
G1 F1200 X174.718 Y69.657 E98.37612
G1 F1500 E92.37612
G0 F6000 X171.501 Y69.678
G1 F1500 E98.37612
G1 F1200 X175.949 Y74.126 E99.25485
G0 F6000 X177.039 Y74.125
G1 F1200 X181.539 Y69.625 E100.14384
G1 F1500 E94.14384
G0 F6000 X178.248 Y69.637
G1 F1500 E100.14384
G1 F1200 X182.726 Y74.115 E101.0285
G0 F6000 X183.838 Y74.113
G1 F1200 X188.344 Y69.608 E101.91858
G1 F1500 E95.91858
G0 F6000 X185.017 Y69.617
G1 F1500 E101.91858
G1 F1200 X189.504 Y74.104 E102.80501
G0 F6000 X190.637 Y74.103
G1 F1200 X195.15 Y69.59 E103.69658
G1 F1500 E97.69658
G0 F6000 X191.787 Y69.599
G1 F1500 E103.69658
G1 F1200 X196.281 Y74.093 E104.58439
G0 F6000 X197.436 Y74.092
G1 F1200 X201.955 Y69.573 E105.47714
G1 F1500 E99.47714
G0 F6000 X205.33 Y69.565
G1 F1500 E105.47714
G1 F1200 X209.836 Y74.072 E106.36742
G0 F6000 X211.034 Y74.07
G1 F1200 X215.566 Y69.539 E107.26264
G1 F1500 E101.26264
G0 F6000 X212.101 Y69.548
G1 F1500 E107.26264
G1 F1200 X216.614 Y74.061 E108.15421
G1 F1500 E102.15421
G0 F6000 X216.558 Y75.516
G0 X216.563 Y76.816
G0 X218.67 Y76.81
G0 X218.638 Y68.078
G0 X208.756 Y68.091
G0 X208.76 Y69.556
G1 F1500 E108.15421
G1 F1200 X204.235 Y74.082 E109.04825
G0 F6000 X203.059 Y74.082
G1 F1200 X198.559 Y69.582 E109.93724
G1 F1500 E103.93724
;MESH:concorde lid.stl
G0 F6000 X185.348 Y138.571
;TYPE:WALL-OUTER
G1 F1500 E109.93724
G1 F889.7 X185.661 Y138.627 E109.99715
G1 F900.6 X186.013 Y138.651 E110.06283
G1 F931.1 X186.397 Y138.603 E110.1325
G1 F942.1 X186.7 Y138.492 E110.18991
G1 F914.3 X186.951 Y138.323 E110.24539
G1 F879.1 X187.154 Y138.12 E110.30013
G1 F868 X187.347 Y137.824 E110.36838
G1 F879.9 X187.696 Y136.95 E110.54766
G1 F880.7 X188.046 Y136.345 E110.68069
G1 F877.5 X188.533 Y135.85 E110.81335
G1 F875.9 X189.119 Y135.411 E110.95347
G1 X189.768 Y135.127 E111.08905
G1 F878.3 X190.451 Y134.944 E111.224
G1 F881.5 X191.144 Y134.939 E111.35578
G1 F886.4 X191.831 Y135.036 E111.48699
G1 F1500 E105.48699
G0 F6000 X187.269 Y152.589
G1 F1500 E111.48699
G1 F889.7 X188.689 Y152.791 E111.75723
G1 F885.6 X189.387 Y152.824 E111.88949
G1 F882.4 X190.059 Y152.781 E112.01742
G1 X190.743 Y152.638 E112.15018
G1 F885.6 X191.4 Y152.421 E112.28115
G1 X192.738 Y151.835 E112.55763
G1 F883.2 X193.907 Y150.96 E112.83479
G1 F880.7 X194.437 Y150.477 E112.97127
G1 F879.1 X194.876 Y149.978 E113.098
G1 X195.256 Y149.4 E113.2299
G1 F882.4 X195.575 Y148.767 E113.36456
G1 F884 X196.113 Y147.388 E113.64526
G1 X197.945 Y140.442 E115.0075
G1 F1500 E109.0075
G0 F6000 X167.621 Y147.404
G1 F1500 E115.0075
G1 F889.7 X169.041 Y147.608 E115.27779
G1 F887.2 X169.754 Y147.641 E115.41264
G1 F885.6 X170.411 Y147.6 E115.53724
G1 F886.4 X171.085 Y147.46 E115.66742
G1 F890.5 X171.771 Y147.234 E115.80338
G1 F894.7 X173.094 Y146.657 E116.07381
G1 F893.9 X174.262 Y145.781 E116.34761
G1 F889.7 X174.792 Y145.297 E116.48284
G1 F887.2 X175.232 Y144.797 E116.60868
G1 F886.4 X175.611 Y144.217 E116.7397
G1 F887.2 X175.931 Y143.58 E116.87439
G1 X176.466 Y142.205 E117.15314
G1 F884 X178.291 Y135.29 E118.50935
G1 F882.4 X178.292 Y135.282 E118.51089
G1 X178.291 Y135.29 E118.51242
G1 F1500 E112.51242
G0 F6000 X177.121 Y134.982
G0 X173.671 Y134.068
G0 X172.236 Y133.69
G0 X169.366 Y140.465
G0 X169.131 Y140.782
;TYPE:WALL-INNER
G1 F1500 E118.51242
G1 F947.7 X169.319 Y140.867 E118.54891
G1 X169.514 Y140.884 E118.58354
G1 X169.701 Y140.817 E118.61867
G1 X169.839 Y140.694 E118.65137
G1 X169.951 Y140.436 E118.70112
G1 X171.766 Y133.557 E119.95956
G1 X171.793 Y133.289 E120.00721
G1 X171.731 Y133.116 E120.03971
G1 X171.599 Y132.964 E120.07532
G1 X171.419 Y132.883 E120.11024
G1 X171.214 Y132.865 E120.14664
G1 X171.04 Y132.928 E120.17937
G1 X170.891 Y133.057 E120.21423
G1 X170.783 Y133.309 E120.26273
G1 X168.967 Y140.191 E121.52173
G1 X168.94 Y140.461 E121.56972
G1 X169.003 Y140.635 E121.60246
G1 X169.131 Y140.782 E121.63693
G0 F6000 X168.581 Y141.512
;TYPE:WALL-OUTER
G1 F1200 X168.809 Y141.642 E121.6736
G1 X169.088 Y141.749 E121.71534
G1 X169.361 Y141.789 E121.75388
G1 X169.632 Y141.79 E121.79174
G1 X169.893 Y141.72 E121.82949
G1 X170.159 Y141.606 E121.86992
G1 X170.378 Y141.441 E121.90822
G1 X170.569 Y141.243 E121.94665
G1 X170.7 Y141.014 E121.9835
G1 X170.815 Y140.714 E122.02839
G1 X172.655 Y133.741 E123.0358
G1 X172.7 Y133.445 E123.07763
G1 X172.699 Y133.172 E123.11576
G1 X172.63 Y132.91 E123.15361
G1 X172.518 Y132.654 E123.19265
G1 X172.349 Y132.431 E123.23173
G1 X172.151 Y132.235 E123.27065
G1 X171.924 Y132.106 E123.30712
G1 X171.65 Y132.001 E123.34811
G1 X171.372 Y131.96 E123.38737
G1 X171.098 Y131.959 E123.42564
G1 X170.836 Y132.028 E123.46349
G1 X170.58 Y132.14 E123.50253
G1 X170.356 Y132.308 E123.54164
G1 X170.161 Y132.508 E123.58066
G1 X170.035 Y132.73 E123.61632
G1 X169.92 Y133.03 E123.6612
G1 X168.079 Y140.007 E124.66919
G1 X168.034 Y140.303 E124.71102
G1 X168.034 Y140.577 E124.74929
G1 X168.103 Y140.839 E124.78714
G1 X168.215 Y141.095 E124.82618
G1 X168.383 Y141.319 E124.86529
G1 X168.581 Y141.512 E124.90391
G1 F1500 E118.90391
G0 F6000 X169.366 Y140.465
G0 X171.543 Y132.409
G0 X172.181 Y129.851
G1 F1500 E124.90391
G1 F886.4 X171.496 Y129.755 E125.03472
G1 F880.7 X170.804 Y129.76 E125.16643
G1 F877.5 X170.12 Y129.943 E125.30169
G1 F875.9 X169.471 Y130.227 E125.43727
G1 X168.884 Y130.666 E125.57755
G1 F877.5 X168.399 Y131.16 E125.7098
G1 F880.7 X168.064 Y131.737 E125.83679
G1 F884 X167.777 Y132.467 E125.98553
G1 X165.949 Y139.393 E127.3439
G1 F1500 E121.3439
G0 F6000 X147.957 Y142.218
G1 F1500 E127.3439
G1 F890.5 X149.393 Y142.424 E127.61698
G1 F887.2 X150.107 Y142.457 E127.75202
G1 F885.6 X150.765 Y142.416 E127.87681
G1 F886.4 X151.441 Y142.275 E128.0074
G1 F889.7 X152.108 Y142.056 E128.13967
G1 F893.9 X153.446 Y141.473 E128.41338
G1 X154.622 Y140.592 E128.68895
G1 F889.7 X155.141 Y140.118 E128.82138
G1 F886.4 X155.587 Y139.609 E128.94936
G1 X155.961 Y139.039 E129.07828
G1 F888.9 X156.284 Y138.396 E129.21398
G1 F886.4 X156.818 Y137.019 E129.49328
G1 F883.2 X160.032 Y124.841 E131.8839
G1 F1500 E125.8839
G0 F6000 X146.304 Y134.203
G1 F1500 E131.8839
G1 F884 X149.51 Y122.052 E134.26698
G1 F1500 E128.26698
G0 F6000 X128.309 Y137.035
G1 F1500 E134.26698
G1 F888.9 X129.746 Y137.239 E134.54069
G1 F885.6 X130.459 Y137.272 E134.6758
G1 F883.2 X131.116 Y137.23 E134.80075
G1 X131.805 Y137.085 E134.93439
G1 F886.4 X132.476 Y136.862 E135.06811
G1 X133.796 Y136.283 E135.34069
G1 F884 X134.964 Y135.409 E135.61733
G1 F881.5 X135.494 Y134.925 E135.75381
G1 F879.1 X135.933 Y134.426 E135.88054
G1 F879.9 X136.312 Y133.85 E136.0119
G1 F882.4 X136.623 Y133.237 E136.14249
G1 F883.2 X137.17 Y131.836 E136.42796
G1 F884.8 X139.002 Y124.897 E137.78765
G1 F1500 E131.78765
G0 F6000 X137.833 Y124.589
G0 X133.505 Y121.014
G0 X134.101 Y119.801
G0 X134.136 Y119.348
G0 X134.033 Y118.896
G0 X133.786 Y118.6
G0 X133.274 Y118.324
G0 X132.285 Y118.179
G0 X131.345 Y118.182
G0 X130.435 Y118.424
G0 X129.555 Y118.806
G0 X125.723 Y121.914
G0 X125.378 Y122.29
G0 X125.186 Y122.702
G0 X125.151 Y123.156
G0 X125.265 Y123.652
G0 X125.64 Y123.998
G0 X126.026 Y124.179
G0 X126.6 Y124.275
G0 X127.152 Y124.296
G0 X127.697 Y124.198
G0 X128.238 Y124.027
G0 X128.714 Y123.745
G0 X129.142 Y123.382
G0 X129.444 Y122.908
G0 X130.392 Y121.208
G0 X130.013 Y121.49
G0 X129.771 Y121.912
G0 X129.53 Y122.531
G0 X129.444 Y122.908
G0 X129.142 Y123.382
G0 X128.714 Y123.745
G0 X128.238 Y124.027
G0 X127.697 Y124.198
G0 X127.152 Y124.296
G0 X126.6 Y124.275
G0 X126.026 Y124.179
G0 X125.64 Y123.998
G0 X125.265 Y123.652
G0 X125.151 Y123.156
G0 X125.186 Y122.702
G0 X125.378 Y122.29
G0 X125.723 Y121.914
G0 X126.26 Y121.792
G0 X127.011 Y121.908
G0 X126.391 Y123.018
G1 F1500 E137.78765
G1 F905.7 X126.938 Y123.115 E137.89048
G1 F940.3 X127.455 Y123.052 E137.98333
G1 F942.1 X127.749 Y122.944 E138.03906
G1 F914.3 X128.011 Y122.768 E138.09693
G1 F880.7 X128.215 Y122.564 E138.15184
G1 F870.4 X128.401 Y122.276 E138.21787
G1 F880.7 X128.755 Y121.394 E138.39876
G1 F879.9 X129.103 Y120.793 E138.53106
G1 F876.7 X129.589 Y120.298 E138.6637
G1 F875.1 X130.176 Y119.859 E138.80411
G1 X130.826 Y119.575 E138.93999
G1 F878.3 X131.507 Y119.393 E139.07452
G1 F881.5 X132.201 Y119.387 E139.2065
G1 F886.4 X132.889 Y119.484 E139.33789
G1 F1500 E133.33789
G0 F6000 X113.302 Y118.105
G0 X110.524 Y124.939
G0 X110.576 Y125.332
;TYPE:WALL-INNER
G1 F1500 E139.33789
G1 F948.6 X110.75 Y125.269 E139.37059
G1 X110.896 Y125.142 E139.40478
G1 X111.008 Y124.885 E139.45432
G1 F947.7 X112.822 Y118.006 E140.71272
G1 F946.7 X112.85 Y117.741 E140.7599
G1 X112.783 Y117.556 E140.79474
G1 X112.661 Y117.417 E140.82748
G1 X112.472 Y117.331 E140.86425
G1 X112.278 Y117.315 E140.89872
G1 X112.09 Y117.381 E140.934
G1 X111.949 Y117.506 E140.96736
G1 X111.841 Y117.757 E141.01574
G1 F947.7 X110.025 Y124.639 E142.27474
G1 F948.6 X109.997 Y124.909 E142.3227
G1 X110.06 Y125.083 E142.35541
G1 X110.187 Y125.23 E142.38973
G1 X110.375 Y125.314 E142.42612
G1 X110.576 Y125.332 E142.46178
G0 F6000 X110.692 Y126.238
;TYPE:WALL-OUTER
G1 F1200 X110.954 Y126.169 E142.49963
G1 X111.21 Y126.057 E142.53866
G1 X111.437 Y125.886 E142.57836
G1 X111.626 Y125.692 E142.6162
G1 X111.755 Y125.467 E142.65243
G1 X111.871 Y125.163 E142.69788
G1 X113.712 Y118.19 E143.70534
G1 X113.757 Y117.894 E143.74716
G1 X113.757 Y117.623 E143.78502
G1 X113.688 Y117.366 E143.82219
G1 X113.573 Y117.098 E143.86293
G1 X113.405 Y116.874 E143.90204
G1 X113.21 Y116.686 E143.93988
G1 X112.979 Y116.554 E143.97705
G1 X112.704 Y116.448 E144.01822
G1 X112.429 Y116.408 E144.05704
G1 X112.159 Y116.408 E144.09475
G1 X111.898 Y116.477 E144.13247
G1 X111.632 Y116.59 E144.17284
G1 X111.414 Y116.755 E144.21103
G1 X111.218 Y116.956 E144.25025
G1 X111.092 Y117.178 E144.28591
G1 X110.977 Y117.478 E144.33079
G1 X109.136 Y124.456 E145.33892
G1 X109.091 Y124.751 E145.3806
G1 X109.091 Y125.025 E145.41888
G1 X109.16 Y125.287 E145.45673
G1 X109.272 Y125.543 E145.49576
G1 X109.443 Y125.77 E145.53546
G1 X109.637 Y125.959 E145.5733
G1 X109.866 Y126.09 E145.61015
G1 X110.142 Y126.196 E145.65145
G1 X110.418 Y126.238 E145.69045
G1 X110.692 Y126.238 E145.72873
G1 F1500 E139.72873
G0 F6000 X110.524 Y124.939
G0 X112.6 Y116.857
G0 X113.241 Y114.3
G1 F1500 E145.72873
G1 F886.4 X112.554 Y114.203 E145.85993
G1 F881.5 X111.859 Y114.209 E145.9921
G1 F877.5 X111.178 Y114.39 E146.1267
G1 F874.3 X110.528 Y114.676 E146.26286
G1 F875.9 X109.942 Y115.114 E146.40287
G1 F877.5 X109.455 Y115.608 E146.53538
G1 F879.9 X109.105 Y116.214 E146.6687
G1 F884.8 X108.836 Y116.911 E146.81025
G1 F884 X107.006 Y123.843 E148.16982
G1 F1500 E142.16982
G0 F6000 X119.35 Y119.727
G1 F1500 E148.16982
G1 F884 X117.523 Y126.653 E149.52814
G1 F885.6 X116.976 Y128.055 E149.813
G1 F884.8 X116.666 Y128.671 E149.94365
G1 F885.6 X116.293 Y129.241 E150.07259
G1 F887.2 X115.846 Y129.749 E150.20043
G1 F889.7 X115.325 Y130.224 E150.33327
G1 F893 X114.151 Y131.104 E150.60868
G1 F893.9 X112.828 Y131.682 E150.87944
G1 F891.4 X112.147 Y131.907 E151.01432
G1 F887.2 X111.468 Y132.048 E151.14534
G1 F885.6 X110.811 Y132.089 E151.26994
G1 F887.2 X110.098 Y132.056 E151.40479
G1 F890.5 X108.678 Y131.852 E151.67483
G1 F1500 E145.67483
G0 F6000 X101.091 Y109.285
G1 F1500 E151.67483
G1 F883.2 X96.487 Y126.731 E155.09958
G1 F884.8 X96.344 Y127.098 E155.1742
G1 F886.4 X96.102 Y127.514 E155.26521
G1 F881.5 X95.635 Y127.862 E155.37596
