;FLAVOR:Marlin
;TIME:13759
;Filament used: 52.0801m
;Layer height: 0.6
;MINX:25.828
;MINY:63.998
;MINZ:0.4
;MAXX:208.266
;MAXY:182.235
;MAXZ:10.6
;Generated with Cura_SteamEngine 5.3.1
M82 ;absolute extrusion mode
; START G-CODE BEGIN

M104 S220.0 ﻿T0
M140 S60.0

G28 ; Home all axes
G92 E0 ; Reset Extruder
M420 S1 ; Load Mesh

M109 S220.0 ﻿T0
M190 S60.0

G92 E0 ; Reset Extruder

G1 X0.6 Y20 Z0.3 F5000.0 ; Move to start position
G1 X0.6 Y200.0 Z0.3 F1500.0 E15 ; Draw the first line
G1 X0.9 Y200.0 Z0.3 F5000.0 ; Move to side a little
G1 X0.9 Y20 Z0.3 F1500.0 E30 ; Draw the second line
G92 E0 ; Reset Extruder
G1 Z2.0 F3000 ; Move Z Axis up little to prevent scratching of Heat Bed
G1 X5 Y20 Z0.3 F5000.0 ; Move over to prevent blob squish

; START G-CODE END
G92 E0
G92 E0
G1 F1500 E-6
;LAYER_COUNT:18
;LAYER:0
M107
G0 F6000 X46.864 Y93.917 Z0.4
;TYPE:SUPPORT-INTERFACE
G1 F1500 E0
G1 F1200 X47.8 Y93.543 E0.1408
G1 X48.24 Y93.411 E0.20497
G1 X48.662 Y93.337 E0.26482
G1 X49.099 Y93.324 E0.3259
G1 X49.554 Y93.363 E0.38969
G1 X51.097 Y93.64 E0.60868
G1 X52.071 Y93.403 E0.74871
G1 X52.804 Y92.251 E0.93945
G1 X53.073 Y92.401 E0.98248
G1 X53.574 Y92.753 E1.06801
G1 X54.047 Y93.197 E1.15863
G1 X54.469 Y93.695 E1.24982
G1 X55.29 Y94.873 E1.4504
G1 X55.816 Y96.202 E1.65006
G1 X56.002 Y96.837 E1.7425
G1 X56.11 Y97.463 E1.83123
G1 X56.128 Y98.11 E1.92165
G1 X56.071 Y98.756 E2.01224
G1 X55.815 Y100.177 E2.21394
G1 X55.668 Y100.517 E2.26569
G1 X55.496 Y100.79 E2.31076
G1 X55.26 Y101.001 E2.35498
G1 X54.964 Y101.187 E2.40382
G1 X54.578 Y101.307 E2.46028
G1 X54.199 Y101.367 E2.51389
G1 X53.785 Y101.336 E2.57188
G1 X53.342 Y101.243 E2.63511
G1 X52.923 Y101.076 E2.69812
G1 X52.573 Y100.881 E2.75409
G1 X52.281 Y100.612 E2.80955
G1 X52.023 Y100.3 E2.86611
G1 X51.879 Y99.979 E2.91525
G1 X51.8 Y99.682 E2.95819
G1 X51.807 Y99.358 E3.00346
G1 X51.972 Y98.451 E3.13224
G1 X51.992 Y97.89 E3.21065
G1 X51.866 Y97.343 E3.28907
G1 X51.662 Y96.819 E3.36762
G1 X51.344 Y96.367 E3.44482
G1 X50.952 Y95.958 E3.52396
G1 X50.477 Y95.666 E3.60185
G1 X49.975 Y95.45 E3.67819
G1 X49.435 Y95.351 E3.75488
G1 X48.874 Y95.333 E3.83329
G1 X48.328 Y95.457 E3.9115
G1 X47.803 Y95.662 E3.99023
G1 X47.347 Y95.984 E4.06821
G1 X46.945 Y96.369 E4.14597
G1 X46.65 Y96.845 E4.2242
G1 X46.462 Y97.29 E4.29168
G1 X44.54 Y103.671 E5.22262
G1 X44.452 Y104.146 E5.2901
G1 X44.436 Y104.706 E5.36836
G1 X44.557 Y105.25 E5.44621
G1 X44.761 Y105.769 E5.52411
G1 X45.14 Y106.311 E5.6165
G1 X44.699 Y107.002 E5.73101
G1 X44.626 Y107.667 E5.82446
G1 X44.765 Y108.393 E5.92772
G1 X45.29 Y108.908 E6.03045
G1 X45.799 Y109.169 E6.11036
G1 X46.796 Y109.351 E6.25194
G1 X47.77 Y109.38 E6.38806
G1 X48.712 Y109.164 E6.52306
G1 X49.625 Y108.805 E6.66011
G1 X50.426 Y108.243 E6.7968
G1 X51.131 Y107.572 E6.93275
G1 X51.642 Y106.748 E7.0682
G1 X51.861 Y106.237 E7.14586
G1 X52.771 Y106.288 E7.27318
G1 X53.717 Y105.781 E7.42311
G1 X54.01 Y105.995 E7.4738
G1 X53.932 Y106.432 E7.53581
G1 X53.372 Y107.732 E7.73354
G1 X53.04 Y108.341 E7.83043
G1 X52.685 Y108.849 E7.91701
G1 X52.253 Y109.31 E8.00526
G1 X51.74 Y109.743 E8.09904
G1 X50.568 Y110.56 E8.29861
G1 X49.233 Y111.088 E8.49916
G1 X48.598 Y111.273 E8.59155
G1 X47.978 Y111.38 E8.67944
G1 X47.337 Y111.397 E8.76902
G1 X46.678 Y111.341 E8.8614
G1 X45.267 Y111.086 E9.0617
G1 X43.947 Y110.518 E9.26244
G1 X43.361 Y110.2 E9.35558
G1 X42.851 Y109.841 E9.4427
G1 X42.378 Y109.397 E9.53333
G1 X41.957 Y108.898 E9.62453
G1 X41.134 Y107.72 E9.82527
G1 X40.61 Y106.391 E10.02483
G1 X40.422 Y105.748 E10.11841
G1 X40.316 Y105.132 E10.20573
G1 X40.298 Y104.486 E10.29601
G1 X40.329 Y104.157 E10.34217
G1 X41.137 Y104.246 E10.45572
G1 X41.859 Y104.105 E10.55849
G1 X42.373 Y103.583 E10.66082
G1 X42.603 Y103.134 E10.73129
G1 X44.5 Y96.836 E11.65012
G1 X44.908 Y95.893 E11.79365
G1 X45.4 Y95.103 E11.92366
G1 X46.056 Y94.481 E12.04994
G1 X46.864 Y93.917 E12.18759
G1 F1500 E6.18759
G0 F6000 X62.424 Y101.148
G1 F1500 E12.18759
G1 F1200 X62.929 Y100.335 E12.32129
G1 X63.194 Y100.053 E12.37535
G1 X63.544 Y99.757 E12.43938
G1 X64.376 Y99.175 E12.58122
G1 X65.306 Y98.809 E12.72083
G1 X65.758 Y98.676 E12.78665
G1 X66.137 Y98.611 E12.84036
G1 X67.104 Y98.641 E12.97551
G1 X68.266 Y98.85 E13.14044
G1 X68.981 Y98.89 E13.24048
G1 X69.728 Y98.492 E13.35871
G1 X70.305 Y97.506 E13.5183
G1 X70.591 Y97.678 E13.56492
G1 X71.091 Y98.026 E13.65002
G1 X71.546 Y98.455 E13.73738
G1 X71.988 Y98.978 E13.83303
G1 X72.802 Y100.146 E14.03191
G1 X73.326 Y101.473 E14.23121
G1 X73.516 Y102.121 E14.32554
G1 X73.621 Y102.725 E14.41118
G1 X73.64 Y103.38 E14.50272
G1 X73.584 Y104.022 E14.59274
G1 X73.316 Y105.511 E14.80409
G1 X71.469 Y111.645 E15.69896
G1 X70.879 Y113.016 E15.90746
G1 X70.559 Y113.606 E16.00122
G1 X70.2 Y114.116 E16.08835
G1 X69.756 Y114.589 E16.17897
G1 X69.259 Y115.01 E16.26996
G1 X68.079 Y115.833 E16.47093
G1 X66.75 Y116.357 E16.67049
G1 X66.111 Y116.544 E16.7635
G1 X65.491 Y116.651 E16.85139
G1 X64.853 Y116.669 E16.94055
G1 X64.186 Y116.611 E17.03407
G1 X62.779 Y116.357 E17.2338
G1 X61.46 Y115.789 E17.43441
G1 X60.877 Y115.472 E17.52711
G1 X60.354 Y115.107 E17.6162
G1 X59.894 Y114.673 E17.70455
G1 X59.47 Y114.171 E17.79634
G1 X58.646 Y112.991 E17.99739
G1 X58.119 Y111.654 E18.19814
G1 X57.935 Y111.025 E18.28969
G1 X57.828 Y110.403 E18.37786
G1 X57.81 Y109.756 E18.46827
G1 X57.837 Y109.454 E18.51063
G1 X58.965 Y109.516 E18.66844
G1 X59.708 Y109.115 E18.78638
G1 X60.105 Y108.439 E18.89589
G1 X62.011 Y102.113 E19.81883
G1 X62.424 Y101.148 E19.96546
G1 F1500 E13.96546
G0 F6000 X64.16 Y102.121
G1 F1500 E19.96546
G1 F1200 X63.973 Y102.56 E20.03212
G1 X62.053 Y108.94 E20.96284
G1 X61.965 Y109.412 E21.02991
G1 X61.945 Y109.976 E21.10875
G1 X62.07 Y110.522 E21.18699
G1 X62.274 Y111.045 E21.26541
G1 X62.639 Y111.562 E21.35382
G1 X62.191 Y112.325 E21.47742
G1 X62.139 Y113.255 E21.60753
G1 X62.537 Y114.002 E21.72577
G1 X63.278 Y114.435 E21.84566
G1 X64.309 Y114.622 E21.99203
G1 X65.278 Y114.651 E22.12746
G1 X66.226 Y114.435 E22.26328
G1 X67.138 Y114.074 E22.4003
G1 X67.938 Y113.516 E22.53655
G1 X68.642 Y112.845 E22.67241
G1 X69.153 Y112.019 E22.80809
G1 X69.508 Y111.192 E22.93381
G1 X71.452 Y104.733 E23.87606
G1 X71.496 Y103.949 E23.98576
G1 X71.093 Y103.202 E24.10432
G1 X70.292 Y102.732 E24.23406
G1 X69.406 Y102.682 E24.35802
G1 X69.175 Y102.092 E24.44653
G1 X68.853 Y101.635 E24.52463
G1 X68.466 Y101.229 E24.60298
G1 X67.992 Y100.94 E24.68053
G1 X67.486 Y100.722 E24.7575
G1 X66.948 Y100.623 E24.83391
G1 X66.386 Y100.603 E24.91247
G1 X65.84 Y100.728 E24.99071
G1 X65.315 Y100.933 E25.06945
G1 X64.859 Y101.254 E25.14735
G1 X64.456 Y101.638 E25.22511
G1 X64.16 Y102.121 E25.30424
G1 F1500 E19.30424
G0 F6000 X79.523 Y107.383
G1 F1500 E25.30424
G1 F1200 X79.937 Y106.419 E25.4508
G1 X80.439 Y105.609 E25.58392
G1 X80.704 Y105.327 E25.63797
G1 X81.059 Y105.026 E25.70299
G1 X81.887 Y104.447 E25.84413
G1 X82.824 Y104.078 E25.98481
G1 X83.265 Y103.948 E26.04903
G1 X83.649 Y103.882 E26.10346
G1 X84.615 Y103.912 E26.23847
G1 X86.099 Y104.18 E26.44913
G1 X86.902 Y104.022 E26.56345
G1 X87.416 Y103.5 E26.66579
G1 X87.79 Y102.772 E26.78012
G1 X88.086 Y102.936 E26.82739
G1 X88.597 Y103.295 E26.91463
G1 X89.071 Y103.74 E27.00545
G1 X89.497 Y104.245 E27.09774
G1 X90.314 Y105.414 E27.29697
G1 X90.838 Y106.743 E27.49653
G1 X91.026 Y107.382 E27.58958
G1 X91.133 Y108.005 E27.67788
G1 X91.151 Y108.644 E27.76718
G1 X91.095 Y109.298 E27.85887
G1 X90.827 Y110.782 E28.06953
G1 X87.572 Y121.596 E29.64711
G1 X87.376 Y122.046 E29.71568
G1 X87.172 Y122.371 E29.76928
G1 X86.896 Y122.63 E29.82216
G1 X86.54 Y122.876 E29.8826
G1 X86.148 Y123.033 E29.94159
G1 X85.781 Y123.121 E29.99431
G1 X85.387 Y123.11 E30.04937
G1 X84.98 Y123.038 E30.10711
G1 X84.601 Y122.874 E30.1648
G1 X84.039 Y122.521 E30.25751
G1 X85.19 Y121.901 E30.44014
G1 X85.586 Y121.225 E30.54958
G1 X88.971 Y109.981 E32.18992
G1 X88.988 Y109.004 E32.32642
G1 X88.383 Y108.318 E32.45419
G1 X87.797 Y108.016 E32.54628
G1 X87.19 Y107.95 E32.63157
G1 X86.935 Y108 E32.66787
G1 X86.686 Y107.362 E32.76354
G1 X86.365 Y106.906 E32.84144
G1 X85.981 Y106.503 E32.9192
G1 X85.498 Y106.207 E32.99834
G1 X84.994 Y105.992 E33.07488
G1 X84.459 Y105.895 E33.15084
G1 X83.898 Y105.875 E33.22925
G1 X83.352 Y106 E33.3075
G1 X82.827 Y106.205 E33.38623
G1 X82.375 Y106.523 E33.46343
G1 X81.966 Y106.915 E33.54257
G1 X81.674 Y107.391 E33.62058
G1 X81.486 Y107.828 E33.68703
G1 X78.19 Y118.771 E35.28352
G1 X77.995 Y119.222 E35.35216
G1 X77.792 Y119.544 E35.40534
G1 X77.507 Y119.81 E35.45979
G1 X77.163 Y120.05 E35.51839
G1 X76.761 Y120.209 E35.57878
G1 X76.398 Y120.297 E35.63095
G1 X76.004 Y120.286 E35.68601
G1 X75.601 Y120.216 E35.74315
G1 X75.216 Y120.049 E35.80178
G1 X74.658 Y119.693 E35.89424
G1 X75.81 Y119.077 E36.07673
G1 X76.205 Y118.401 E36.1861
G1 X79.523 Y107.383 E37.79351
G1 F1500 E31.79351
G0 F6000 X97.035 Y112.651
G1 F1500 E37.79351
G1 F1200 X97.444 Y111.707 E37.93722
G1 X97.932 Y110.923 E38.06622
G1 X98.609 Y110.283 E38.19636
G1 X99.392 Y109.735 E38.32987
G1 X100.338 Y109.356 E38.47223
G1 X100.775 Y109.225 E38.53596
G1 X101.196 Y109.152 E38.59565
G1 X101.624 Y109.139 E38.65546
G1 X102.091 Y109.179 E38.72094
G1 X103.291 Y109.393 E38.89122
G1 X104.005 Y109.433 E38.99111
G1 X104.753 Y109.03 E39.1098
G1 X105.328 Y108.049 E39.26865
G1 X105.615 Y108.221 E39.31539
G1 X106.115 Y108.569 E39.40049
G1 X106.579 Y109.007 E39.48962
G1 X107.003 Y109.509 E39.58141
G1 X107.825 Y110.686 E39.78196
G1 X108.35 Y112.013 E39.98131
G1 X108.539 Y112.656 E40.07493
G1 X108.645 Y113.276 E40.1628
G1 X108.663 Y113.924 E40.25335
G1 X108.608 Y114.565 E40.34323
G1 X108.35 Y115.993 E40.54594
G1 X108.206 Y116.33 E40.59713
G1 X108.031 Y116.606 E40.64278
G1 X107.798 Y116.813 E40.68632
G1 X107.496 Y117.002 E40.73609
G1 X107.122 Y117.119 E40.79083
G1 X106.733 Y117.181 E40.84586
G1 X106.322 Y117.15 E40.90343
G1 X105.876 Y117.057 E40.96708
G1 X105.457 Y116.89 E41.03008
G1 X105.104 Y116.693 E41.08656
G1 X104.811 Y116.423 E41.14221
G1 X104.559 Y116.117 E41.19759
G1 X104.42 Y115.806 E41.24518
G1 X104.336 Y115.494 E41.29031
G1 X104.343 Y115.172 E41.3353
G1 X104.508 Y114.264 E41.46422
G1 X104.528 Y113.704 E41.5425
G1 X104.403 Y113.158 E41.62074
G1 X104.198 Y112.633 E41.69948
G1 X103.879 Y112.181 E41.77676
G1 X103.488 Y111.772 E41.8558
G1 X103.018 Y111.482 E41.93295
G1 X102.505 Y111.265 E42.01076
G1 X101.97 Y111.166 E42.08676
G1 X101.409 Y111.146 E42.16518
G1 X100.86 Y111.272 E42.24386
G1 X100.343 Y111.475 E42.32145
G1 X99.886 Y111.796 E42.39947
G1 X99.477 Y112.185 E42.47832
G1 X99.185 Y112.662 E42.55644
G1 X98.997 Y113.103 E42.62341
G1 X97.075 Y119.488 E43.55488
G1 X96.988 Y119.958 E43.62165
G1 X96.969 Y120.519 E43.70007
G1 X97.095 Y121.068 E43.77875
G1 X97.298 Y121.585 E43.85634
G1 X97.662 Y122.105 E43.94501
G1 X97.213 Y122.868 E44.06868
G1 X97.164 Y123.799 E44.19891
G1 X97.562 Y124.545 E44.31703
G1 X98.3 Y124.978 E44.43656
G1 X99.332 Y125.165 E44.58307
G1 X100.308 Y125.194 E44.71947
G1 X101.246 Y124.978 E44.85393
G1 X102.161 Y124.619 E44.99123
G1 X102.96 Y124.059 E45.12753
G1 X103.666 Y123.388 E45.26359
G1 X104.176 Y122.564 E45.39896
G1 X104.408 Y122.025 E45.48093
G1 X104.868 Y122.129 E45.54682
G1 X105.715 Y121.964 E45.66736
G1 X106.175 Y121.496 E45.75903
G1 X106.535 Y121.643 E45.81335
G1 X106.535 Y121.874 E45.84562
G1 X106.469 Y122.243 E45.89798
G1 X105.904 Y123.554 E46.0974
G1 X105.581 Y124.15 E46.1921
G1 X105.219 Y124.667 E46.28026
G1 X104.789 Y125.124 E46.36792
G1 X104.276 Y125.556 E46.46161
G1 X103.106 Y126.375 E46.66111
G1 X101.773 Y126.9 E46.86124
G1 X101.135 Y127.087 E46.95412
G1 X100.514 Y127.194 E47.04214
G1 X99.867 Y127.212 E47.13256
G1 X99.222 Y127.156 E47.223
G1 X97.802 Y126.9 E47.42456
G1 X96.483 Y126.332 E47.62518
G1 X95.898 Y126.015 E47.71812
G1 X95.377 Y125.648 E47.80715
G1 X94.922 Y125.22 E47.89441
G1 X94.487 Y124.706 E47.98847
G1 X93.67 Y123.534 E48.18804
G1 X93.142 Y122.198 E48.38872
G1 X92.957 Y121.562 E48.48125
G1 X92.851 Y120.945 E48.5687
G1 X92.826 Y120.015 E48.69866
G1 X94.053 Y120.036 E48.87009
G1 X94.678 Y119.698 E48.96935
G1 X95.122 Y119.002 E49.08467
G1 X97.035 Y112.651 E50.01123
G1 F1500 E44.01123
G0 F6000 X114.545 Y117.93
G1 F1500 E50.01123
G1 F1200 X114.959 Y116.963 E50.15817
G1 X115.464 Y116.149 E50.29199
G1 X115.725 Y115.872 E50.34515
G1 X116.089 Y115.564 E50.41176
G1 X116.911 Y114.99 E50.55182
G1 X117.843 Y114.622 E50.69179
G1 X118.297 Y114.488 E50.75792
G1 X118.67 Y114.425 E50.81076
G1 X119.639 Y114.455 E50.94619
G1 X121.123 Y114.723 E51.15684
G1 X121.926 Y114.565 E51.27117
G1 X122.441 Y114.042 E51.3737
G1 X122.814 Y113.312 E51.48822
G1 X123.121 Y113.488 E51.53765
G1 X123.633 Y113.846 E51.62492
G1 X124.088 Y114.275 E51.71228
G1 X124.515 Y114.78 E51.80466
G1 X125.337 Y115.959 E52.00544
G1 X125.865 Y117.294 E52.20598
G1 X126.049 Y117.923 E52.29753
G1 X126.157 Y118.548 E52.38613
G1 X126.175 Y119.195 E52.47655
G1 X126.119 Y119.84 E52.56699
G1 X125.85 Y121.327 E52.77809
G1 X124.006 Y127.45 E53.67137
G1 X123.41 Y128.839 E53.88251
G1 X123.096 Y129.415 E53.97415
G1 X122.728 Y129.941 E54.06383
G1 X122.309 Y130.387 E54.14931
G1 X121.782 Y130.833 E54.24576
G1 X120.615 Y131.646 E54.44444
G1 X119.284 Y132.171 E54.64431
G1 X118.638 Y132.36 E54.73833
G1 X118.031 Y132.465 E54.82439
G1 X117.388 Y132.483 E54.91424
G1 X116.721 Y132.425 E55.00777
G1 X115.318 Y132.171 E55.20694
G1 X113.997 Y131.604 E55.40776
G1 X113.402 Y131.278 E55.50253
G1 X112.898 Y130.926 E55.58841
G1 X112.425 Y130.482 E55.67903
G1 X112.004 Y129.985 E55.77002
G1 X111.183 Y128.807 E55.9706
G1 X110.651 Y127.461 E56.17278
G1 X110.47 Y126.84 E56.26314
G1 X110.363 Y126.217 E56.35144
G1 X110.345 Y125.578 E56.44074
G1 X110.369 Y125.266 E56.48446
G1 X111.497 Y125.33 E56.64228
G1 X112.247 Y124.928 E56.76115
G1 X112.64 Y124.253 E56.87026
G1 X114.545 Y117.93 E57.79276
G1 F1500 E51.79276
G0 F6000 X116.509 Y118.374
G1 F1500 E57.79276
G1 F1200 X114.587 Y124.756 E58.72383
G1 X114.499 Y125.231 E58.79131
G1 X114.483 Y125.791 E58.86957
G1 X114.606 Y126.337 E58.94775
G1 X114.809 Y126.857 E59.02573
G1 X115.174 Y127.375 E59.11425
G1 X114.743 Y128.109 E59.23316
G1 X114.672 Y128.757 E59.32422
G1 X114.815 Y129.48 E59.42717
G1 X115.336 Y129.993 E59.52931
G1 X115.846 Y130.255 E59.60941
G1 X116.844 Y130.436 E59.75109
G1 X117.814 Y130.465 E59.88666
G1 X118.765 Y130.248 E60.02292
G1 X119.672 Y129.891 E60.15908
G1 X120.473 Y129.331 E60.29561
G1 X121.178 Y128.659 E60.43166
G1 X121.689 Y127.833 E60.56735
G1 X122.043 Y127.007 E60.69288
G1 X123.989 Y120.543 E61.63589
G1 X124.03 Y119.761 E61.74528
G1 X123.63 Y119.019 E61.86303
G1 X122.856 Y118.564 E61.98845
G1 X122.214 Y118.493 E62.07868
G1 X121.959 Y118.543 E62.11498
G1 X121.711 Y117.908 E62.21021
G1 X121.388 Y117.45 E62.2885
G1 X120.999 Y117.044 E62.36704
G1 X120.526 Y116.753 E62.44462
G1 X120.022 Y116.536 E62.52128
G1 X119.48 Y116.436 E62.59827
G1 X118.918 Y116.42 E62.67681
G1 X118.378 Y116.541 E62.75411
G1 X117.85 Y116.747 E62.83328
G1 X117.394 Y117.069 E62.91126
G1 X116.988 Y117.457 E62.98971
G1 X116.701 Y117.926 E63.06652
G1 X116.509 Y118.374 E63.13461
G1 F1500 E57.13461
G0 F6000 X132.336 Y122.269
G1 F1500 E63.13461
G1 F1200 X133.472 Y118.496 E63.68504
G1 X136.682 Y119.461 E64.15328
G1 X137.466 Y119.505 E64.26297
G1 X138.212 Y119.103 E64.38135
G1 X138.779 Y118.141 E64.53734
G1 X139.057 Y118.28 E64.58076
G1 X139.568 Y118.64 E64.66807
G1 X140.043 Y119.086 E64.75909
G1 X140.469 Y119.589 E64.85117
G1 X141.283 Y120.759 E65.05028
G1 X141.808 Y122.087 E65.24976
G1 X141.997 Y122.736 E65.34419
G1 X142.102 Y123.353 E65.43162
G1 X142.12 Y123.993 E65.52105
G1 X142.063 Y124.662 E65.61485
G1 X141.806 Y126.08 E65.81616
G1 X141.328 Y127.242 E65.99168
G1 X141.057 Y127.775 E66.07521
G1 X140.757 Y128.242 E66.15274
G1 X140.393 Y128.68 E66.2323
G1 X139.981 Y129.082 E66.31271
G1 X138.151 Y130.597 E66.64458
G1 X141.157 Y136.199 E67.53269
G1 X141.336 Y136.66 E67.60177
G1 X141.422 Y137.035 E67.65551
G1 X141.409 Y137.433 E67.71114
G1 X141.333 Y137.849 E67.77021
G1 X141.165 Y138.242 E67.82992
G1 X140.96 Y138.577 E67.88478
G1 X140.678 Y138.846 E67.93922
G1 X140.341 Y139.084 E67.99686
G1 X139.957 Y139.234 E68.05445
G1 X139.577 Y139.321 E68.1089
