;FLAVOR:Marlin
;TIME:17511
;Filament used: 42.4999m
;Layer height: 0.48
;MINX:66.028
;MINY:78.49
;MINZ:0.32
;MAXX:233.972
;MAXY:201.258
;MAXZ:38.24
;Generated with Cura_SteamEngine 5.3.1
M140 S30
M105
M190 S30
M104 S230
M105
M109 S230
M82 ;absolute extrusion mode
G28 ; home all axes
G92 X-5.0 Y-10.0 ; set home offsets
M92 E136.8 ; Set E Steps to 136.8
G1 X0 Y0 Z0.2 F3000 ; get ready to prime
G92 E0 ; reset extrusion distance
G92 E0
G92 E0
G1 F2100 E-7.5
;LAYER_COUNT:80
;LAYER:0
M107
;MESH:frame.STL
G0 F6000 X76.975 Y83.207 Z0.32
;TYPE:WALL-INNER
G1 F2100 E0
G1 F929 X117.192 Y83.207 E8.70792
G0 F6000 X118.567 Y84.582
G1 F1200 X118.567 Y81.832 E9.16891
G1 X75.6 Y81.832 E16.37151
G1 X75.6 Y84.582 E16.8325
G1 X118.567 Y84.582 E24.0351
G1 F2100 E16.5351
G0 F6000 X119.547 Y83.207
G0 X121.032 Y83.207
G0 X126.052 Y83.207
G0 X127.537 Y83.207
G0 X129.892 Y83.207
G1 F2100 E24.0351
G1 F929 X170.108 Y83.207 E32.74281
G0 F6000 X171.483 Y84.582
G1 F1200 X171.483 Y81.832 E33.2038
G1 X128.517 Y81.832 E40.40624
G1 X128.517 Y84.582 E40.86722
G1 X171.483 Y84.582 E48.06966
G1 F2100 E40.56966
G0 F6000 X172.463 Y83.207
G0 X173.948 Y83.207
G0 X178.968 Y83.207
G0 X180.453 Y83.207
G0 X182.808 Y83.207
G1 F2100 E48.06966
G1 F929 X223.025 Y83.207 E56.77758
G1 F2100 E49.27758
G0 F6000 X181.433 Y84.582
G1 F2100 E56.77758
G1 F1200 X224.4 Y84.582 E63.98019
G1 X224.4 Y81.832 E64.44117
G1 X181.433 Y81.832 E71.64378
G1 X181.433 Y84.582 E72.10476
G1 F2100 E64.60476
G0 F6000 X225.383 Y85.512
G0 X226.026 Y85.867
G0 X226.935 Y86.706
G0 X229.375 Y90.049
G1 F2100 E72.10476
G1 F929 X229.375 Y129.282 E80.59963
G0 F6000 X228 Y131.172
G1 F1200 X228.474 Y130.898 E80.69141
G1 X228.954 Y130.706 E80.77807
G1 X229.375 Y130.657 E80.84912
G1 X229.796 Y130.705 E80.92015
G1 X230.276 Y130.898 E81.00687
G1 X230.75 Y131.172 E81.09865
G1 X230.75 Y88.159 E88.30896
G1 X230.276 Y88.433 E88.40074
G1 X229.797 Y88.626 E88.48731
G1 X229.375 Y88.674 E88.5585
G1 X228.954 Y88.625 E88.62955
G1 X228.474 Y88.433 E88.71622
G1 X228.001 Y88.159 E88.80785
G1 X228 Y131.172 E96.01816
G1 F2100 E88.51816
G0 F6000 X227.133 Y132.383
G0 X226.066 Y133.44
G0 X226.065 Y138.807
G0 X226.938 Y139.636
G0 X229.375 Y142.966
G1 F2100 E96.01816
G1 F929 X229.375 Y194.226 E107.11716
G1 F915.4 X229.352 Y194.778 E107.23856
G1 F2100 E99.73856
G0 F6000 X227.828 Y195.854
G0 X164.5 Y200.058
G1 F2100 E107.23856
G1 F1200 X230.75 Y200.057 E118.34412
G1 X230.75 Y141.076 E128.23116
G1 X230.276 Y141.35 E128.32294
G1 X229.797 Y141.543 E128.40951
G1 X229.375 Y141.591 E128.48071
G1 X228.954 Y141.542 E128.55176
G1 X228.474 Y141.35 E128.63842
G1 X228.001 Y141.076 E128.73005
G1 X228 Y194.226 E137.63964
G1 X227.967 Y194.635 E137.70842
G1 X227.747 Y195.147 E137.80184
G1 X227.477 Y195.496 E137.87581
G1 X227.163 Y195.747 E137.94319
G1 X226.871 Y195.897 E137.99822
G1 X226.511 Y196 E138.06099
G1 X226.2 Y196.026 E138.11331
G1 X164.5 Y196.026 E148.45614
G1 X164.5 Y200.058 E149.13203
G0 F6000 X165.808 Y198.75
G1 F1016.9 X226.2 Y198.75 E161.07785
G1 F1007 X226.864 Y198.736 E161.21052
G1 F958.7 X227.675 Y198.679 E161.3811
G1 F873.8 X228.413 Y198.59 E161.55223
G1 F829 X229.282 Y198.589 E161.76309
G1 X229.282 Y195.973 E162.39785
G1 F850.1 X229.324 Y195.099 E162.60492
G1 F886.7 X229.352 Y194.778 E162.67801
G1 X229.307 Y195.097 E162.7511
G1 F850.1 X229.009 Y195.898 E162.95334
G1 F829 X228.518 Y196.532 E163.14792
G1 X227.949 Y196.987 E163.3247
G1 F873.8 X227.385 Y197.177 E163.46171
G1 F956.8 X226.799 Y197.295 E163.58738
G1 F1004.2 X226.2 Y197.334 E163.70762
G1 F1016.9 X165.808 Y197.334 E175.65344
G1 X165.808 Y198.75 E175.93354
G1 F2100 E168.43354
G0 F6000 X163.52 Y198.75
G0 X162.035 Y198.75
G0 X137.965 Y198.75
G0 X136.48 Y198.75
G0 X134.192 Y198.75
G1 F2100 E175.93354
G1 F1016.9 X134.192 Y197.334 E176.21363
G1 F1017.7 X73.8 Y197.333 E188.15101
G1 F1004.2 X73.201 Y197.294 E188.27126
G1 F956.2 X72.614 Y197.177 E188.39718
G1 F873.8 X72.051 Y196.987 E188.53397
G1 F829 X71.483 Y196.531 E188.71071
G1 X70.992 Y195.898 E188.9051
G1 F849.6 X70.693 Y195.097 E189.10754
G1 F885.6 X70.648 Y194.777 E189.18094
G1 X70.676 Y195.099 E189.25435
G1 F849.6 X70.718 Y195.973 E189.46154
G1 F829 X70.718 Y198.59 E190.09654
G1 X71.587 Y198.59 E190.3074
G1 F873.8 X72.324 Y198.679 E190.4783
G1 F956.2 X73.062 Y198.733 E190.63397
G1 F1004.2 X73.8 Y198.749 E190.78184
G1 F1017.7 X134.192 Y198.75 E202.71923
G0 F6000 X135.5 Y200.058
G1 F1200 X135.5 Y196.026 E203.39512
G1 X73.8 Y196.026 E213.73795
G1 X73.455 Y195.992 E213.79607
G1 X73.129 Y195.896 E213.85303
G1 X72.837 Y195.747 E213.90799
G1 X72.524 Y195.496 E213.97524
G1 X72.253 Y195.147 E214.04931
G1 X72.035 Y194.639 E214.14198
G1 X72 Y194.225 E214.21163
G1 X72 Y141.076 E223.12105
G1 X71.526 Y141.35 E223.21283
G1 X71.047 Y141.543 E223.2994
G1 X70.625 Y141.591 E223.37059
G1 X70.204 Y141.542 E223.44164
G1 X69.724 Y141.35 E223.5283
G1 X69.251 Y141.076 E223.61993
G1 X69.25 Y200.058 E233.50715
G1 X135.5 Y200.058 E244.61271
G1 F2100 E237.11271
G0 F6000 X72.172 Y195.853
G0 X70.648 Y194.777
G1 F2100 E244.61271
G1 F914.9 X70.625 Y194.225 E244.73419
G1 F929 X70.625 Y142.966 E255.83296
G1 F2100 E248.33296
G0 F6000 X68.286 Y139.729
G0 X67.297 Y138.797
G0 X67.297 Y133.451
G0 X68.187 Y132.612
G0 X70.625 Y129.282
G1 F2100 E255.83296
G1 F929 X70.625 Y90.049 E264.32783
G1 F2100 E256.82783
G0 F6000 X72 Y131.172
G1 F2100 E264.32783
G1 F1200 X72 Y88.159 E271.53815
G1 X71.526 Y88.433 E271.62992
G1 X71.047 Y88.626 E271.71649
G1 X70.625 Y88.674 E271.78769
G1 X70.204 Y88.625 E271.85874
G1 X69.724 Y88.433 E271.9454
G1 X69.25 Y88.159 E272.03718
G1 X69.25 Y131.172 E279.24749
G1 X69.724 Y130.898 E279.33927
G1 X70.204 Y130.706 E279.42593
G1 X70.625 Y130.657 E279.49698
G1 X71.046 Y130.705 E279.56801
G1 X71.526 Y130.898 E279.65473
G1 X72 Y131.172 E279.74651
G1 F2100 E272.24651
G0 F6000 X72.867 Y132.383
G0 X73.934 Y133.44
G0 X74.603 Y134.589
G0 X74.419 Y133.962
;TYPE:WALL-OUTER
G1 F2100 E279.74651
G1 F1026.4 X74.471 Y134.072 E279.77036
G1 F971.7 X74.577 Y134.427 E279.84706
G1 F865.4 X74.688 Y135.1 E280.00561
G1 F786.5 X74.744 Y135.794 E280.18369
G1 F762.7 X74.744 Y136.455 E280.35803
G1 F786.9 X74.688 Y137.147 E280.5355
G1 F847.1 X74.564 Y137.901 E280.71697
G1 F952.4 X74.419 Y138.285 E280.80366
G1 F1016.2 X74.292 Y138.48 E280.84973
G1 F2100 E273.34973
G0 F6000 X73.875 Y138.859
G0 X74.603 Y137.658
G0 X74.419 Y133.962
G1 F2100 E280.84973
G1 F1052.6 X74.333 Y133.742 E280.89487
G1 F1133.9 X73.955 Y133.132 E281.02218
G1 F1200 X73.387 Y132.595 E281.15321
G1 X73.2 Y132.158 E281.23289
G1 X73.2 Y87.172 E288.77394
G1 X73.4 Y86.724 E288.85619
G1 F1162.2 X73.772 Y86.336 E288.94922
G1 F1065.9 X74.075 Y85.782 E289.06839
G1 X73.473 Y85.967 E289.18724
G1 F1162.2 X73.012 Y86.188 E289.27573
G1 F1200 X70.815 Y87.458 E289.70112
G1 F1199 X70.435 Y87.458 E289.76487
G1 F1197 X67.568 Y85.805 E290.32102
G1 F1134.8 X67.116 Y85.616 E290.40787
G1 F1048.8 X66.887 Y85.466 E290.46037
G1 F1051.9 X67.023 Y85.763 E290.52284
G1 F1138.3 X67.262 Y86.159 E290.60457
G1 F1198 X67.864 Y86.737 E290.74471
G1 F1200 X68.05 Y87.173 E290.82417
G1 X68.05 Y132.158 E298.36505
G1 X67.863 Y132.596 E298.44488
G1 X67.278 Y133.151 E298.58006
G1 F1144.7 X66.953 Y133.647 E298.68427
G1 F1059.6 X66.831 Y133.963 E298.74857
G1 X67.066 Y133.756 E298.80803
G1 F1144.7 X67.591 Y133.516 E298.90947
G1 F1200 X70.435 Y131.873 E299.46005
G1 X70.815 Y131.873 E299.52375
G1 X73.648 Y133.51 E300.07223
G1 F1166 X74.237 Y133.78 E300.18401
G1 F1080.3 X74.419 Y133.962 E300.23194
G1 F2100 E292.73194
G0 F6000 X74.615 Y134.668
G0 X73.135 Y134.668
G0 X68.115 Y134.668
G0 X66.831 Y133.963
G1 F2100 E300.23194
G1 F1022.7 X66.778 Y134.072 E300.25578
G1 F970.4 X66.673 Y134.427 E300.33252
G1 F864.9 X66.562 Y135.1 E300.49117
G1 F786 X66.506 Y135.794 E300.66935
G1 F762.7 X66.506 Y136.455 E300.84369
G1 F786 X66.562 Y137.147 E301.02136
G1 F845.6 X66.686 Y137.901 E301.20314
G1 F949.9 X66.831 Y138.286 E301.29027
G1 F1023.5 X66.893 Y138.39 E301.31406
G1 F2100 E293.81406
G0 F6000 X67.357 Y138.849
G0 X67.453 Y133.283
G0 X66.887 Y85.466
G1 F2100 E301.31406
G1 F1023.5 X66.827 Y85.361 E301.33783
G1 F995.9 X66.678 Y84.953 E301.42557
G1 F919 X66.615 Y84.546 E301.51572
G1 F836.7 X66.551 Y84.138 E301.61501
G1 F780.1 X66.503 Y83.434 E301.79697
G1 F763.9 X66.512 Y82.739 E301.98
G1 F796.9 X66.581 Y82.043 E302.15655
G1 F897.2 X66.716 Y81.32 E302.32145
G1 F1003.5 X66.848 Y81.019 E302.38733
G1 F997.2 X67.077 Y80.729 E302.46187
G1 F925.4 X67.367 Y80.485 E302.54425
G1 F852.6 X67.658 Y80.24 E302.634
G1 F791.6 X68.233 Y79.835 E302.81271
G1 F763.9 X68.83 Y79.486 E302.99481
G1 F785.2 X69.458 Y79.187 E303.173
G1 F866.9 X70.142 Y78.929 E303.34263
G1 F971.7 X70.542 Y78.838 E303.42755
G1 F1006.3 X70.866 Y78.859 E303.49246
G1 F954.9 X71.215 Y78.976 E303.57
G1 F875.4 X71.565 Y79.093 E303.6548
G1 F804.9 X72.2 Y79.374 E303.82834
G1 F765.6 X72.817 Y79.71 E304.01294
G1 F775.4 X73.394 Y80.092 E304.19245
G1 F845.6 X74.015 Y80.58 E304.38034
G1 F913.7 X74.253 Y80.737 E304.44311
G1 F2100 E296.94311
G0 F6000 X75.47 Y81.702
G0 X118.697 Y81.702
G0 X119.913 Y80.737
G1 F2100 E304.44311
G1 F912 X120.154 Y80.579 E304.50668
G1 F845.6 X120.758 Y80.102 E304.68977
G1 F775.9 X121.309 Y79.734 E304.86156
G1 F763.9 X121.908 Y79.402 E305.04189
G1 F796.9 X122.514 Y79.128 E305.20977
G1 F893.3 X123.193 Y78.886 E305.37209
G1 F1000.7 X123.542 Y78.842 E305.44281
G1 F1001.4 X123.89 Y78.885 E305.51324
G1 F894.4 X124.569 Y79.128 E305.67544
G1 F797.3 X125.175 Y79.402 E305.84322
G1 F764.3 X125.774 Y79.734 E306.02346
G1 F776.7 X126.325 Y80.102 E306.19507
G1 F846.6 X126.929 Y80.579 E306.37795
G1 F913.7 X127.17 Y80.737 E306.44139
G1 F2100 E298.94139
G0 F6000 X128.387 Y81.702
G0 X128.387 Y84.712
G0 X127.107 Y85.714
G1 F2100 E306.44139
G1 F920.7 X127.002 Y85.779 E306.46837
G1 F882.4 X126.664 Y86.045 E306.56643
G1 F821.9 X126.325 Y86.312 E306.67204
G1 F776.3 X125.774 Y86.68 E306.84374
G1 F763.9 X125.175 Y87.012 E307.02407
G1 F796.9 X124.569 Y87.286 E307.19195
G1 F893.3 X123.89 Y87.529 E307.35435
G1 F1000.7 X123.542 Y87.572 E307.42483
G1 X123.193 Y87.528 E307.49554
G1 F893.9 X122.514 Y87.286 E307.65776
G1 F797.3 X121.908 Y87.012 E307.82555
G1 F763.9 X121.309 Y86.68 E308.00589
G1 F776.3 X120.758 Y86.312 E308.17758
G1 F822.9 X120.42 Y86.046 E308.28273
G1 F885.6 X120.082 Y85.779 E308.38057
G1 F922.5 X119.977 Y85.714 E308.4075
G1 F956.8 X119.838 Y85.538 E308.45465
G1 F1027.8 X119.777 Y85.367 E308.49018
G1 F1130.3 X119.767 Y85.039 E308.54858
G1 F1200 X119.767 Y81.375 E309.16278
G1 F1113.7 X119.76 Y81.038 E309.22366
G1 F975.6 X119.913 Y80.737 E309.29328
G1 F941.8 X119.761 Y80.756 E309.326
G1 F1014.8 X119.393 Y80.694 E309.39997
G1 F1131.2 X119.024 Y80.632 E309.46651
G1 F1200 X75.143 Y80.632 E316.82233
G1 F1132.1 X74.775 Y80.693 E316.88861
G1 F1016.9 X74.406 Y80.754 E316.96259
G1 F944.3 X74.253 Y80.737 E316.99539
G1 F977.6 X74.406 Y81.038 E317.06487
G1 F1114.6 X74.4 Y81.375 E317.1257
G1 F1200 X74.4 Y85.039 E317.7399
G1 F1130.3 X74.39 Y85.367 E317.7983
G1 F1028.6 X74.329 Y85.538 E317.83381
G1 F957.4 X74.19 Y85.714 E317.88093
G1 X74.41 Y85.678 E317.92776
G1 F1086 X75.143 Y85.782 E318.0649
G1 F1200 X119.024 Y85.782 E325.42072
G1 F1086 X119.755 Y85.679 E325.55746
G1 F956.8 X119.977 Y85.714 E325.60471
G1 F2100 E318.10471
G0 F6000 X118.697 Y84.712
G0 X119.449 Y85.441
G0 X119.687 Y85.577
G0 X121.026 Y84.66
G0 X126.058 Y84.66
G0 X127.534 Y85.512
G0 X171.613 Y84.712
G0 X172.893 Y85.714
G1 F2100 E325.60471
G1 F922.5 X172.999 Y85.779 E325.63182
G1 F886.2 X173.337 Y86.045 E325.72946
G1 F823.8 X173.675 Y86.312 E325.83464
G1 F776.7 X174.226 Y86.68 E326.00624
G1 F763.9 X174.825 Y87.012 E326.18658
G1 F797.3 X175.431 Y87.286 E326.35436
G1 F893.9 X176.11 Y87.529 E326.51666
G1 F1000.7 X176.458 Y87.572 E326.58714
G1 F1000 X176.807 Y87.528 E326.6579
G1 F892.7 X177.486 Y87.286 E326.82033
G1 F796.9 X178.092 Y87.012 E326.9882
G1 F763.9 X178.691 Y86.68 E327.16854
G1 F776.3 X179.242 Y86.312 E327.34024
G1 F821.9 X179.58 Y86.046 E327.4455
G1 F882.4 X179.919 Y85.779 E327.54388
G1 F920.1 X180.023 Y85.714 E327.57069
G1 F956.8 X180.244 Y85.678 E327.61777
G1 F1086 X180.976 Y85.782 E327.75472
G1 F1200 X224.857 Y85.782 E335.11054
G1 F1085.2 X225.59 Y85.677 E335.2478
G1 F956.2 X225.81 Y85.714 E335.29474
G1 X225.671 Y85.539 E335.34175
G1 F1027.1 X225.609 Y85.368 E335.37738
G1 F1129.4 X225.6 Y85.039 E335.436
G1 F1200 X225.6 Y81.375 E336.0502
G1 F1113.7 X225.593 Y81.038 E336.11108
G1 F975.6 X225.746 Y80.737 E336.1807
G1 F941.8 X225.594 Y80.756 E336.21342
G1 F1014.8 X225.226 Y80.694 E336.28739
G1 F1131.2 X224.857 Y80.632 E336.35393
G1 F1200 X180.976 Y80.632 E343.70975
G1 F1132.1 X180.608 Y80.693 E343.77603
G1 F1016.9 X180.239 Y80.754 E343.85001
G1 F944.3 X180.086 Y80.737 E343.88281
G1 F977.6 X180.239 Y81.038 E343.95229
G1 F1114.6 X180.233 Y81.375 E344.01312
G1 F1200 X180.233 Y85.039 E344.62732
G1 F1130.3 X180.223 Y85.367 E344.68572
G1 F1027.8 X180.163 Y85.538 E344.72119
G1 F956.8 X180.023 Y85.714 E344.76847
G1 F2100 E337.26847
G0 F6000 X181.303 Y84.712
G0 X181.303 Y81.702
G0 X180.086 Y80.737
G1 F2100 E344.76847
G1 F913.7 X179.846 Y80.579 E344.83172
G1 F846.6 X179.242 Y80.102 E345.0146
G1 F776.7 X178.691 Y79.734 E345.18621
G1 F764.3 X178.092 Y79.402 E345.36645
G1 F797.3 X177.486 Y79.128 E345.53423
G1 F893.9 X176.807 Y78.886 E345.69646
G1 F1000.7 X176.458 Y78.842 E345.76717
G1 X176.11 Y78.885 E345.83765
G1 F893.3 X175.431 Y79.128 E346.00005
G1 F796.9 X174.825 Y79.402 E346.16793
G1 F763.9 X174.226 Y79.734 E346.34826
G1 F776.3 X173.675 Y80.102 E346.51996
G1 F846.6 X173.071 Y80.579 E346.70284
G1 F913.1 X172.83 Y80.737 E346.76632
G1 F2100 E339.26632
G0 F6000 X171.613 Y81.702
G0 X171.613 Y84.712
G0 X172.893 Y85.714
G1 F2100 E346.76632
G1 F956.2 X172.754 Y85.539 E346.81334
G1 F1027.1 X172.692 Y85.368 E346.84896
G1 F1129.4 X172.683 Y85.039 E346.90758
G1 F1200 X172.683 Y81.375 E347.52178
G1 F1113.7 X172.676 Y81.038 E347.58267
G1 F976.3 X172.83 Y80.737 E347.65233
G1 F943 X172.677 Y80.755 E347.68519
G1 F1015.5 X172.309 Y80.694 E347.75908
G1 F1132.1 X171.94 Y80.632 E347.82557
G1 F1200 X128.06 Y80.632 E355.18122
G1 F1132.1 X127.692 Y80.693 E355.2475
G1 F1016.2 X127.323 Y80.754 E355.32154
G1 F943.6 X127.17 Y80.737 E355.35435
G1 F977.6 X127.322 Y81.038 E355.42374
G1 F1114.6 X127.317 Y81.375 E355.48457
G1 F1200 X127.317 Y85.039 E356.09877
G1 F1130.3 X127.307 Y85.367 E356.15717
G1 F1028.6 X127.246 Y85.538 E356.19267
G1 F957.4 X127.107 Y85.714 E356.23979
G1 X127.327 Y85.678 E356.28663
G1 F1086 X128.06 Y85.782 E356.42376
G1 F1200 X171.94 Y85.782 E363.77942
G1 F1085.2 X172.673 Y85.677 E363.91668
G1 F956.2 X172.893 Y85.714 E363.96361
G1 F2100 E356.46361
G0 F6000 X171.613 Y84.712
G0 X172.365 Y85.441
G0 X172.603 Y85.577
G0 X173.942 Y84.66
G0 X178.974 Y84.66
G0 X180.45 Y85.512
G0 X224.53 Y81.702
G0 X225.746 Y80.737
G1 F2100 E363.96361
G1 F912 X225.985 Y80.58 E364.02669
G1 F845.1 X226.606 Y80.092 E364.21469
G1 F775.4 X227.183 Y79.71 E364.3942
G1 F765.1 X227.8 Y79.374 E364.5789
G1 F804 X228.435 Y79.093 E364.75263
G1 F873.8 X228.784 Y78.976 E364.83737
G1 F952.4 X229.134 Y78.859 E364.91532
G1 F1013.4 X229.395 Y78.841 E364.96725
G1 F951.1 X229.792 Y78.904 E365.05226
G1 F845.1 X230.542 Y79.187 E365.24308
G1 F785.6 X231.17 Y79.486 E365.42118
G1 F764.3 X231.767 Y79.835 E365.60317
G1 F791.6 X232.342 Y80.24 E365.78188
G1 F851.6 X232.632 Y80.484 E365.87141
G1 F924.3 X232.923 Y80.729 E365.9542
G1 F998.6 X233.152 Y81.019 E366.02864
G1 F1006.3 X233.284 Y81.32 E366.09434
G1 F898.3 X233.419 Y82.043 E366.25903
G1 F797.3 X233.488 Y82.739 E366.43549
G1 F763.9 X233.497 Y83.434 E366.61851
G1 F780.5 X233.449 Y84.138 E366.80037
G1 F838.7 X233.322 Y84.956 E366.99892
G1 F949.2 X233.175 Y85.36 E367.09003
G1 F1019.1 X233.042 Y85.563 E367.13793
G1 F2100 E359.63793
G0 F6000 X232.626 Y85.942
G0 X231.714 Y86.814
G0 X231.732 Y132.51
G0 X233.353 Y134.589
G0 X233.169 Y133.962
G1 F2100 E367.13793
G1 F1026.4 X233.221 Y134.072 E367.16178
G1 F971.7 X233.327 Y134.427 E367.23848
G1 F865.4 X233.438 Y135.1 E367.39703
G1 F786.5 X233.494 Y135.794 E367.57511
G1 F762.7 X233.494 Y136.455 E367.74945
G1 F786.9 X233.438 Y137.147 E367.92693
G1 F847.1 X233.314 Y137.901 E368.10839
G1 F952.4 X233.169 Y138.285 E368.19509
