;FLAVOR:Marlin
;TIME:15095
;Filament used: 52.3274m
;Layer height: 0.48
;MINX:104.963
;MINY:108.446
;MINZ:0.3
;MAXX:295.036
;MAXY:253.365
;MAXZ:38.42
;Generated with Cura_SteamEngine 5.3.1
M82 ;absolute extrusion mode
; X5SA Start Code
G21 ; Set units to millimeters
G90 ; Set all axis to Absolute
M82 ; Set extrusion to Absolute
M107 ; Disable all fans
M190 S30 ; Set bed temperature and wait
G28 ; Home all axis
; Uncomment the line below to enable ABL Mesh probing
;G29 ; Probe bed mesh for ABL
; For best results do not run nozzle heater while performing ABL
G1 Z5.0 ; Raise nozzle to prevent scratching of heat bed
G1 X0 Y0 ; Move nozzle to Home before heating
M109 S230.0 T0 ; Set nozzle temp and wait
G92 E0 ; Set Extruder position to zero
; Uncomment the following lines to enable nozzle purge line along left edge of bed
;G1 Z2.0 F3000 ; Raise Z axis
;G1 X1.1 Y20 Z0.2 F3600.0 ; Move to purge line start position
;G1 Y290 F1500.0 E15 ; Draw first purge line
;G1 X1.4 F3600.0 ; Move to side
;G1 Y20 F1500.0 E30 ; Draw second purge line
;G92 E0 ; Reset Extruder
;G1 Z2.0 F3000 ; Move Z Axis up little to prevent scratching of Heat Bed
;G1 X5 Y20 Z0.2 F3600.0 ; Move over to finish nozzle wipe
;G92 E0

G92 E0
G92 E0
G1 F2700 E-6
;LAYER_COUNT:80
;LAYER:0
M107
G1 F300 Z0.5
G0 F2700 X109.67 Y112.904 Z0.5
;TYPE:SKIRT
G1 F300 Z0.3
G1 F2700 E0
G1 F1800 X110.057 Y112.549 E0.08363
G1 X110.614 Y112.068 E0.20083
G1 X110.955 Y111.788 E0.2711
G1 X111.692 Y111.235 E0.41783
G1 X112.112 Y110.961 E0.49769
G1 X112.465 Y110.743 E0.56376
G1 X113.17 Y110.334 E0.69355
G1 X113.989 Y109.913 E0.8402
G1 X114.467 Y109.706 E0.92315
G1 X114.81 Y109.568 E0.98203
G1 X115.584 Y109.28 E1.11355
G1 X116.462 Y109.002 E1.26021
G1 X116.944 Y108.884 E1.33924
G1 X117.673 Y108.73 E1.45789
G1 X118.148 Y108.643 E1.53479
G1 X119.06 Y108.517 E1.68141
G1 X119.549 Y108.482 E1.75948
G1 X120.311 Y108.452 E1.88092
G1 X120.759 Y108.446 E1.95227
G1 X121.679 Y108.474 E2.09885
G1 X122.222 Y108.528 E2.18575
G1 X122.952 Y108.624 E2.303
G1 X123.66 Y108.738 E2.4172
G1 X124.188 Y108.835 E2.50269
G1 X126.77 Y109.273 E2.91975
G1 X129.283 Y109.627 E3.3239
G1 X131.787 Y109.907 E3.72514
G1 X134.309 Y110.118 E4.12817
G1 X136.787 Y110.255 E4.52339
G1 X140.607 Y110.333 E5.13185
G1 X153.611 Y110.333 E7.20274
G1 X156.236 Y110.296 E7.62081
G1 X158.744 Y110.189 E8.02057
G1 X161.261 Y110.011 E8.4224
G1 X163.785 Y109.761 E8.82631
G1 X166.293 Y109.44 E9.22897
G1 X168.815 Y109.043 E9.63554
G1 X170.751 Y108.697 E9.94873
G1 X171.581 Y108.569 E10.08247
G1 X172.869 Y108.457 E10.28836
G1 X173.587 Y108.448 E10.40271
G1 X174.139 Y108.457 E10.49063
G1 X175.445 Y108.56 E10.69925
G1 X176.125 Y108.663 E10.80878
G1 X177.605 Y108.928 E11.04822
G1 X180.137 Y109.344 E11.45684
G1 X182.635 Y109.682 E11.85827
G1 X185.163 Y109.953 E12.26316
G1 X187.685 Y110.149 E12.666
G1 X190.206 Y110.275 E13.06797
G1 X193.467 Y110.333 E13.58736
G1 X206.528 Y110.333 E15.66732
G1 X209.152 Y110.296 E16.08524
G1 X211.661 Y110.189 E16.48516
G1 X214.181 Y110.011 E16.88746
G1 X216.696 Y109.762 E17.28993
G1 X219.185 Y109.443 E17.68955
G1 X221.763 Y109.038 E18.10513
G1 X223.667 Y108.697 E18.41316
G1 X224.502 Y108.568 E18.54772
G1 X225.786 Y108.457 E18.75295
G1 X226.504 Y108.448 E18.8673
G1 X227.056 Y108.457 E18.95522
G1 X228.362 Y108.56 E19.16385
G1 X229.042 Y108.663 E19.27337
G1 X230.522 Y108.928 E19.51281
G1 X233.054 Y109.344 E19.92144
G1 X235.552 Y109.682 E20.32287
G1 X238.08 Y109.953 E20.72776
G1 X240.602 Y110.149 E21.13059
G1 X243.123 Y110.275 E21.53256
G1 X246.384 Y110.333 E22.05196
G1 X259.426 Y110.333 E24.12889
G1 X262.05 Y110.296 E24.5468
G1 X264.559 Y110.189 E24.94672
G1 X267.079 Y110.011 E25.34903
G1 X269.594 Y109.762 E25.7515
G1 X272.08 Y109.443 E26.15064
G1 X275.631 Y108.867 E26.72353
G1 X276.715 Y108.674 E26.89887
G1 X277.321 Y108.585 E26.99641
G1 X277.766 Y108.529 E27.06784
G1 X278.683 Y108.454 E27.21436
G1 X279.212 Y108.447 E27.29861
G1 X279.983 Y108.461 E27.42141
G1 X280.394 Y108.479 E27.48692
G1 X281.311 Y108.559 E27.63351
G1 X281.781 Y108.632 E27.70925
G1 X282.563 Y108.778 E27.83594
G1 X283.005 Y108.873 E27.90793
G1 X283.896 Y109.105 E28.05456
G1 X284.394 Y109.272 E28.1382
G1 X285.113 Y109.539 E28.26034
G1 X285.515 Y109.7 E28.3293
G1 X286.354 Y110.079 E28.47591
G1 X286.787 Y110.311 E28.55414
G1 X287.428 Y110.679 E28.67185
G1 X287.803 Y110.907 E28.74174
G1 X288.568 Y111.419 E28.88833
G1 X288.998 Y111.752 E28.97494
G1 X289.346 Y112.036 E29.04647
G1 X289.886 Y112.498 E29.15965
G1 X290.555 Y113.13 E29.30621
G1 X290.881 Y113.482 E29.38261
G1 X291.397 Y114.076 E29.50791
G1 X291.696 Y114.44 E29.58293
G1 X292.249 Y115.176 E29.72953
G1 X292.532 Y115.611 E29.81218
G1 X292.737 Y115.944 E29.87445
G1 X293.147 Y116.651 E30.0046
G1 X293.569 Y117.469 E30.15118
G1 X293.785 Y117.97 E30.23806
G1 X294.024 Y118.577 E30.34195
G1 X294.191 Y119.03 E30.41884
G1 X294.471 Y119.907 E30.56545
G1 X294.603 Y120.445 E30.65366
G1 X294.746 Y121.126 E30.76448
G1 X294.834 Y121.599 E30.84109
G1 X294.963 Y122.511 E30.98778
G1 X295.003 Y123.087 E31.07972
G1 X295.029 Y123.772 E31.18889
G1 X295.036 Y124.221 E31.2604
G1 X295.01 Y125.141 E31.40697
G1 X294.959 Y125.667 E31.49113
G1 X294.864 Y126.4 E31.60883
G1 X294.748 Y127.126 E31.72591
G1 X294.633 Y127.752 E31.82727
G1 X294.199 Y130.322 E32.24234
G1 X293.851 Y132.804 E32.64146
G1 X293.569 Y135.332 E33.04654
G1 X293.36 Y137.859 E33.45034
G1 X293.226 Y140.331 E33.84458
G1 X293.15 Y144.084 E34.44237
G1 X293.15 Y157.094 E36.5142
G1 X293.187 Y159.719 E36.93228
G1 X293.294 Y162.228 E37.3322
G1 X293.472 Y164.744 E37.73387
G1 X293.722 Y167.268 E38.13778
G1 X294.043 Y169.776 E38.54044
G1 X294.44 Y172.298 E38.94701
G1 X294.786 Y174.234 E39.2602
G1 X294.912 Y175.049 E39.39153
G1 X295.024 Y176.315 E39.59393
G1 X295.035 Y177.07 E39.71418
G1 X295.026 Y177.621 E39.80194
G1 X294.924 Y178.922 E40.00975
G1 X294.82 Y179.608 E40.12025
G1 X294.555 Y181.088 E40.35969
G1 X294.139 Y183.62 E40.76831
G1 X293.801 Y186.118 E41.16974
G1 X293.53 Y188.646 E41.57463
G1 X293.334 Y191.168 E41.97747
G1 X293.208 Y193.689 E42.37944
G1 X293.15 Y196.95 E42.89883
G1 X293.149 Y242.174 E50.10073
G1 X293.139 Y242.901 E50.21652
G1 X293.086 Y243.82 E50.36311
G1 X292.954 Y244.731 E50.5097
G1 X292.743 Y245.627 E50.6563
G1 X292.456 Y246.502 E50.80294
G1 X292.093 Y247.348 E50.94955
G1 X291.659 Y248.16 E51.09617
G1 X291.155 Y248.931 E51.24286
G1 X290.587 Y249.655 E51.3894
G1 X289.958 Y250.327 E51.53598
G1 X289.273 Y250.942 E51.68258
G1 X288.537 Y251.495 E51.82919
G1 X287.756 Y251.983 E51.97584
G1 X286.936 Y252.401 E52.12242
G1 X286.082 Y252.746 E52.26909
G1 X285.202 Y253.015 E52.41563
G1 X284.301 Y253.208 E52.56237
G1 X283.388 Y253.321 E52.70888
G1 X282.838 Y253.351 E52.79659
G1 X282.22 Y253.364 E52.89503
G1 X213.246 Y253.364 E63.87911
G1 X212.524 Y253.353 E63.9941
G1 X211.489 Y253.286 E64.15927
G1 X208.856 Y252.987 E64.58127
G1 X206.323 Y252.772 E64.9861
G1 X203.818 Y252.631 E65.38565
G1 X201.271 Y252.56 E65.79141
G1 X198.759 Y252.56 E66.19145
G1 X196.215 Y252.633 E66.59675
G1 X193.696 Y252.776 E66.99854
G1 X191.163 Y252.992 E67.40339
G1 X188.455 Y253.292 E67.83727
G1 X187.588 Y253.352 E67.97567
G1 X186.97 Y253.365 E68.07411
G1 X118.02 Y253.364 E79.05436
G1 X117.322 Y253.355 E79.16553
G1 X116.403 Y253.303 E79.31211
G1 X115.492 Y253.172 E79.45868
G1 X114.596 Y252.962 E79.60524
G1 X113.721 Y252.675 E79.75188
G1 X112.874 Y252.313 E79.89857
G1 X112.062 Y251.879 E80.04519
G1 X111.291 Y251.377 E80.19171
G1 X110.566 Y250.809 E80.33838
G1 X109.893 Y250.18 E80.48507
G1 X109.278 Y249.496 E80.63156
G1 X108.724 Y248.761 E80.77813
G1 X108.236 Y247.98 E80.92479
G1 X107.817 Y247.16 E81.07143
G1 X107.471 Y246.307 E81.21802
G1 X107.201 Y245.427 E81.36461
G1 X107.008 Y244.526 E81.51135
G1 X106.894 Y243.613 E81.65787
G1 X106.863 Y243.042 E81.74894
G1 X106.85 Y242.423 E81.84753
G1 X106.85 Y196.955 E89.08829
G1 X106.813 Y194.33 E89.50636
G1 X106.706 Y191.822 E89.90612
G1 X106.528 Y189.301 E90.30859
G1 X106.278 Y186.783 E90.71155
G1 X105.957 Y184.272 E91.11468
G1 X105.562 Y181.759 E91.51979
G1 X105.214 Y179.816 E91.83414
G1 X105.085 Y178.977 E91.96932
G1 X104.974 Y177.697 E92.17392
G1 X104.965 Y176.979 E92.28827
G1 X104.974 Y176.427 E92.37619
G1 X105.077 Y175.121 E92.58481
G1 X105.18 Y174.441 E92.69434
G1 X105.445 Y172.961 E92.93378
G1 X105.861 Y170.429 E93.3424
G1 X106.199 Y167.931 E93.74383
G1 X106.47 Y165.403 E94.14872
G1 X106.666 Y162.881 E94.55156
G1 X106.792 Y160.36 E94.95353
G1 X106.85 Y157.099 E95.47292
G1 X106.85 Y144.056 E97.55002
G1 X106.813 Y141.431 E97.96809
G1 X106.706 Y138.923 E98.36785
G1 X106.528 Y136.402 E98.77032
G1 X106.278 Y133.884 E99.17328
G1 X105.961 Y131.409 E99.57064
G1 X105.383 Y127.844 E100.14578
G1 X105.199 Y126.814 E100.3124
G1 X105.096 Y126.116 E100.42476
G1 X105.042 Y125.679 E100.49488
G1 X104.969 Y124.761 E100.64154
G1 X104.963 Y124.217 E100.72817
G1 X104.978 Y123.524 E100.83856
G1 X104.998 Y123.066 E100.91156
G1 X105.078 Y122.148 E101.05831
G1 X105.168 Y121.582 E101.14958
G1 X105.294 Y120.924 E101.25627
G1 X105.38 Y120.518 E101.32236
G1 X105.61 Y119.627 E101.4689
G1 X105.786 Y119.098 E101.55768
G1 X105.933 Y118.693 E101.6263
G1 X106.212 Y117.981 E101.74808
G1 X106.59 Y117.141 E101.89477
G1 X106.826 Y116.698 E101.9747
G1 X107.203 Y116.042 E102.09519
G1 X107.431 Y115.668 E102.16494
G1 X107.944 Y114.904 E102.31149
G1 X108.246 Y114.514 E102.39004
G1 X108.73 Y113.926 E102.51133
G0 F1620 X108.738 Y113.916
G0 X109.037 Y113.572
G0 X109.67 Y112.904
G1 F2700 E96.51133
G1 F300 Z0.5
;MESH:frame.STL
G0 F2700 X126.975 Y124.108 Z0.5
;TYPE:WALL-INNER
G1 F300 Z0.3
G1 F2700 E102.51133
G1 F1393.5 X167.192 Y124.108 E110.78385
G0 F2700 X168.567 Y122.733
G1 F1800 X125.6 Y122.733 E117.62633
G1 X125.6 Y125.483 E118.06426
G1 X168.567 Y125.483 E124.90674
G1 X168.567 Y124.121 E125.12364
G0 F1620 X168.567 Y122.733
G1 F2700 E119.12364
G1 F300 Z0.5
G0 F2700 X167.567 Y123.733 Z0.5
G0 X179.892 Y124.108
G1 F300 Z0.3
G1 F2700 E125.12364
G1 F1393.5 X220.108 Y124.108 E133.39596
G1 F2700 E127.39596
G0 X178.517 Y122.733
G1 F2700 E133.39596
G1 F1800 X178.517 Y125.483 E133.8339
G1 X221.483 Y125.483 E140.67621
G1 X221.483 Y122.733 E141.11415
G1 X179.905 Y122.733 E147.73542
G0 F1620 X178.517 Y122.733
G1 F2700 E141.73542
G1 F300 Z0.5
G0 F2700 X179.517 Y123.733 Z0.5
G0 X232.808 Y124.108
G1 F300 Z0.3
G1 F2700 E147.73542
G1 F1393.5 X273.025 Y124.108 E156.00795
G1 F2700 E150.00795
G0 X231.433 Y122.733
G1 F2700 E156.00795
G1 F1800 X231.433 Y125.483 E156.44589
G1 X274.4 Y125.483 E163.28836
G1 X274.4 Y122.733 E163.7263
G1 X232.821 Y122.733 E170.34774
G0 F1620 X231.433 Y122.733
G1 F2700 E164.34774
G1 F300 Z0.5
G0 F2700 X232.433 Y123.733 Z0.5
G0 X279.375 Y130.949
G1 F300 Z0.3
G1 F2700 E170.34774
G1 F1393.5 X279.375 Y170.183 E178.41806
G0 F2700 X279.446 Y171.437
G0 X279.375 Y171.558
G1 F1800 X279.796 Y171.606 E178.48554
G1 X280.275 Y171.799 E178.56778
G1 X280.75 Y172.073 E178.65511
G1 X280.75 Y129.059 E185.50507
G1 X280.275 Y129.333 E185.59239
G1 X279.796 Y129.526 E185.67463
G1 X279.375 Y129.574 E185.74211
G1 X278.954 Y129.525 E185.80961
G1 X278.475 Y129.334 E185.89173
G1 X278.001 Y129.06 E185.97892
G1 X278.001 Y172.072 E192.82856
G1 X278.086 Y172.023 E192.84418
G0 F1620 X278.475 Y171.798
G0 X278.954 Y171.607
G0 X279.375 Y171.558
G1 F2700 E186.84418
G1 F300 Z0.5
G0 F2700 X279.75 Y170.484 Z0.5
G0 X279.375 Y183.866
G1 F300 Z0.3
G1 F2700 E192.84418
G1 F1393.5 X279.375 Y235.133 E203.38967
G1 F1373.2 X279.352 Y235.685 E203.505
G1 F2700 E197.505
G0 X280.75 Y181.976
G1 F2700 E203.505
G1 F1800 X280.275 Y182.25 E203.59232
G1 X279.796 Y182.443 E203.67456
G1 X279.375 Y182.491 E203.74204
G1 X278.954 Y182.442 E203.80954
G1 X278.475 Y182.251 E203.89166
G1 X278.001 Y181.977 E203.97885
G1 X278 Y235.133 E212.44392
G1 X277.967 Y235.542 E212.50926
G1 X277.747 Y236.054 E212.598
G1 X277.477 Y236.403 E212.66827
G1 X277.163 Y236.654 E212.73229
G1 X276.871 Y236.804 E212.78457
G1 X276.511 Y236.907 E212.8442
G1 X276.2 Y236.933 E212.8939
G1 X214.5 Y236.933 E222.71959
G1 X214.5 Y240.965 E223.36169
G1 X280.75 Y240.964 E233.91197
G1 X280.75 Y183.364 E243.08474
G0 F1620 X280.75 Y181.976
G1 F2700 E237.08474
G0 X278.479 Y238.512
G1 F2700 E243.08474
G1 F2011.2 X278.347 Y238.512 E243.10355
G1 X278.279 Y238.628 E243.12272
G1 X278.346 Y238.744 E243.14181
G1 X278.408 Y238.744 E243.15065
G0 F1620 X278.479 Y238.744
G0 X278.547 Y238.628
G0 F2700 X276.864 Y239.643
G1 F1561.8 X277.269 Y239.704 E243.22582
G1 F1712.9 X277.675 Y239.765 E243.29452
G1 F1800 X279.55 Y239.764 E243.59312
G1 X279.55 Y236.88 E244.05239
G1 F1715.6 X279.491 Y236.443 E244.12607
G1 F1568.6 X279.432 Y236.006 E244.20665
G1 F1424.8 X279.352 Y235.685 E244.27321
G1 X279.203 Y235.975 E244.3388
G1 F1638.8 X278.779 Y236.668 E244.4809
G1 F1800 X278.328 Y237.25 E244.59815
G1 X277.805 Y237.668 E244.70477
G1 X277.318 Y237.918 E244.79195
G1 F1633.9 X276.74 Y238.209 E244.90548
G1 F1510.5 X276.2 Y238.241 E245.00814
G1 F1525.4 X215.808 Y238.241 E256.35667
G1 X215.808 Y239.657 E256.62275
G1 X276.2 Y239.657 E267.97128
G1 F1510.5 X276.864 Y239.643 E268.09732
G1 F2700 E262.09732
G1 F300 Z0.5
G0 F2700 X276.864 Y239.643 Z0.5
G0 X121.721 Y238.628
G1 F300 Z0.3
G1 F2700 E268.09732
G1 F2011.2 X121.653 Y238.744 E268.11648
G1 X121.52 Y238.744 E268.13544
G1 X121.453 Y238.628 E268.15453
G1 X121.485 Y238.574 E268.16348
G0 F1620 X121.521 Y238.512
G0 X121.653 Y238.512
G0 F2700 X123.8 Y239.656
G1 F1526.5 X184.192 Y239.657 E279.50399
G1 F1525.4 X184.192 Y238.241 E279.77008
G1 F1526.5 X123.8 Y238.24 E291.11059
G1 F1506.3 X123.201 Y238.201 E291.22483
G1 F1618 X122.678 Y237.924 E291.32968
G1 F1788.1 X122.195 Y237.668 E291.41731
G1 F1800 X121.673 Y237.249 E291.52391
G1 X121.222 Y236.668 E291.64104
G1 F1638.8 X120.797 Y235.975 E291.78323
G1 F1423.9 X120.648 Y235.684 E291.84904
G1 X120.568 Y236.006 E291.91584
G1 F1568.6 X120.509 Y236.443 E291.99642
G1 F1715.6 X120.45 Y236.88 E292.0701
G1 F1800 X120.45 Y239.765 E292.52953
G1 F1788.1 X122.324 Y239.758 E292.82996
G1 F1618 X123.062 Y239.64 E292.96236
G1 F1506.3 X123.8 Y239.656 E293.10284
G1 F2700 E287.10284
G0 X185.5 Y240.965
G1 F2700 E293.10284
G1 F1800 X185.5 Y236.933 E293.74494
G1 X123.8 Y236.933 E303.57063
G1 X123.455 Y236.899 E303.62584
G1 X123.129 Y236.803 E303.67996
G1 X122.837 Y236.654 E303.73216
G1 X122.524 Y236.403 E303.79606
G1 X122.253 Y236.054 E303.86642
G1 X122.035 Y235.546 E303.95446
G1 X122 Y235.132 E304.02062
G1 X122 Y181.976 E312.48569
G1 X121.525 Y182.25 E312.57301
G1 X121.046 Y182.443 E312.65525
G1 X120.625 Y182.491 E312.72273
G1 X120.204 Y182.442 E312.79023
G1 X119.725 Y182.251 E312.87235
G1 X119.251 Y181.977 E312.95954
G1 X119.25 Y240.965 E322.35335
G1 X184.112 Y240.965 E332.68259
G0 F1620 X185.5 Y240.965
G1 F2700 E326.68259
G0 X122.172 Y236.76
G0 X120.648 Y235.684
G1 F2700 E332.68259
G1 F1372.3 X120.625 Y235.132 E332.798
G1 F1393.5 X120.625 Y183.866 E343.34327
G1 F2700 E337.34327
G1 F300 Z0.5
G0 F2700 X120.625 Y183.866 Z0.5
G0 X120.625 Y170.183
G1 F300 Z0.3
G1 F2700 E343.34327
G1 F1393.5 X120.625 Y130.949 E351.4136
G1 F2700 E345.4136
G0 X120.696 Y171.437
G0 X120.625 Y171.558
G1 F2700 E351.4136
G1 F1800 X121.046 Y171.606 E351.48108
G1 X121.525 Y171.799 E351.56332
G1 X122 Y172.073 E351.65065
G1 X122 Y129.059 E358.50061
G1 X121.525 Y129.333 E358.58793
G1 X121.046 Y129.526 E358.67017
G1 X120.625 Y129.574 E358.73765
G1 X120.204 Y129.525 E358.80515
G1 X119.725 Y129.334 E358.88727
G1 X119.251 Y129.06 E358.97446
G1 X119.251 Y172.072 E365.8241
G1 X119.336 Y172.023 E365.83972
G0 F1620 X119.725 Y171.798
G0 X120.204 Y171.607
G0 X120.625 Y171.558
G1 F2700 E359.83972
G0 X120.696 Y171.437
G0 X122.151 Y172.334
G0 X123.2 Y173.059
;TYPE:WALL-OUTER
G1 F2700 E365.83972
G1 F1800 X123.2 Y128.075 E373.0034
G1 X123.399 Y127.628 E373.08132
G1 F1744.7 X123.773 Y127.238 E373.1701
G1 F1600 X124.077 Y126.683 E373.28347
G1 X123.473 Y126.868 E373.39664
G1 F1744.7 X123.01 Y127.091 E373.48107
G1 F1800 X120.814 Y128.358 E373.88481
G1 X120.436 Y128.358 E373.94501
G1 F1797 X117.571 Y126.706 E374.47255
G1 F1703.5 X117.116 Y126.519 E374.55533
G1 F1573.2 X116.887 Y126.367 E374.60541
G1 F1577.8 X117.026 Y126.667 E374.66548
G1 F1708.9 X117.273 Y127.077 E374.74577
