;FLAVOR:Marlin
;TIME:12456
;Filament used: 43.9767m
;Layer height: 0.6
;MINX:14.595
;MINY:64.153
;MINZ:0.4
;MAXX:220.307
;MAXY:171.58
;MAXZ:43.6
;Generated with Cura_SteamEngine 5.3.1
M82 ;absolute extrusion mode
; START G-CODE BEGIN

M104 S230.0 ﻿T0
M140 S60.0

G28 ; Home all axes
G92 E0 ; Reset Extruder
M420 S1 ; Load Mesh

M109 S230.0 ﻿T0
M190 S60.0

G92 E0 ; Reset Extruder

G1 X0.6 Y20 Z0.3 F5000.0 ; Move to start position
G1 X0.6 Y200.0 Z0.3 F1500.0 E15 ; Draw the first line
G1 X0.9 Y200.0 Z0.3 F5000.0 ; Move to side a little
G1 X0.9 Y20 Z0.3 F1500.0 E30 ; Draw the second line
G92 E0 ; Reset Extruder
G1 Z2.0 F3000 ; Move Z Axis up little to prevent scratching of Heat Bed
G1 X5 Y20 Z0.3 F5000.0 ; Move over to prevent blob squish

; START G-CODE END
G92 E0
G92 E0
G1 F2100 E-10
;LAYER_COUNT:73
;LAYER:0
M107
G0 F6000 X16.728 Y69.366 Z0.4
;TYPE:SUPPORT-INTERFACE
G1 F2100 E0
G1 F1200 X18.189 Y69.36 E0.32072
G1 X28.696 Y69.388 E2.62719
G1 X28.698 Y70.613 E2.8961
G1 X28.7 Y72.75 E3.36521
G1 X28.701 Y73.988 E3.63697
G1 X25.879 Y73.979 E4.25645
G1 X16.308 Y74.017 E6.35746
G1 X16.306 Y72.399 E6.71264
G1 X16.448 Y72.398 E6.74381
G1 X16.447 Y71.208 E7.00504
G1 X16.588 Y71.207 E7.03599
G1 X16.587 Y70.244 E7.24738
G1 X16.729 Y70.243 E7.27856
G1 X16.728 Y69.366 E7.47107
G1 F2100 E-2.52893
G0 F6000 X16.724 Y68.301
G0 X205.132 Y69.193
G0 X206.196 Y69.191
G1 F2100 E7.47107
G1 F1200 X216.704 Y69.139 E9.77778
G1 X218.163 Y69.141 E10.09806
G1 X218.164 Y70.017 E10.29036
G1 X218.306 Y70.017 E10.32153
G1 X218.307 Y70.981 E10.53314
G1 X218.449 Y70.981 E10.56431
G1 X218.45 Y72.171 E10.82554
G1 X218.592 Y72.171 E10.85671
G1 X218.594 Y73.791 E11.21233
G1 X209.022 Y73.776 E13.31355
G1 X206.202 Y73.791 E13.93259
G1 X206.203 Y74.699 E14.13191
G1 X206.2 Y72.554 E14.60278
G1 X206.199 Y71.423 E14.85105
G1 X206.196 Y69.191 E15.34101
G1 F2100 E5.34101
G0 F6000 X206.596 Y70.832
G1 F2100 E15.34101
G1 F1200 X209.14 Y73.375 E16.13063
G1 F2100 E6.13063
G0 F6000 X211.724 Y73.38
G1 F2100 E16.13063
G1 F1200 X215.561 Y69.543 E17.3218
G1 F2100 E7.3218
G0 F6000 X212.114 Y69.561
G1 F2100 E17.3218
G1 F1200 X215.939 Y73.386 E18.50925
G1 F2100 E8.50925
G0 F6000 X208.739 Y69.577
G1 F2100 E18.50925
G1 F1200 X206.598 Y71.718 E19.17391
G1 F2100 E9.17391
G0 F6000 X26.06 Y73.577
G1 F2100 E19.17391
G1 F1200 X22.252 Y69.77 E20.35592
G1 F2100 E10.35592
G0 F6000 X25.257 Y69.777
G1 F2100 E20.35592
G1 F1200 X21.438 Y73.596 E21.54151
G1 F2100 E11.54151
G0 F6000 X19.298 Y73.604
G1 F2100 E21.54151
G1 F1200 X16.987 Y71.293 E22.25894
G1 X16.988 Y71.258
G1 X18.486 Y69.76 E22.72399
G1 F2100 E12.72399
;MESH:Body1.stl
G0 F6000 X18.756 Y78.822
G0 X18.737 Y94.196
G0 X59.493 Y170.379
;TYPE:WALL-INNER
G1 F2100 E22.72399
G1 F1200 X59.492 Y169.94 E22.82036
G1 X59.605 Y169.306 E22.96172
G1 X59.879 Y168.822 E23.08381
G1 X60.21 Y168.498 E23.18549
G1 X60.536 Y168.304 E23.26876
G1 X60.828 Y168.198 E23.33696
G1 X61.14 Y168.138 E23.4067
G1 X173.972 Y168.014 E48.17524
G1 X174.288 Y168.073 E48.24581
G1 X174.581 Y168.178 E48.31413
G1 X174.907 Y168.373 E48.39752
G1 X175.24 Y168.695 E48.49921
G1 X175.515 Y169.179 E48.62141
G1 X175.628 Y169.813 E48.76277
G1 X175.629 Y170.248 E48.85826
G1 X176.037 Y170.247 E48.94783
G1 X216.678 Y94.088 E67.89747
G1 X216.659 Y78.099 E71.40733
G1 X208.407 Y78.089 E73.21878
G1 X208.412 Y87.06 E75.18807
G1 X208.277 Y88.976 E75.6097
G1 X207.864 Y90.889 E76.03931
G1 X207.792 Y91.135 E76.09558
G1 X207.117 Y92.953 E76.52128
G1 X206.19 Y94.657 E76.94711
G1 X206.05 Y94.875 E77.00398
G1 X204.962 Y96.33 E77.4028
G1 X204.795 Y96.523 E77.45882
G1 X203.52 Y97.801 E77.85511
G1 X203.326 Y97.97 E77.91159
G1 X201.877 Y99.056 E78.30909
G1 X201.661 Y99.195 E78.36547
G1 X199.949 Y100.128 E78.79347
G1 X198.022 Y100.849 E79.24512
G1 X196.116 Y101.269 E79.67356
G1 X195.863 Y101.306 E79.72968
G1 X194.074 Y101.436 E80.12344
G1 X178.208 Y101.459 E83.60629
G1 X177.454 Y101.359 E83.77326
G1 X177.17 Y101.273 E83.8384
G1 X176.425 Y100.962 E84.01562
G1 X175.735 Y100.438 E84.20581
G1 X175.544 Y100.247 E84.2651
G1 X175.115 Y99.687 E84.41996
G1 X174.967 Y99.43 E84.48506
G1 X174.72 Y98.837 E84.62607
G1 X174.628 Y98.541 E84.69412
G1 X174.529 Y97.79 E84.8604
G1 X174.5 Y72.743 E90.35864
G1 X60.4 Y72.87 E115.40554
G1 X60.428 Y97.914 E120.90312
G1 X60.311 Y98.774 E121.09364
G1 X60.003 Y99.534 E121.27366
G1 X59.845 Y99.815 E121.34442
G1 X59.332 Y100.484 E121.52949
G1 X58.53 Y101.102 E121.75174
G1 X57.75 Y101.423 E121.9369
G1 X57.5 Y101.495 E121.99401
G1 X56.775 Y101.592 E122.15458
G1 X40.898 Y101.608 E125.63985
G1 X38.972 Y101.467 E126.06377
G1 X37.068 Y101.059 E126.49122
G1 X36.824 Y100.988 E126.547
G1 X35.01 Y100.311 E126.97203
G1 X33.302 Y99.386 E127.39842
G1 X33.086 Y99.248 E127.45469
G1 X31.628 Y98.159 E127.85417
G1 X31.434 Y97.991 E127.9105
G1 X30.067 Y96.627 E128.33441
G1 X28.901 Y95.074 E128.76072
G1 X28.762 Y94.857 E128.81728
G1 X27.828 Y93.151 E129.24423
G1 X27.151 Y91.341 E129.66844
G1 X27.078 Y91.094 E129.72498
G1 X26.657 Y89.161 E130.15925
G1 X26.52 Y87.259 E130.57786
G1 X26.506 Y78.289 E132.54693
G1 X18.251 Y78.32 E134.35905
G1 X18.271 Y94.314 E137.87001
G1 X59.075 Y170.38 E156.81853
G1 X59.493 Y170.379 E156.91029
G1 F2100 E146.91029
G0 F6000 X60.693 Y171.577
;TYPE:WALL-OUTER
G1 F2100 E156.91029
G1 F1200 X60.692 Y169.939 E157.26985
G1 X60.729 Y169.727 E157.31709
G1 X60.821 Y169.566 E157.3578
G1 X61.04 Y169.393 E157.41906
G1 X61.22 Y169.342 E157.46013
G1 X173.897 Y169.218 E182.19465
G1 X174.079 Y169.269 E182.23614
G1 X174.298 Y169.441 E182.29727
G1 X174.39 Y169.603 E182.33817
G1 X174.428 Y169.814 E182.38523
G1 X174.429 Y171.45 E182.74436
G1 X176.758 Y171.447 E183.25562
G1 X217.878 Y94.388 E202.42906
G1 X217.857 Y76.901 E206.26776
G1 X208.331 Y76.888 E208.35888
G1 X207.205 Y76.894 E208.60606
G1 X207.215 Y86.976 E210.81923
G1 X207.081 Y88.833 E211.22793
G1 X206.682 Y90.677 E211.64209
G1 X206.023 Y92.453 E212.05792
G1 X205.116 Y94.12 E212.47451
G1 X203.977 Y95.643 E212.89199
G1 X202.606 Y97.01 E213.31699
G1 X201.119 Y98.124 E213.72485
G1 X199.455 Y99.035 E214.14129
G1 X197.684 Y99.697 E214.55633
G1 X195.82 Y100.106 E214.97524
G1 X193.987 Y100.239 E215.37867
G1 X178.267 Y100.257 E218.82948
G1 X177.649 Y100.172 E218.96642
G1 X177.042 Y99.923 E219.11044
G1 X176.474 Y99.487 E219.26762
G1 X176.066 Y98.951 E219.41549
G1 X175.815 Y98.343 E219.55989
G1 X175.729 Y97.705 E219.7012
G1 X175.698 Y71.541 E225.44465
G1 X59.198 Y71.672 E251.01838
G1 X59.228 Y97.82 E256.75831
G1 X59.149 Y98.448 E256.89726
G1 X58.891 Y99.085 E257.04812
G1 X58.472 Y99.633 E257.19955
G1 X57.937 Y100.047 E257.34805
G1 X57.319 Y100.305 E257.49506
G1 X56.681 Y100.392 E257.63641
G1 X40.983 Y100.411 E261.08239
G1 X39.141 Y100.279 E261.48777
G1 X37.282 Y99.876 E261.90533
G1 X35.506 Y99.218 E262.32109
G1 X33.838 Y98.311 E262.73788
G1 X32.314 Y97.173 E263.1554
G1 X30.947 Y95.802 E263.5804
G1 X29.839 Y94.324 E263.98589
G1 X28.921 Y92.646 E264.40576
G1 X28.258 Y90.875 E264.82087
G1 X27.849 Y89.004 E265.24129
G1 X27.717 Y87.173 E265.64427
G1 X27.704 Y77.094 E267.85678
G1 X26.573 Y77.088 E268.10506
G1 X17.05 Y77.125 E270.19553
G1 X17.071 Y94.616 E274.0351
G1 X58.358 Y171.58 E293.20746
G1 X60.693 Y171.577 E293.72003
G0 F6000 X59.622 Y170.508
G0 X59.571 Y168.563
G0 X59.084 Y168.062
;TYPE:SKIN
G1 F1200 X19.375 Y94.036 E312.1603
G1 X19.356 Y79.421 E315.36854
G1 X25.401 Y79.397 E316.69553
G1 X25.413 Y87.26 E318.4216
G1 X25.568 Y89.337 E318.8788
G1 X25.996 Y91.318 E319.3237
G1 X26.103 Y91.686 E319.40783
G1 X26.768 Y93.465 E319.82474
G1 X26.903 Y93.759 E319.89575
G1 X27.796 Y95.392 E320.30432
G1 X28.015 Y95.732 E320.3931
G1 X29.13 Y97.219 E320.8011
G1 X29.356 Y97.478 E320.87655
G1 X30.677 Y98.795 E321.28603
G1 X30.97 Y99.045 E321.37058
G1 X32.419 Y100.127 E321.76755
G1 X32.782 Y100.36 E321.86224
G1 X34.55 Y101.324 E322.30429
G1 X36.633 Y102.093 E322.79171
G1 X38.774 Y102.558 E323.27265
G1 X40.885 Y102.715 E323.73733
G1 X56.837 Y102.695 E327.23907
G1 X57.77 Y102.565 E327.44586
G1 X58.188 Y102.438 E327.54175
G1 X58.94 Y102.119 E327.72107
G1 X59.234 Y101.956 E327.79486
G1 X59.968 Y101.389 E327.99846
G1 X60.224 Y101.127 E328.07887
G1 X60.77 Y100.417 E328.27549
G1 X61.009 Y99.99 E328.38291
G1 X61.312 Y99.246 E328.55925
G1 X61.42 Y98.822 E328.6553
G1 X61.532 Y97.962 E328.84568
G1 X61.504 Y73.975 E334.11123
G1 X173.395 Y73.847 E358.67321
G1 X173.425 Y97.851 E363.9425
G1 X173.527 Y98.628 E364.11453
G1 X173.62 Y99.064 E364.21239
G1 X174.002 Y99.984 E364.43106
G1 X174.228 Y100.345 E364.52456
G1 X174.737 Y100.996 E364.70596
G1 X175.01 Y101.271 E364.79102
G1 X175.703 Y101.799 E364.98227
G1 X176.117 Y102.033 E365.08666
G1 X176.909 Y102.361 E365.27484
G1 X177.336 Y102.455 E365.37082
G1 X178.147 Y102.562 E365.55039
G1 X194.076 Y102.543 E369.04707
G1 X196.143 Y102.392 E369.50203
G1 X198.343 Y101.913 E369.99628
G1 X200.418 Y101.135 E370.48274
G1 X202.186 Y100.168 E370.9251
G1 X202.513 Y99.958 E371.01041
G1 X203.985 Y98.857 E371.41393
G1 X204.311 Y98.573 E371.50884
G1 X205.6 Y97.279 E371.90978
G1 X205.823 Y97.019 E371.98497
G1 X206.93 Y95.542 E372.39015
G1 X207.169 Y95.171 E372.48703
G1 X208.029 Y93.591 E372.88192
G1 X208.186 Y93.247 E372.96492
G1 X208.841 Y91.477 E373.37922
G1 X208.944 Y91.121 E373.46057
G1 X209.368 Y89.147 E373.90378
G1 X209.519 Y87.059 E374.36333
G1 X209.511 Y79.193 E376.09005
G1 X215.555 Y79.203 E377.41681
G1 X215.573 Y93.81 E380.6233
G1 X176.024 Y167.922 E399.06365
G1 X175.572 Y167.484 E399.20181
G1 X175.046 Y167.175 E399.33573
G1 X174.569 Y167.003 E399.44704
G1 X174.139 Y166.927 E399.54289
G1 X173.816 Y166.909 E399.61391
G1 X61.295 Y167.034 E424.31418
G1 X60.976 Y167.051 E424.38431
G1 X60.543 Y167.128 E424.48085
G1 X60.062 Y167.302 E424.59313
G1 X59.545 Y167.613 E424.72557
G1 X59.084 Y168.062 E424.86684
G0 F6000 X59.571 Y168.563
G0 X59.662 Y168.313
G0 X60.367 Y167.937
G0 X59.831 Y166.746
G1 F1200 X58.166 Y165.081 E425.38373
G0 F6000 X57.02 Y165.695
G0 X58.978 Y169.204
G0 X59.516 Y168.533
G0 X59.753 Y168.302
G0 X61.296 Y167.733
G0 X61.219 Y166.437
G1 F1200 X56.202 Y161.42 E426.94122
G0 F6000 X55.056 Y162.034
G0 X53.093 Y158.373
G0 X54.239 Y157.759
G1 F1200 X62.911 Y166.431 E429.63339
G0 F6000 X62.912 Y167.733
G0 X64.607 Y167.731
G0 X64.606 Y166.429
G1 F1200 X52.275 Y154.099 E433.46132
G0 F6000 X51.129 Y154.713
G0 X49.166 Y151.052
G0 X50.312 Y150.438
G1 F1200 X66.301 Y166.428 E438.42516
G0 F6000 X66.302 Y167.729
G0 X67.997 Y167.727
G0 X67.996 Y166.426
G1 F1200 X48.347 Y146.776 E444.52522
G0 F6000 X47.201 Y147.39
G0 X45.238 Y143.73
G0 X46.384 Y143.116
G1 F1200 X69.691 Y166.423 E451.76074
G0 F6000 X69.692 Y167.725
G0 X71.388 Y167.723
G0 X71.387 Y166.422
G1 F1200 X44.42 Y139.455 E460.13247
G0 F6000 X43.274 Y140.069
G0 X41.31 Y136.408
G0 X42.456 Y135.794
G1 F1200 X73.082 Y166.42 E469.64012
G0 F6000 X73.083 Y167.722
G0 X74.778 Y167.72
G0 X74.777 Y166.418
G1 F1200 X40.493 Y132.134 E480.28338
G0 F6000 X39.347 Y132.748
G0 X37.382 Y129.086
G0 X38.528 Y128.472
G1 F1200 X76.472 Y166.416 E492.06286
G0 F6000 X76.473 Y167.718
G0 X78.168 Y167.716
G0 X78.167 Y166.414
G1 F1200 X36.565 Y124.812 E504.97794
G0 F6000 X35.419 Y125.426
G0 X33.455 Y121.765
G0 X34.601 Y121.151
G1 F1200 X79.862 Y166.412 E519.02893
G0 F6000 X79.863 Y167.714
G0 X81.559 Y167.712
G0 X81.558 Y166.411
G1 F1200 X32.637 Y117.49 E534.21615
G0 F6000 X31.491 Y118.104
G0 X29.528 Y114.444
G0 X30.674 Y113.83
G1 F1200 X83.253 Y166.409 E550.53898
G0 F6000 X83.254 Y167.71
G0 X84.949 Y167.708
G0 X84.948 Y166.406
G1 F1200 X28.709 Y110.168 E567.99787
G0 F6000 X27.563 Y110.782
G0 X25.6 Y107.121
G0 X26.746 Y106.507
G1 F1200 X86.643 Y166.405 E586.59267
G0 F6000 X86.644 Y167.707
G0 X88.339 Y167.705
G0 X88.338 Y166.403
G1 F1200 X24.782 Y102.847 E606.32324
G0 F6000 X23.636 Y103.461
G0 X21.673 Y99.8
G0 X22.819 Y99.186
G1 F1200 X90.033 Y166.401 E627.18956
G0 F6000 X90.034 Y167.703
G0 X91.73 Y167.701
G0 X91.729 Y166.399
G1 F1200 X20.855 Y95.525 E649.19195
G0 F6000 X19.709 Y96.139
G0 X18.737 Y94.196
G0 X18.673 Y92.948
G0 X19.973 Y92.947
G1 F1200 X93.424 Y166.397 E671.9942
G0 F6000 X93.425 Y167.699
G0 X95.12 Y167.697
G0 X95.119 Y166.395
G1 F1200 X19.971 Y91.247 E695.32343
G0 F6000 X18.671 Y91.248
G0 X18.669 Y89.549
G0 X19.968 Y89.548
G1 F1200 X96.814 Y166.394 E719.17979
G0 F6000 X96.815 Y167.695
G0 X98.51 Y167.693
G0 X98.509 Y166.392
G1 F1200 X33.615 Y101.497 E739.32588
G0 F6000 X34.236 Y100.356
G0 X36.83 Y101.42
G0 X36.489 Y102.674
G1 F1200 X100.204 Y166.39 E759.10596
G0 F6000 X100.205 Y167.692
G0 X101.901 Y167.69
G0 X101.9 Y166.388
G1 F1200 X38.657 Y103.145 E778.73936
G0 F6000 X38.872 Y101.864
G0 X40.592 Y101.992
G0 X40.496 Y103.287
G1 F1200 X103.595 Y166.386 E798.32805
G0 F6000 X103.596 Y167.688
G0 X105.291 Y167.686
G0 X105.29 Y166.384
G1 F1200 X42.217 Y103.311 E817.90867
G0 F6000 X42.216 Y102.014
G0 X43.911 Y102.012
G0 X43.912 Y103.309
G1 F1200 X106.985 Y166.382 E837.48929
G0 F6000 X106.986 Y167.684
G0 X108.681 Y167.682
G0 X108.68 Y166.38
G1 F1200 X45.606 Y103.306 E857.07022
G0 F6000 X45.605 Y102.01
G0 X47.301 Y102.007
G0 X47.302 Y103.305
G1 F1200 X110.375 Y166.378 E876.65084
G0 F6000 X110.376 Y167.68
G0 X112.072 Y167.679
G0 X112.071 Y166.377
G1 F1200 X48.997 Y103.303 E896.23177
G0 F6000 X48.996 Y102.005
G0 X50.691 Y102.003
G0 X50.692 Y103.301
G1 F1200 X113.766 Y166.375 E915.8127
G0 F6000 X113.767 Y167.677
G0 X115.462 Y167.675
G0 X115.461 Y166.373
G1 F1200 X52.387 Y103.299 E935.39363
G0 F6000 X52.386 Y102.001
G0 X54.081 Y101.999
G0 X54.082 Y103.296
G1 F1200 X117.156 Y166.371 E954.97471
G0 F6000 X117.157 Y167.673
G0 X118.852 Y167.671
G0 X118.851 Y166.369
G1 F1200 X55.777 Y103.294 E974.5558
G0 F6000 X55.776 Y101.997
G0 X57.23 Y101.936
G0 X57.402 Y103.223
G1 F1200 X120.546 Y166.367 E994.15846
G0 F6000 X120.547 Y167.669
G0 X122.243 Y167.667
G0 X122.242 Y166.365
G1 F1200 X58.733 Y102.857 E1013.87428
G0 F6000 X58.229 Y101.662
G0 X59.038 Y101.224
G0 X59.828 Y102.254
G1 F1200 X123.937 Y166.363 E1033.77652
G0 F6000 X123.938 Y167.665
G0 X125.633 Y167.664
G0 X125.632 Y166.361
G1 F1200 X60.727 Y101.456 E1053.92587
G0 F6000 X59.7 Y100.66
G0 X60.3 Y99.824
G0 X61.431 Y100.463
G1 F1200 X127.328 Y166.36 E1074.38318
G0 F6000 X127.329 Y167.662
G0 X129.023 Y167.66
G0 X129.022 Y166.358
G1 F1200 X61.924 Y99.26 E1095.21334
G0 F6000 X60.67 Y98.934
G0 X60.831 Y97.77
G0 X62.131 Y97.769
G1 F1200 X130.717 Y166.356 E1116.50559
G0 F6000 X130.718 Y167.658
G0 X132.414 Y167.656
G0 X132.413 Y166.354
G1 F1200 X62.129 Y96.07 E1138.32482
G0 F6000 X60.829 Y96.071
G0 X60.827 Y94.372
G0 X62.127 Y94.371
G1 F1200 X134.108 Y166.352 E1160.67087
G0 F6000 X134.109 Y167.654
G0 X135.804 Y167.652
G0 X135.803 Y166.35
G1 F1200 X62.125 Y92.672 E1183.54375
G0 F6000 X60.825 Y92.673
G0 X60.824 Y90.974
G0 X62.123 Y90.973
G1 F1200 X137.499 Y166.348 E1206.9436
G0 F6000 X137.5 Y167.651
G0 X139.194 Y167.649
G0 X139.193 Y166.346
G1 F1200 X62.121 Y89.274 E1230.87012
G0 F6000 X60.822 Y89.275
G0 X60.82 Y87.576
G0 X62.12 Y87.575
G1 F1200 X140.888 Y166.344 E1255.32331
G0 F6000 X140.889 Y167.647
G0 X142.585 Y167.645
G0 X142.584 Y166.343
G1 F1200 X62.117 Y85.876 E1280.30379
G0 F6000 X60.818 Y85.877
G0 X60.816 Y84.178
G0 X62.115 Y84.177
G1 F1200 X144.279 Y166.341 E1305.81109
G0 F6000 X144.28 Y167.643
G0 X145.975 Y167.641
G0 X145.974 Y166.339
G1 F1200 X62.113 Y82.478 E1331.84522
G0 F6000 X60.814 Y82.479
G0 X60.812 Y80.78
G0 X62.112 Y80.779
G1 F1200 X147.67 Y166.337 E1358.40616
G0 F6000 X147.671 Y167.639
G0 X149.365 Y167.637
G0 X149.364 Y166.335
G1 F1200 X62.11 Y79.08 E1385.49378
G0 F6000 X60.81 Y79.081
G0 X60.808 Y77.382
G0 X62.108 Y77.381
G1 F1200 X151.059 Y166.333 E1413.10822
G0 F6000 X151.06 Y167.636
G0 X152.756 Y167.634
G0 X152.755 Y166.332
G1 F1200 X62.105 Y75.682 E1441.24994
G0 F6000 X60.806 Y75.683
G0 X60.876 Y73.346
G0 X62.692 Y73.271
G0 X62.693 Y74.572
G1 F1200 X154.45 Y166.329 E1469.73533
G0 F6000 X154.451 Y167.632
G0 X156.146 Y167.63
G0 X156.145 Y166.327
G1 F1200 X64.388 Y74.57 E1498.22072
G0 F6000 X64.387 Y73.27
G0 X66.082 Y73.268
G0 X66.083 Y74.568
G1 F1200 X157.841 Y166.326 E1526.70642
G0 F6000 X157.842 Y167.628
G0 X159.537 Y167.626
G0 X159.536 Y166.324
G1 F1200 X67.778 Y74.566 E1555.19212
G0 F6000 X67.777 Y73.266
G0 X69.472 Y73.264
G0 X69.473 Y74.565
