;FLAVOR:Marlin
;TIME:7526
;Filament used: 24.0533m
;Layer height: 0.6
;MINX:13.73
;MINY:63.019
;MINZ:0.4
;MAXX:221.269
;MAXY:205.357
;MAXZ:7.6
;Generated with Cura_SteamEngine 5.3.1
M82 ;absolute extrusion mode
; START G-CODE BEGIN

M104 S230.0 ﻿T0
M140 S60.0

G28 ; Home all axes
G92 E0 ; Reset Extruder
M420 S1 ; Load Mesh

M109 S230.0 ﻿T0
M190 S60.0

G92 E0 ; Reset Extruder

G1 X0.6 Y20 Z0.3 F5000.0 ; Move to start position
G1 X0.6 Y200.0 Z0.3 F1500.0 E15 ; Draw the first line
G1 X0.9 Y200.0 Z0.3 F5000.0 ; Move to side a little
G1 X0.9 Y20 Z0.3 F1500.0 E30 ; Draw the second line
G92 E0 ; Reset Extruder
G1 Z2.0 F3000 ; Move Z Axis up little to prevent scratching of Heat Bed
G1 X5 Y20 Z0.3 F5000.0 ; Move over to prevent blob squish

; START G-CODE END
G92 E0
G92 E0
G1 F2100 E-6
;LAYER_COUNT:13
;LAYER:0
M107
;MESH:3 inch wheel.stl(3)
G0 F6000 X50.75 Y84.912 Z0.4
;TYPE:WALL-INNER
G1 F2100 E0
G1 F1200 X50.689 Y84.239 E0.14834
G1 X50.688 Y77.329 E1.6652
G1 X50.765 Y76.476 E1.85321
G1 X51.019 Y75.543 E2.06547
G1 X51.41 Y74.709 E2.26767
G1 X51.883 Y74.034 E2.44861
G1 X52.021 Y73.863 E2.49684
G1 F1055.7 X52.3 Y73.352 E2.64211
G1 F896.1 X52.411 Y73.13 E2.71508
G1 F855.1 X52.653 Y72.939 E2.81005
G1 F849.6 X53.172 Y72.565 E3.0084
G1 F930.8 X53.545 Y72.538 E3.11424
G1 F1114.6 X54.084 Y72.392 E3.24622
G1 F1200 X54.357 Y72.274 E3.3115
G1 X55.245 Y72.042 E3.51298
G1 X56.205 Y71.97 E3.72431
G1 X57.003 Y72.046 E3.90027
G1 X57.31 Y72.103 E3.96882
G1 X58.073 Y72.324 E4.14319
G1 X59.708 Y73.004 E4.53191
G1 X61.306 Y73.788 E4.92264
G1 X62.898 Y74.711 E5.3266
G1 X64.379 Y75.707 E5.71838
G1 X64.962 Y76.155 E5.87978
G1 X65.036 Y75.442 E6.03714
G1 X65.092 Y75.197 E6.09231
G1 X65.27 Y74.607 E6.22759
G1 X65.406 Y74.28 E6.30533
G1 X65.701 Y73.728 E6.44272
G1 X65.897 Y73.434 E6.52029
G1 X66.407 Y72.814 E6.69652
G1 X67.164 Y72.193 E6.91145
G1 X67.855 Y71.825 E7.08331
G1 X68.176 Y71.691 E7.15967
G1 X68.978 Y71.445 E7.34381
G1 X68.339 Y70.953 E7.52085
G1 X67.167 Y70.125 E7.83585
G1 X65.997 Y69.37 E8.14152
G1 X64.752 Y68.639 E8.45844
G1 X63.506 Y67.978 E8.76806
G1 X62.233 Y67.369 E9.07784
G1 X60.92 Y66.808 E9.39127
G1 X59.62 Y66.318 E9.69624
G1 X58.248 Y65.866 E10.01334
G1 X56.912 Y65.488 E10.31813
G1 X55.521 Y65.158 E10.63195
G1 X54.097 Y64.884 E10.95028
G1 X52.615 Y64.661 E11.27927
G1 X53.012 Y65.401 E11.46361
G1 X53.147 Y65.728 E11.54127
G1 X53.325 Y66.316 E11.67613
G1 X53.393 Y66.659 E11.75289
G1 X53.455 Y67.281 E11.8901
G1 X53.455 Y67.639 E11.96869
G1 X53.377 Y68.403 E12.13727
G1 X53.095 Y69.369 E12.35818
G1 X52.643 Y70.199 E12.56564
G1 X52.52 Y70.366 E12.61117
G1 F1114.6 X52.242 Y70.851 E12.7433
G1 F930.8 X52.113 Y71.228 E12.85606
G1 F848.1 X51.372 Y71.81 E13.14873
G1 F896.1 X51.177 Y71.833 E13.20645
G1 F1039.7 X50.699 Y71.928 E13.32993
G1 F1179.4 X50.355 Y72.073 E13.41331
G1 F1200 X49.448 Y72.35 E13.62149
G1 X48.488 Y72.442 E13.83319
G1 X47.531 Y72.35 E14.04424
G1 X46.621 Y72.073 E14.25305
G1 F1180.3 X46.278 Y71.927 E14.33624
G1 F1040.5 X45.799 Y71.833 E14.45983
G1 F896.6 X45.604 Y71.81 E14.51751
G1 F848.6 X44.863 Y71.228 E14.81001
G1 F930.8 X44.735 Y70.851 E14.92268
G1 F1114.6 X44.455 Y70.366 E15.05504
G1 F1200 X44.333 Y70.199 E15.10044
G1 X43.882 Y69.369 E15.3078
G1 X43.603 Y68.441 E15.52052
G1 X43.521 Y67.639 E15.69749
G1 X43.521 Y67.281 E15.77608
G1 X43.583 Y66.659 E15.91329
G1 X43.651 Y66.317 E15.98984
G1 X43.827 Y65.734 E16.12352
G1 X43.961 Y65.41 E16.20049
G1 X44.363 Y64.66 E16.38728
G1 X42.846 Y64.889 E16.72406
G1 X41.449 Y65.159 E17.0364
G1 X40.136 Y65.469 E17.33255
G1 X38.729 Y65.866 E17.65347
G1 X37.356 Y66.318 E17.97078
G1 X36.056 Y66.808 E18.27575
G1 X34.743 Y67.369 E18.58919
G1 X33.47 Y67.978 E18.89896
G1 X32.224 Y68.638 E19.20848
G1 X30.979 Y69.369 E19.52541
G1 X29.811 Y70.124 E19.83071
G1 X28.664 Y70.935 E20.13907
G1 X27.997 Y71.448 E20.32379
G1 X28.786 Y71.685 E20.50463
G1 X29.119 Y71.823 E20.58376
G1 X29.817 Y72.197 E20.75759
G1 X30.572 Y72.816 E20.97191
G1 X31.083 Y73.438 E21.14862
G1 X31.276 Y73.728 E21.22509
G1 X31.57 Y74.279 E21.36218
G1 X31.704 Y74.604 E21.43935
G1 X31.911 Y75.282 E21.59496
G1 X31.954 Y75.541 E21.6526
G1 X32.015 Y76.155 E21.78804
G1 X32.692 Y75.639 E21.9749
G1 X34.078 Y74.712 E22.34093
G1 X35.67 Y73.789 E22.74489
G1 X37.268 Y73.004 E23.13572
G1 X38.959 Y72.302 E23.53764
G1 X39.666 Y72.104 E23.69881
G1 X39.985 Y72.044 E23.77006
G1 X40.781 Y71.969 E23.94557
G1 X41.73 Y72.042 E24.15451
G1 X42.619 Y72.274 E24.35619
G1 X42.892 Y72.39 E24.42131
G1 F1114.6 X43.431 Y72.539 E24.55348
G1 F930.8 X43.804 Y72.565 E24.65929
G1 F849.6 X44.323 Y72.939 E24.85764
G1 F855.6 X44.565 Y73.129 E24.95237
G1 F896.6 X44.676 Y73.352 E25.02555
G1 F1056.5 X44.955 Y73.863 E25.17071
G1 F1200 X45.093 Y74.034 E25.21895
G1 X45.555 Y74.693 E25.39562
G1 X45.956 Y75.538 E25.60094
G1 X46.212 Y76.48 E25.81522
G1 X46.288 Y77.342 E26.00518
G1 X46.289 Y84.206 E27.51195
G1 X46.227 Y84.912 E27.66752
G1 X46.501 Y84.733 E27.73937
G1 X46.934 Y84.507 E27.84659
G1 X47.33 Y84.357 E27.93954
G1 X47.805 Y84.238 E28.04703
G1 X48.243 Y84.185 E28.14388
G1 X48.733 Y84.185 E28.25145
G1 X49.17 Y84.239 E28.34811
G1 X49.646 Y84.357 E28.45576
G1 X50.043 Y84.507 E28.54892
G1 X50.476 Y84.733 E28.65614
G1 X50.75 Y84.912 E28.72798
G1 F2100 E22.72798
G0 F6000 X51.281 Y87.314
G0 X51.366 Y88.003
G0 X51.281 Y88.691
G0 X51.035 Y89.34
G0 X50.641 Y89.91
G0 X50.221 Y90.282
G0 X49.431 Y90.691
G0 X48.785 Y90.727
;TYPE:WALL-OUTER
G1 F2100 E28.72798
G1 F1011.9 X48.244 Y90.735 E28.86883
G1 F997.9 X48.071 Y90.728 E28.91453
G1 F2100 E22.91453
G0 F6000 X45.614 Y90.31
G0 X37.076 Y95.413
G0 X36.556 Y95.874
G0 X36.162 Y96.444
G0 X35.916 Y97.093
G0 X35.831 Y97.782
G0 X35.916 Y98.47
G0 X36.162 Y99.119
G0 X36.556 Y99.689
G0 X46.335 Y109.468
G0 X46.854 Y109.928
G0 X47.468 Y110.251
G0 X48.142 Y110.417
G0 X48.533 Y110.417
G0 X51.025 Y110.185
G0 X50.582 Y109.302
G1 F2100 E28.91453
G1 F1090.1 X50.425 Y109.378 E28.95668
G1 F1174.6 X50.194 Y109.547 E29.02087
G1 F1200 X49.981 Y109.734 E29.08309
G1 X49.424 Y110.029 E29.22145
G1 X48.809 Y110.178 E29.36036
G1 X48.171 Y110.178 E29.50041
G1 X47.548 Y110.026 E29.64118
G1 X46.996 Y109.736 E29.77806
G1 X46.783 Y109.549 E29.84028
G1 F1170.7 X46.548 Y109.38 E29.90541
G1 F1086 X46.396 Y109.308 E29.94621
G1 F1002.8 X46.222 Y109.135 E30.01066
G1 F976.9 X46.054 Y108.871 E30.09504
G1 F977.6 X45.884 Y108.472 E30.21191
G1 F994.5 X45.852 Y108.301 E30.25799
G1 F1080.3 X45.882 Y108.026 E30.32544
G1 F1176.5 X45.872 Y107.733 E30.39109
G1 F1200 X45.86 Y107.491 E30.44427
G1 X45.925 Y106.931 E30.56803
G1 X46.154 Y106.333 E30.7086
G1 X46.512 Y105.812 E30.84736
G1 X46.985 Y105.396 E30.98564
G1 F1197 X47.489 Y105.127 E31.11136
G1 F1165 X47.614 Y105.047 E31.14492
G1 F1063.5 X48.145 Y104.828 E31.28718
G1 F1037.5 X47.798 Y104.763 E31.37682
G1 F1133.9 X47.413 Y104.638 E31.47086
G1 F1196 X46.794 Y104.525 E31.60945
G1 F1199 X45.919 Y104.239 E31.8117
G1 F1200 X45.032 Y103.813 E32.0277
G1 X44.216 Y103.265 E32.24347
G1 X43.477 Y102.599 E32.46185
G1 X42.873 Y101.877 E32.66849
G1 X42.346 Y101.041 E32.88542
G1 X41.954 Y100.161 E33.0969
G1 X41.698 Y99.267 E33.30103
G1 F1187.1 X41.644 Y99.008 E33.35974
G1 F1116.3 X41.432 Y98.363 E33.51996
G1 X41.083 Y98.944 E33.6799
G1 F1187.1 X40.687 Y99.528 E33.83647
G1 F1200 X40.206 Y99.953 E33.97737
G1 X39.655 Y100.245 E34.11426
G1 X39.04 Y100.394 E34.25316
G1 F1185.2 X38.319 Y100.396 E34.41341
G1 F1118.9 X37.695 Y100.35 E34.56072
G1 F1021.3 X37.139 Y100.065 E34.72188
G1 F998.6 X37.088 Y99.982 E34.74757
G1 F1089.3 X36.777 Y99.592 E34.8682
G1 F1173.6 X36.381 Y99.018 E35.02473
G1 F1191.1 X36.147 Y98.414 E35.16799
G1 F1200 X36.078 Y97.782 E35.30754
G1 F1196 X36.147 Y97.151 E35.44735
G1 F1186.2 X36.373 Y96.556 E35.5887
G1 F1172.6 X36.777 Y95.969 E35.74877
G1 F1087.6 X37.09 Y95.58 E35.8697
G1 F998.6 X37.14 Y95.499 E35.89481
G1 F1011.9 X37.744 Y95.19 E36.07142
G1 F1091.7 X38.309 Y95.148 E36.20812
G1 F1166.9 X38.442 Y95.164 E36.23836
G1 F1200 X39.039 Y95.169 E36.36942
G1 X39.647 Y95.318 E36.50683
G1 X40.204 Y95.609 E36.64478
G1 X40.684 Y96.031 E36.78508
G1 X41.017 Y96.518 E36.91459
G1 F1128.5 X41.316 Y97.052 E37.05745
G1 F1073.8 X41.421 Y97.331 E37.13057
G1 F1138.3 X41.656 Y96.557 E37.31776
G1 F1200 X41.699 Y96.291 E37.37691
G1 X41.954 Y95.401 E37.58014
G1 X42.347 Y94.524 E37.7911
G1 X42.874 Y93.684 E38.00878
G1 X43.476 Y92.966 E38.21446
G1 X44.216 Y92.299 E38.43315
G1 X44.997 Y91.77 E38.64022
G1 X45.882 Y91.336 E38.8566
G1 X46.763 Y91.049 E39.05999
G1 F1186.2 X47.407 Y90.916 E39.20603
G1 F1110.3 X47.797 Y90.784 E39.30372
G1 F1020.6 X48.071 Y90.728 E39.3759
G1 F1046.5 X47.612 Y90.533 E39.50143
G1 F1141 X47.48 Y90.447 E39.5378
G1 F1186.2 X46.977 Y90.163 E39.66609
G1 F1200 X46.514 Y89.753 E39.80184
G1 X46.154 Y89.23 E39.94122
G1 X45.925 Y88.632 E40.08179
G1 F1198 X45.852 Y88.007 E40.22015
G1 F1194 X45.901 Y87.541 E40.32352
G1 F1117.1 X45.874 Y87.271 E40.3875
G1 F1016.2 X45.929 Y86.991 E40.46147
G1 F986.3 X46.03 Y86.747 E40.532
G1 F980.9 X46.213 Y86.442 E40.62752
G1 F1004.9 X46.399 Y86.256 E40.69647
G1 F1090.9 X46.551 Y86.184 E40.73708
G1 F1173.6 X46.779 Y86.019 E40.80026
G1 F1200 X46.997 Y85.828 E40.86388
G1 X47.553 Y85.538 E41.00154
G1 X48.165 Y85.385 E41.14001
G1 X48.806 Y85.385 E41.28072
G1 X49.424 Y85.538 E41.42048
G1 X49.983 Y85.83 E41.55892
G1 X50.195 Y86.017 E41.62098
G1 F1173.6 X50.426 Y86.184 E41.68496
G1 F1088.4 X50.585 Y86.26 E41.72761
G1 F1002.1 X50.763 Y86.441 E41.79434
G1 F981.6 X50.945 Y86.747 E41.88989
G1 F986.3 X51.046 Y86.99 E41.96017
G1 F1014.1 X51.103 Y87.27 E42.0344
G1 F1115.4 X51.074 Y87.541 E42.09876
G1 F1193 X51.123 Y88.011 E42.2031
G1 F1198 X51.051 Y88.632 E42.34056
G1 F1200 X50.819 Y89.235 E42.48239
G1 X50.463 Y89.753 E42.62036
G1 X49.986 Y90.173 E42.75988
G1 F1176.5 X49.358 Y90.511 E42.91956
G1 F1116.3 X48.798 Y90.73 E43.06146
G1 F1137.4 X49.586 Y90.922 E43.24929
G1 F1200 X49.737 Y90.944 E43.28279
G1 X50.676 Y91.186 E43.49565
G1 X51.538 Y91.535 E43.69979
G1 X52.353 Y92.004 E43.90621
G1 X53.147 Y92.623 E44.12721
G1 X53.794 Y93.292 E44.33151
G1 X54.386 Y94.102 E44.55175
G1 X54.825 Y94.925 E44.75651
G1 X55.173 Y95.87 E44.97757
G1 X55.364 Y96.772 E45.17996
G1 F1190.1 X55.399 Y97.027 E45.23694
G1 F1100.1 X55.538 Y97.733 E45.40924
G1 F1081.1 X55.664 Y97.22 E45.53795
G1 F1167.9 X55.793 Y96.917 E45.61223
G1 F1200 X55.933 Y96.553 E45.69784
G1 X56.291 Y96.04 E45.83516
G1 X56.756 Y95.623 E45.97227
G1 X57.342 Y95.315 E46.1176
G1 X57.936 Y95.169 E46.25187
G1 X58.535 Y95.164 E46.38336
G1 F1167.9 X58.666 Y95.15 E46.41308
G1 F1092.6 X59.232 Y95.19 E46.54989
G1 F1012.7 X59.842 Y95.502 E46.72811
G1 F997.2 X59.889 Y95.579 E46.75194
G1 F1085.2 X60.2 Y95.968 E46.87284
G1 F1180.3 X60.604 Y96.568 E47.03427
G1 F1200 X60.829 Y97.149 E47.17104
G1 X60.898 Y97.782 E47.31082
G1 F1196 X60.829 Y98.413 E47.45062
G1 F1187.1 X60.603 Y99.007 E47.59165
G1 F1173.6 X60.199 Y99.593 E47.75141
G1 F1112 X59.815 Y100.075 E47.8974
G1 F1066.7 X59.281 Y100.351 E48.04585
G1 F1118 X58.658 Y100.397 E48.19303
G1 F1185.2 X57.938 Y100.394 E48.35306
G1 F1200 X57.319 Y100.242 E48.49298
G1 X56.768 Y99.953 E48.62956
G1 X56.305 Y99.543 E48.76532
G1 X55.932 Y99.009 E48.90831
G1 X55.706 Y98.416 E49.04761
G1 X55.639 Y97.853 E49.17207
G1 X55.437 Y97.857 E49.21642
G1 X55.376 Y98.708 E49.40371
G1 X55.183 Y99.648 E49.61436
G1 X54.839 Y100.614 E49.83946
G1 X54.384 Y101.464 E50.0511
G1 X53.832 Y102.225 E50.25747
G1 X53.14 Y102.949 E50.47732
G1 X52.404 Y103.524 E50.68235
G1 X51.538 Y104.028 E50.9023
G1 X50.662 Y104.382 E51.10971
G1 X49.736 Y104.619 E51.31953
G1 X49.58 Y104.641 E51.35411
G1 F1136.5 X48.806 Y104.831 E51.53883
G1 F1114.6 X49.361 Y105.055 E51.68029
G1 F1175.5 X49.487 Y105.129 E51.71303
G1 F1200 X49.983 Y105.388 E51.83586
G1 X50.464 Y105.812 E51.97662
G1 X50.814 Y106.327 E52.1133
G1 X51.05 Y106.928 E52.25504
G1 X51.116 Y107.491 E52.37947
G1 X51.104 Y107.735 E52.4331
G1 F1176.5 X51.094 Y108.025 E52.49807
G1 F1080.3 X51.124 Y108.301 E52.56577
G1 F994.5 X51.093 Y108.471 E52.61154
G1 F982.9 X50.945 Y108.816 E52.71215
G1 F982.3 X50.766 Y109.116 E52.80584
G1 F1003.5 X50.582 Y109.302 E52.87452
G0 F6000 X51.025 Y110.185
G0 X52.493 Y107.08
;TYPE:WALL-INNER
G1 F882.9 X53.286 Y106.541 E53.16059
G1 F885.1 X54.145 Y106.01 E53.46116
G1 F885.6 X54.873 Y105.456 E53.73327
G1 F887.8 X55.181 Y105.183 E53.85539
G1 F887.2 X55.546 Y104.84 E54.0041
G1 F885.1 X56.16 Y104.172 E54.27414
G1 F885.6 X56.716 Y103.436 E54.54851
G1 F887.8 X56.957 Y103.057 E54.68177
G1 X57.237 Y102.595 E54.84206
G1 F884.5 X57.769 Y101.813 E55.12373
G1 X56.933 Y101.607 E55.38015
G1 X56.607 Y101.466 E55.48593
G1 F886.2 X56.127 Y101.208 E55.64792
G1 F889.4 X55.583 Y102.206 E55.98455
G1 F887.8 X55.386 Y102.494 E56.08809
G1 F885.6 X54.909 Y103.138 E56.32646
G1 F885.1 X54.382 Y103.699 E56.55555
G1 F887.2 X54.09 Y103.989 E56.67773
G1 F887.8 X53.853 Y104.188 E56.76956
G1 F885.6 X53.186 Y104.706 E57.02076
G1 F885.1 X52.165 Y105.297 E57.37187
G1 F882.9 X51.903 Y105.409 E57.45688
G1 X52.055 Y105.645 E57.54064
G1 X52.171 Y105.898 E57.62368
G1 X52.346 Y106.354 E57.76941
G1 X52.464 Y106.839 E57.91833
G1 X52.493 Y107.08 E57.99076
G1 F2100 E51.99076
G0 F6000 X50.122 Y105.193
G0 X49.429 Y104.874
G0 X48.791 Y104.835
;TYPE:WALL-OUTER
G1 F2100 E57.99076
G1 F1006.3 X48.145 Y104.828 E58.15987
G0 F6000 X47.521 Y104.877
G0 X46.982 Y105.131
G0 X44.484 Y107.113
;TYPE:WALL-INNER
G1 F887.8 X44.516 Y106.839 E58.24172
G1 X44.634 Y106.355 E58.38954
G1 X44.808 Y105.899 E58.53436
G1 X45.069 Y105.401 E58.70118
G1 F886.7 X44.315 Y105.033 E58.95044
G1 F884.5 X43.744 Y104.655 E59.15437
G1 X43.301 Y104.344 E59.31557
G1 F885.1 X42.496 Y103.62 E59.6378
G1 F884 X42.071 Y103.125 E59.83222
G1 X41.694 Y102.661 E60.01038
G1 F885.6 X41.091 Y101.686 E60.35137
G1 F886.2 X40.871 Y101.199 E60.51022
G1 X40.264 Y101.521 E60.71448
G1 X40.009 Y101.614 E60.79516
G1 X39.203 Y101.809 E61.04167
G1 X39.716 Y102.564 E61.31301
G1 F885.6 X40.261 Y103.439 E61.61963
G1 F884 X40.819 Y104.171 E61.89391
G1 F885.1 X41.428 Y104.842 E62.16361
G1 F885.6 X42.102 Y105.456 E62.4348
G1 F886.7 X42.388 Y105.679 E62.54254
G1 F886.2 X42.826 Y106.002 E62.70432
G1 X43.396 Y106.366 E62.90536
G1 F888.3 X43.683 Y106.539 E63.00473
G1 F887.8 X44.288 Y106.951 E63.22191
G1 X44.484 Y107.113 E63.29736
G1 F2100 E57.29736
G0 F6000 X42.011 Y102.595
G0 X41.016 Y100.649
G0 X41.421 Y98.33
;TYPE:WALL-OUTER
G1 F2100 E63.29736
G1 F987 X41.45 Y97.777 E63.44516
G1 F993.8 X41.424 Y97.343 E63.5604
G0 F6000 X41.016 Y94.914
G0 X40.871 Y94.363
;TYPE:WALL-INNER
G1 F886.2 X41.096 Y93.868 E63.72204
G1 F885.6 X41.695 Y92.9 E64.06063
G1 F884.5 X42.071 Y92.438 E64.23803
G1 F884 X42.499 Y91.941 E64.43348
G1 F885.1 X43.299 Y91.222 E64.75362
G1 F884 X43.752 Y90.903 E64.91872
G1 F884.5 X44.315 Y90.531 E65.11968
G1 F886.7 X45.069 Y90.162 E65.36906
G1 F887.8 X44.808 Y89.664 E65.53589
G1 X44.634 Y89.208 E65.68071
G1 X44.516 Y88.724 E65.82852
G1 X44.484 Y88.448 E65.91097
G1 X44.28 Y88.616 E65.98938
G1 X43.759 Y88.973 E66.17678
G1 F885.6 X42.833 Y89.555 E66.5021
G1 X42.385 Y89.885 E66.6676
G1 F886.7 X42.103 Y90.106 E66.77404
G1 F885.6 X41.428 Y90.721 E67.04565
G1 F887.8 X41.238 Y90.923 E67.12794
G1 F886.2 X40.82 Y91.392 E67.31469
G1 X40.461 Y91.854 E67.48861
G1 F887.2 X40.259 Y92.127 E67.58944
G1 F885.6 X39.743 Y92.961 E67.88115
G1 F886.2 X39.194 Y93.768 E68.17129
G1 X39.443 Y93.811 E68.2464
G1 X40.131 Y93.986 E68.45743
G1 X40.871 Y94.363 E68.70431
G0 F6000 X46.335 Y86.095
G0 X46.855 Y85.634
G0 X47.468 Y85.313
G0 X48.141 Y85.146
G0 X48.835 Y85.146
G0 X49.509 Y85.313
G0 X50.122 Y85.635
G0 X50.416 Y85.895
G0 X57.769 Y93.75
G1 F884 X57.299 Y93.062 E68.9526
G1 F887.2 X56.958 Y92.505 E69.1465
G1 X56.715 Y92.125 E69.28042
G1 F885.1 X56.165 Y91.395 E69.55245
G1 X55.546 Y90.723 E69.82438
G1 F887.2 X55.188 Y90.387 E69.97015
G1 X54.873 Y90.107 E70.09528
G1 F885.6 X54.145 Y89.553 E70.36739
G1 F885.1 X53.289 Y89.025 E70.66672
G1 F883.4 X52.493 Y88.483 E70.95387
G1 X52.465 Y88.724 E71.02621
G1 X52.346 Y89.209 E71.17512
G1 X52.087 Y89.869 E71.38653
G1 X51.903 Y90.154 E71.48768
G1 X52.164 Y90.266 E71.57237
G1 F884.5 X53.183 Y90.855 E71.92288
G1 F887.8 X54.049 Y91.534 E72.2494
G1 F886.7 X54.384 Y91.865 E72.38931
