;FLAVOR:Marlin
;TIME:12061
;Filament used: 46.4458m
;Layer height: 0.6
;MINX:24.1
;MINY:25.041
;MINZ:0.32
;MAXX:261.285
;MAXY:256.353
;MAXZ:23.72
;Generated with Cura_SteamEngine 5.3.1
M140 S50
M105
M190 S50
M104 S200
M105
M109 S200
M82 ;absolute extrusion mode
G28 ; home all axes
G92 X-5.0 Y-10.0 ; set home offsets
M92 E136.8 ; Set E Steps to 136.8
G1 X0 Y0 Z0.2 F3000 ; get ready to prime
G92 E0 ; reset extrusion distance
G92 E0
G92 E0
G1 F2700 E-5
;LAYER_COUNT:40
;LAYER:0
M107
G0 F6000 X44.988 Y55.62 Z0.32
;TYPE:SKIRT
G1 F2700 E0
G1 F1200 X45.333 Y55.346 E0.04689
G1 X46.349 Y54.573 E0.18277
G1 X47.598 Y53.662 E0.3473
G1 X47.958 Y53.411 E0.39401
G1 X49.012 Y52.71 E0.52874
G1 X49.987 Y52.084 E0.65206
G1 X50.704 Y51.644 E0.74159
G1 X51.828 Y50.995 E0.87973
G1 X53.156 Y50.263 E1.04112
G1 X53.547 Y50.058 E1.08811
G1 X54.701 Y49.486 E1.2252
G1 X55.56 Y49.077 E1.32646
G1 X56.523 Y48.64 E1.43901
G1 X57.505 Y48.227 E1.55239
G1 X58.606 Y47.784 E1.67871
G1 X59.559 Y47.423 E1.78717
G1 X60.687 Y47.031 E1.91427
G1 X61.721 Y46.691 E2.03012
G1 X62.323 Y46.502 E2.09727
G1 X63.681 Y46.119 E2.24745
G1 X65.417 Y45.676 E2.43813
G1 X65.832 Y45.579 E2.48349
G1 X67.007 Y45.333 E2.61126
G1 X68.164 Y45.11 E2.73667
G1 X69.026 Y44.963 E2.82974
G1 X70.305 Y44.779 E2.96727
G1 X71.84 Y44.591 E3.13186
G1 X72.263 Y44.548 E3.17712
G1 X73.534 Y44.447 E3.31282
G1 X75.08 Y44.355 E3.47765
G1 X75.52 Y44.339 E3.52452
G1 X76.805 Y44.319 E3.6613
G1 X78.375 Y44.327 E3.8284
G1 X78.803 Y44.338 E3.87397
G1 X79.883 Y44.388 E3.98904
G1 X81.181 Y44.47 E4.12746
G1 X82.064 Y44.544 E4.22177
G1 X83.267 Y44.677 E4.35059
G1 X84.421 Y44.825 E4.47442
G1 X85.304 Y44.956 E4.56943
G1 X86.503 Y45.167 E4.699
G1 X87.493 Y45.358 E4.80631
G1 X88.513 Y45.574 E4.91728
G1 X89.74 Y45.871 E5.05164
G1 X91.25 Y46.272 E5.21793
G1 X91.649 Y46.387 E5.26212
G1 X92.882 Y46.769 E5.39951
G1 X93.756 Y47.056 E5.49742
G1 X94.972 Y47.474 E5.63427
G1 X96.527 Y48.039 E5.81036
G1 X98.919 Y48.835 E6.07867
G1 X101.365 Y49.573 E6.3506
G1 X103.802 Y50.233 E6.61932
G1 X106.305 Y50.836 E6.89334
G1 X108.757 Y51.353 E7.16005
G1 X111.234 Y51.804 E7.42802
G1 X113.758 Y52.189 E7.69976
G1 X116.269 Y52.5 E7.96905
G1 X118.782 Y52.74 E8.23774
G1 X121.326 Y52.909 E8.5091
G1 X123.856 Y53.007 E8.77857
G1 X126.375 Y53.031 E9.04669
G1 X128.894 Y52.986 E9.31483
G1 X131.459 Y52.866 E9.58813
G1 X133.964 Y52.679 E9.85549
G1 X136.494 Y52.417 E10.1262
G1 X139.034 Y52.082 E10.39888
G1 X141.501 Y51.684 E10.66484
G1 X144 Y51.21 E10.93556
G1 X146.456 Y50.671 E11.20318
G1 X148.926 Y50.055 E11.47412
G1 X151.374 Y49.37 E11.74467
G1 X153.785 Y48.621 E12.01338
G1 X156.201 Y47.796 E12.2851
G1 X158.559 Y46.915 E12.55301
G1 X160.909 Y45.96 E12.82299
G1 X163.253 Y44.93 E13.09549
G1 X165.503 Y43.864 E13.36048
G1 X167.798 Y42.695 E13.63461
G1 X169.983 Y41.505 E13.89942
G1 X172.223 Y40.2 E14.17533
G1 X174.336 Y38.888 E14.44005
G1 X176.507 Y37.454 E14.71697
G1 X179.366 Y35.48 E15.08675
G1 X180.681 Y34.614 E15.25433
G1 X181.049 Y34.383 E15.30057
G1 X182.126 Y33.739 E15.43413
G1 X183.467 Y32.972 E15.59855
G1 X183.844 Y32.767 E15.64423
G1 X185.017 Y32.162 E15.7847
G1 X186.419 Y31.477 E15.95078
G1 X186.801 Y31.3 E15.99559
G1 X187.965 Y30.79 E16.13084
G1 X188.817 Y30.434 E16.22912
G1 X189.84 Y30.027 E16.3463
G1 X190.765 Y29.688 E16.45116
G1 X191.955 Y29.274 E16.58526
G1 X192.869 Y28.977 E16.68754
G1 X193.894 Y28.673 E16.80133
G1 X195.626 Y28.201 E16.9924
G1 X196.029 Y28.1 E17.03661
G1 X197.238 Y27.825 E17.16858
G1 X198.421 Y27.578 E17.2972
G1 X199.228 Y27.427 E17.38458
G1 X200.273 Y27.258 E17.49725
G1 X202.013 Y27.013 E17.68427
G1 X202.443 Y26.962 E17.73036
G1 X203.521 Y26.857 E17.84563
G1 X205.299 Y26.722 E18.03542
G1 X205.724 Y26.699 E18.08072
G1 X206.999 Y26.659 E18.21648
G1 X208.574 Y26.641 E18.38413
G1 X209.005 Y26.645 E18.43
G1 X210.271 Y26.685 E18.56481
G1 X211.83 Y26.767 E18.73097
G1 X212.249 Y26.798 E18.77569
G1 X213.477 Y26.914 E18.90697
G1 X214.491 Y27.027 E19.01556
G1 X215.515 Y27.161 E19.12547
G1 X216.703 Y27.35 E19.2535
G1 X217.898 Y27.561 E19.38266
G1 X218.738 Y27.728 E19.47381
G1 X219.91 Y27.992 E19.60168
G1 X221.058 Y28.271 E19.72742
G1 X221.876 Y28.488 E19.81749
G1 X222.948 Y28.8 E19.93632
G1 X224.159 Y29.177 E20.07131
G1 X225.042 Y29.471 E20.17036
G1 X226.172 Y29.881 E20.2983
G1 X227.271 Y30.301 E20.42352
G1 X228.072 Y30.626 E20.51553
G1 X229.03 Y31.043 E20.62673
G1 X230.674 Y31.801 E20.81941
G1 X231.064 Y31.991 E20.86558
G1 X232.172 Y32.563 E20.99829
G1 X233.515 Y33.289 E21.16078
G1 X233.896 Y33.506 E21.20745
G1 X234.845 Y34.072 E21.32505
G1 X236.332 Y35.001 E21.51167
G1 X236.698 Y35.241 E21.55825
G1 X237.771 Y35.98 E21.69691
G1 X239.031 Y36.887 E21.86215
G1 X239.371 Y37.143 E21.90745
G1 X240.336 Y37.901 E22.03805
G1 X241.107 Y38.528 E22.14382
G1 X241.91 Y39.206 E22.25568
G1 X242.861 Y40.056 E22.39143
G1 X243.991 Y41.109 E22.55582
G1 X244.303 Y41.412 E22.60211
G1 X245.061 Y42.18 E22.71696
G1 X246.258 Y43.443 E22.90216
G1 X246.56 Y43.776 E22.95001
G1 X247.276 Y44.602 E23.06636
G1 X248.401 Y45.952 E23.25339
G1 X248.671 Y46.29 E23.29943
G1 X249.419 Y47.274 E23.43099
G1 X250.331 Y48.524 E23.59567
G1 X250.577 Y48.877 E23.64147
G1 X251.197 Y49.805 E23.76025
G1 X252.135 Y51.275 E23.94584
G1 X252.354 Y51.635 E23.99069
G1 X252.989 Y52.734 E24.12578
G1 X253.74 Y54.096 E24.29132
G1 X253.946 Y54.49 E24.33864
G1 X254.514 Y55.636 E24.47477
G1 X254.991 Y56.64 E24.59308
G1 X255.363 Y57.464 E24.6893
G1 X255.841 Y58.603 E24.82077
G1 X256.281 Y59.703 E24.94686
G1 X256.567 Y60.462 E25.03319
G1 X256.943 Y61.543 E25.15501
G1 X257.474 Y63.178 E25.33797
G1 X257.601 Y63.6 E25.38487
G1 X257.932 Y64.798 E25.51716
G1 X258.222 Y65.919 E25.6404
G1 X258.412 Y66.72 E25.72801
G1 X258.632 Y67.755 E25.84063
G1 X258.862 Y68.94 E25.96911
G1 X259.042 Y69.974 E26.08082
G1 X259.225 Y71.245 E26.21749
G1 X259.415 Y72.794 E26.38359
G1 X259.458 Y73.216 E26.42873
G1 X259.554 Y74.425 E26.55781
G1 X259.649 Y76.02 E26.72788
G1 X259.665 Y76.461 E26.77484
G1 X259.685 Y77.745 E26.91152
G1 X259.677 Y79.338 E27.08107
G1 X259.666 Y79.766 E27.12664
G1 X259.619 Y80.784 E27.2351
G1 X259.534 Y82.126 E27.37822
G1 X259.461 Y82.996 E27.47114
G1 X259.344 Y84.059 E27.58496
G1 X259.199 Y85.202 E27.70759
G1 X259.043 Y86.271 E27.82257
G1 X258.876 Y87.23 E27.92617
G1 X258.619 Y88.568 E28.07118
G1 X258.43 Y89.451 E28.16729
G1 X258.13 Y90.687 E28.30266
G1 X257.737 Y92.173 E28.46626
G1 X257.62 Y92.584 E28.51174
G1 X257.303 Y93.61 E28.62603
G1 X256.9 Y94.839 E28.76369
G1 X256.583 Y95.744 E28.86575
G1 X256.169 Y96.83 E28.98945
G1 X255.779 Y97.806 E29.10131
G1 X255.386 Y98.734 E29.20858
G1 X254.846 Y99.917 E29.34698
G1 X254.169 Y101.322 E29.51297
G1 X253.973 Y101.709 E29.55915
G1 X253.396 Y102.786 E29.68919
G1 X252.886 Y103.702 E29.80077
G1 X252.564 Y104.262 E29.86952
G1 X251.734 Y105.613 E30.03828
G1 X249.714 Y108.757 E30.43602
G1 X248.394 Y110.947 E30.70817
G1 X247.153 Y113.143 E30.97664
G1 X245.982 Y115.359 E31.2434
G1 X244.839 Y117.681 E31.51885
G1 X243.805 Y119.938 E31.78308
G1 X242.808 Y122.292 E32.05517
G1 X241.878 Y124.666 E32.32653
G1 X241.036 Y127.012 E32.59182
G1 X240.237 Y129.452 E32.86508
G1 X239.515 Y131.889 E33.1356
G1 X238.872 Y134.311 E33.40231
G1 X238.283 Y136.811 E33.67568
G1 X237.779 Y139.255 E33.94127
G1 X237.329 Y141.804 E34.21676
G1 X236.969 Y144.248 E34.47969
G1 X236.666 Y146.799 E34.75311
G1 X236.439 Y149.32 E35.02251
G1 X236.282 Y151.85 E35.2923
G1 X236.198 Y154.364 E35.56002
G1 X236.185 Y156.923 E35.83239
G1 X236.244 Y159.451 E36.10152
G1 X236.373 Y161.966 E36.36955
G1 X236.576 Y164.513 E36.64149
G1 X236.846 Y167 E36.90775
G1 X237.194 Y169.54 E37.18061
G1 X237.611 Y172.049 E37.45131
G1 X238.087 Y174.494 E37.71643
G1 X238.348 Y175.739 E37.85181
G1 X238.532 Y176.712 E37.95721
G1 X238.734 Y177.966 E38.0924
G1 X238.873 Y178.931 E38.19616
G1 X239.006 Y179.991 E38.30987
G1 X239.1 Y180.964 E38.41391
G1 X239.202 Y182.227 E38.54877
G1 X239.26 Y183.182 E38.6506
G1 X239.297 Y184.276 E38.7671
G1 X239.319 Y186.052 E38.95614
G1 X239.315 Y186.484 E39.00212
G1 X239.277 Y187.704 E39.13203
G1 X239.23 Y188.705 E39.23869
G1 X239.159 Y189.777 E39.35303
G1 X239.048 Y190.937 E39.47706
G1 X238.934 Y191.959 E39.58651
G1 X238.799 Y192.999 E39.69813
G1 X238.601 Y194.241 E39.83198
G1 X238.323 Y195.772 E39.9976
G1 X238.24 Y196.181 E40.04202
G1 X237.96 Y197.428 E40.17804
G1 X237.731 Y198.375 E40.28174
G1 X237.464 Y199.391 E40.39354
G1 X237.132 Y200.525 E40.51931
G1 X236.819 Y201.535 E40.63185
G1 X236.503 Y202.488 E40.73871
G1 X236.073 Y203.673 E40.87288
G1 X235.724 Y204.587 E40.97701
G1 X235.33 Y205.562 E41.08893
G1 X234.816 Y206.736 E41.22533
G1 X234.164 Y208.145 E41.39057
G1 X233.981 Y208.52 E41.43498
G1 X233.423 Y209.607 E41.56503
G1 X232.905 Y210.574 E41.68179
G1 X232.436 Y211.408 E41.78362
G1 X231.801 Y212.47 E41.91532
G1 X230.955 Y213.82 E42.08488
G1 X230.721 Y214.176 E42.13023
G1 X230.12 Y215.053 E42.24338
G1 X229.432 Y216.022 E42.36987
G1 X228.811 Y216.86 E42.48088
G1 X228.071 Y217.801 E42.60829
G1 X227.333 Y218.708 E42.73274
G1 X226.743 Y219.406 E42.83002
G1 X225.971 Y220.271 E42.95341
G1 X225.227 Y221.076 E43.07008
G1 X224.762 Y221.566 E43.14198
G1 X223.833 Y222.492 E43.28158
G1 X222.501 Y223.753 E43.4768
G1 X222.186 Y224.04 E43.52216
G1 X221.199 Y224.895 E43.66114
G1 X220.023 Y225.872 E43.82387
G1 X219.683 Y226.142 E43.87007
G1 X218.705 Y226.886 E44.00086
G1 X217.865 Y227.505 E44.11192
G1 X217.042 Y228.087 E44.2192
G1 X216.034 Y228.758 E44.34808
G1 X215.16 Y229.32 E44.45867
G1 X214.314 Y229.841 E44.56442
G1 X213.192 Y230.489 E44.70232
G1 X211.859 Y231.224 E44.86434
G1 X211.469 Y231.429 E44.91123
G1 X210.488 Y231.917 E45.02784
G1 X209.319 Y232.474 E45.16567
G1 X208.49 Y232.848 E45.26246
G1 X207.366 Y233.319 E45.39217
G1 X206.375 Y233.717 E45.50583
G1 X205.504 Y234.047 E45.60497
G1 X204.475 Y234.406 E45.72096
G1 X203.145 Y234.844 E45.86999
G1 X202.39 Y235.074 E45.954
G1 X201.338 Y235.367 E46.07022
G1 X199.593 Y235.812 E46.26189
G1 X199.178 Y235.909 E46.30725
G1 X198.021 Y236.151 E46.43306
G1 X197.02 Y236.344 E46.54156
G1 X196 Y236.521 E46.65174
G1 X194.696 Y236.709 E46.79197
G1 X193.189 Y236.894 E46.95357
G1 X192.764 Y236.937 E46.99903
G1 X191.68 Y237.025 E47.11478
G1 X189.927 Y237.13 E47.30169
G1 X189.507 Y237.146 E47.34643
G1 X188.214 Y237.167 E47.48406
G1 X186.649 Y237.159 E47.65063
G1 X186.219 Y237.148 E47.69641
G1 X185.122 Y237.097 E47.81329
G1 X183.369 Y236.978 E48.0003
G1 X182.954 Y236.941 E48.04464
G1 X181.75 Y236.808 E48.17357
G1 X180.738 Y236.679 E48.28215
G1 X180.033 Y236.579 E48.35794
G1 X178.697 Y236.351 E48.50219
G1 X174.697 Y235.578 E48.93579
G1 X172.178 Y235.166 E49.20746
G1 X169.659 Y234.826 E49.47799
G1 X167.147 Y234.559 E49.74686
G1 X164.595 Y234.361 E50.01929
G1 X162.115 Y234.239 E50.28356
G1 X159.552 Y234.184 E50.55641
G1 X157 Y234.203 E50.82803
G1 X154.506 Y234.292 E51.09364
G1 X151.957 Y234.455 E51.36549
G1 X149.453 Y234.686 E51.63313
G1 X146.892 Y234.996 E51.90769
G1 X144.441 Y235.363 E52.17147
G1 X141.898 Y235.818 E52.44642
G1 X139.434 Y236.332 E52.71432
G1 X136.998 Y236.909 E52.98076
G1 X134.521 Y237.574 E53.25373
G1 X132.126 Y238.289 E53.51975
G1 X129.669 Y239.099 E53.7951
G1 X127.3 Y239.955 E54.0632
G1 X124.961 Y240.875 E54.33071
G1 X122.602 Y241.882 E54.6037
G1 X120.33 Y242.928 E54.86991
G1 X118.043 Y244.062 E55.1416
G1 X115.837 Y245.233 E55.40742
G1 X112.707 Y247.032 E55.79166
G1 X111.857 Y247.543 E55.89722
G1 X110.763 Y248.176 E56.03174
G1 X109.944 Y248.628 E56.1313
G1 X108.81 Y249.214 E56.26716
G1 X107.41 Y249.9 E56.43309
G1 X107.02 Y250.082 E56.4789
G1 X106.001 Y250.53 E56.59737
G1 X104.973 Y250.961 E56.71601
G1 X103.952 Y251.367 E56.83295
G1 X103.027 Y251.706 E56.93781
G1 X101.837 Y252.12 E57.07191
G1 X100.923 Y252.417 E57.17419
G1 X99.662 Y252.788 E57.31409
G1 X98.164 Y253.194 E57.47928
G1 X97.765 Y253.293 E57.52303
G1 X96.568 Y253.566 E57.65371
G1 X95.497 Y253.79 E57.77016
G1 X94.547 Y253.969 E57.87305
G1 X93.34 Y254.162 E58.00315
G1 X91.763 Y254.382 E58.17262
G1 X91.327 Y254.434 E58.21935
G1 X90.111 Y254.55 E58.34936
G1 X89.048 Y254.635 E58.46286
G1 X88.064 Y254.695 E58.56778
G1 X87.034 Y254.73 E58.67747
G1 X85.221 Y254.753 E58.87045
G1 X84.781 Y254.749 E58.91728
G1 X83.522 Y254.708 E59.05135
G1 X81.953 Y254.626 E59.21857
G1 X81.526 Y254.595 E59.26414
G1 X80.327 Y254.481 E59.39232
G1 X79.154 Y254.349 E59.51796
G1 X78.275 Y254.233 E59.61232
G1 X77.235 Y254.068 E59.7244
G1 X75.511 Y253.759 E59.91081
G1 X75.083 Y253.672 E59.9573
G1 X73.853 Y253.395 E60.09149
G1 X72.734 Y253.123 E60.21405
G1 X71.916 Y252.906 E60.30413
G1 X70.844 Y252.594 E60.42295
G1 X69.148 Y252.058 E60.61226
G1 X68.757 Y251.926 E60.65619
G1 X67.773 Y251.57 E60.76756
G1 X66.687 Y251.157 E60.89122
G1 X65.711 Y250.763 E61.00324
G1 X64.555 Y250.257 E61.13755
G1 X63.15 Y249.609 E61.30223
G1 X62.756 Y249.417 E61.34887
G1 X61.827 Y248.94 E61.46002
G1 X60.238 Y248.082 E61.65222
G1 X59.862 Y247.869 E61.69822
G1 X58.801 Y247.233 E61.82988
G1 X57.429 Y246.373 E62.00222
G1 X57.069 Y246.137 E62.04803
G1 X56.263 Y245.584 E62.15207
G1 X54.793 Y244.53 E62.34458
G1 X54.448 Y244.271 E62.3905
G1 X53.446 Y243.484 E62.52611
G1 X52.572 Y242.772 E62.64609
G1 X51.873 Y242.18 E62.74358
G1 X50.948 Y241.353 E62.87564
G1 X49.789 Y240.273 E63.04425
G1 X49.479 Y239.971 E63.09031
G1 X48.772 Y239.255 E63.19741
G1 X47.521 Y237.934 E63.39105
G1 X47.23 Y237.614 E63.43708
G1 X46.528 Y236.806 E63.551
G1 X45.39 Y235.441 E63.74015
G1 X45.119 Y235.101 E63.78642
G1 X44.507 Y234.299 E63.8938
G1 X43.446 Y232.847 E64.0852
G1 X43.199 Y232.493 E64.13114
G1 X42.467 Y231.393 E64.27177
G1 X41.653 Y230.113 E64.43322
G1 X41.434 Y229.752 E64.47816
G1 X40.781 Y228.622 E64.61706
G1 X40.049 Y227.293 E64.77855
G1 X39.846 Y226.905 E64.82515
G1 X39.274 Y225.751 E64.96224
G1 X38.865 Y224.892 E65.0635
G1 X38.43 Y223.933 E65.17558
G1 X38.021 Y222.963 E65.28762
G1 X37.511 Y221.691 E65.43348
G1 X37.225 Y220.932 E65.5198
G1 X36.849 Y219.851 E65.64162
G1 X36.318 Y218.216 E65.82458
G1 X36.191 Y217.794 E65.87149
G1 X35.86 Y216.596 E66.00377
G1 X35.571 Y215.477 E66.12678
G1 X35.374 Y214.646 E66.21767
G1 X35.115 Y213.415 E66.35156
G1 X34.929 Y212.447 E66.45647
G1 X34.751 Y211.421 E66.5673
G1 X34.567 Y210.148 E66.7042
G1 X34.377 Y208.598 E66.8704
G1 X34.334 Y208.176 E66.91555
G1 X34.235 Y206.926 E67.04901
G1 X34.143 Y205.369 E67.21501
G1 X34.126 Y204.931 E67.26166
G1 X34.108 Y203.863 E67.37535
G1 X34.115 Y202.055 E67.56778
G1 X34.126 Y201.628 E67.61324
G1 X34.173 Y200.61 E67.72171
G1 X34.258 Y199.268 E67.86482
G1 X34.331 Y198.398 E67.95775
G1 X34.448 Y197.335 E68.07157
G1 X34.593 Y196.192 E68.19419
G1 X34.749 Y195.122 E68.30928
G1 X34.963 Y193.91 E68.44027
G1 X35.271 Y192.355 E68.60899
G1 X35.362 Y191.943 E68.6539
G1 X35.662 Y190.707 E68.78927
G1 X36.055 Y189.221 E68.95286
G1 X36.18 Y188.784 E69.00124
G1 X37.278 Y185.262 E69.39389
G1 X37.97 Y182.809 E69.66516
G1 X38.589 Y180.354 E69.93463
G1 X39.145 Y177.849 E70.20773
G1 X39.613 Y175.414 E70.47163
G1 X40.025 Y172.895 E70.7433
G1 X40.359 Y170.407 E71.01048
G1 X40.63 Y167.848 E71.28436
G1 X40.823 Y165.353 E71.55071
G1 X40.947 Y162.801 E71.82264
G1 X40.999 Y160.28 E72.09101
G1 X40.979 Y157.721 E72.36338
G1 X40.888 Y155.2 E72.63187
G1 X40.727 Y152.706 E72.89787
G1 X40.489 Y150.139 E73.17225
G1 X40.186 Y147.64 E73.44018
G1 X39.809 Y145.139 E73.70937
G1 X39.359 Y142.626 E73.98109
G1 X38.843 Y140.157 E74.24955
G1 X38.264 Y137.722 E74.51594
G1 X37.604 Y135.266 E74.78661
G1 X36.87 Y132.811 E75.05933
G1 X36.071 Y130.394 E75.33027
G1 X35.22 Y128.04 E75.59668
G1 X34.284 Y125.664 E75.86848
G1 X33.285 Y123.328 E76.13889
G1 X32.249 Y121.081 E76.40223
G1 X31.637 Y119.853 E76.54827
G1 X31.512 Y119.572 E76.581
G1 X30.718 Y117.968 E76.77149
G1 X30.371 Y117.23 E76.85828
G1 X29.934 Y116.237 E76.97375
G1 X29.26 Y114.614 E77.1608
G1 X29.102 Y114.209 E77.20706
G1 X28.683 Y113.059 E77.33733
G1 X28.277 Y111.886 E77.46944
G1 X28.036 Y111.14 E77.55288
G1 X27.662 Y109.87 E77.69379
G1 X27.257 Y108.374 E77.85875
G1 X27.154 Y107.959 E77.90426
G1 X26.926 Y106.955 E78.01384
G1 X26.665 Y105.716 E78.1486
G1 X26.483 Y104.758 E78.25239
G1 X26.29 Y103.552 E78.38238
G1 X26.07 Y101.976 E78.55174
