;FLAVOR:Marlin
;TIME:2998
;Filament used: 9.43934m
;Layer height: 0.6
;MINX:26.595
;MINY:22.086
;MINZ:0.4
;MAXX:223.345
;MAXY:209.049
;MAXZ:35.8
;Generated with Cura_SteamEngine 5.3.1
M82 ;absolute extrusion mode
; START G-CODE BEGIN

M104 S230.0 ﻿T0
M140 S60.0

G28 ; Home all axes
G92 E0 ; Reset Extruder
M420 S1 ; Load Mesh

M109 S230.0 ﻿T0
M190 S60.0

G92 E0 ; Reset Extruder

G1 X0.6 Y20 Z0.3 F5000.0 ; Move to start position
G1 X0.6 Y200.0 Z0.3 F1500.0 E15 ; Draw the first line
G1 X0.9 Y200.0 Z0.3 F5000.0 ; Move to side a little
G1 X0.9 Y20 Z0.3 F1500.0 E30 ; Draw the second line
G92 E0 ; Reset Extruder
G1 Z2.0 F3000 ; Move Z Axis up little to prevent scratching of Heat Bed
G1 X5 Y20 Z0.3 F5000.0 ; Move over to prevent blob squish

; START G-CODE END
G92 E0
G92 E0
G1 F2100 E-6
;LAYER_COUNT:60
;LAYER:0
M107
;MESH:Cover Trim.STL(1)
G0 F6000 X37.601 Y63.728 Z0.4
;TYPE:WALL-INNER
G1 F2100 E0
G1 F1015.5 X37.283 Y63.748 E0.08265
G1 F1038.2 X36.765 Y63.804 E0.21485
G1 X36.483 Y63.852 E0.28743
G1 F1037.5 X36.03 Y63.981 E0.40702
G1 X35.761 Y64.076 E0.47945
G1 F1036.7 X35.333 Y64.282 E0.60015
G1 F1038.2 X35.104 Y64.411 E0.66683
G1 X34.71 Y64.689 E0.78918
G1 F1037.5 X34.493 Y64.866 E0.86028
G1 X34.155 Y65.205 E0.98183
G1 X33.973 Y65.413 E1.05201
G1 X33.699 Y65.799 E1.1722
G1 X33.557 Y66.03 E1.24105
G1 F1038.2 X33.349 Y66.466 E1.36361
G1 F1039 X33.246 Y66.724 E1.43405
G1 F1038.2 X33.116 Y67.181 E1.5546
G1 X33.06 Y67.443 E1.62258
G1 F1039.7 X33.008 Y67.929 E1.74641
G1 F1039 X32.995 Y68.195 E1.81394
G1 X33.026 Y68.677 E1.9364
G1 X33.06 Y68.95 E2.00615
G1 F1037.5 X33.172 Y69.417 E2.12809
G1 X33.249 Y69.671 E2.19548
G1 F1038.2 X33.442 Y70.125 E2.32064
G1 F1039 X33.558 Y70.357 E2.38641
G1 F1038.2 X33.819 Y70.762 E2.50866
G1 F1037.5 X33.978 Y70.98 E2.57717
G1 F1032.3 X34.417 Y71.46 E2.74316
G1 F1038.2 X34.884 Y71.824 E2.89339
G1 F1033.7 X35.176 Y72.02 E2.98301
G1 F1007.7 X35.671 Y72.304 E3.13219
G1 F988.3 X35.742 Y72.337 E3.15306
G0 F6000 X37.768 Y72.378
G0 X38.497 Y72.256
G0 X39.17 Y72.017
G0 X41.05 Y70.814
G1 F1031.5 X41.383 Y70.24 E3.32252
G1 F1040.5 X41.515 Y69.969 E3.39884
G1 F1039.7 X41.669 Y69.552 E3.51147
G1 X41.751 Y69.278 E3.58393
G1 F1032.3 X41.868 Y68.682 E3.73892
G1 F1033 X41.887 Y67.945 E3.92692
G1 F1033.7 X41.781 Y67.2 E4.11868
G1 F1039.7 X41.605 Y66.644 E4.26644
G1 F1032.3 X41.475 Y66.309 E4.35814
G1 F2100 E-1.64186
G0 F6000 X39.277 Y63.737
G0 X54.667 Y51.83
G0 X58.041 Y53.22
G0 X59.062 Y53.484
G0 X60.113 Y53.578
G0 X61.165 Y53.495
G0 X62.189 Y53.242
G0 X63.158 Y52.824
G0 X64.045 Y52.253
G0 X64.828 Y51.544
G0 X65.481 Y50.715
G0 X65.991 Y49.792
G0 X66.342 Y48.797
G0 X66.525 Y47.758
G0 X66.535 Y46.704
G0 X66.032 Y43.294
G0 X84.344 Y28.21
G0 X85.422 Y27.061
G1 F2100 E4.35814
G1 F1022 X85.68 Y26.349 E4.55333
G1 F1039.7 X85.856 Y25.962 E4.66104
G1 F1039 X86.024 Y25.673 E4.7458
G1 F1038.2 X86.255 Y25.334 E4.84988
G1 X86.478 Y25.066 E4.93834
G1 X86.766 Y24.768 E5.04349
G1 X87.026 Y24.547 E5.13007
G1 X87.356 Y24.305 E5.2339
G1 X87.654 Y24.129 E5.32171
G1 X88.026 Y23.944 E5.42713
G1 F1039 X88.335 Y23.827 E5.5109
G1 X88.745 Y23.703 E5.6195
G1 F1038.2 X89.069 Y23.64 E5.70325
G1 F1037.5 X89.487 Y23.588 E5.8102
G1 F1036.7 X89.828 Y23.58 E5.89687
G1 F1037.5 X90.248 Y23.601 E6.00364
G1 F1039.7 X90.573 Y23.648 E6.08684
G1 X90.986 Y23.74 E6.19404
G1 X91.305 Y23.844 E6.27905
G1 X91.699 Y24.006 E6.38698
G1 F1039 X91.995 Y24.164 E6.47205
G1 X92.345 Y24.382 E6.5766
G1 F1040.5 X92.612 Y24.588 E6.66198
G1 F1039.7 X92.929 Y24.873 E6.76998
G1 F1039 X93.148 Y25.112 E6.85217
G1 X93.415 Y25.447 E6.96078
G1 F1038.2 X93.594 Y25.725 E7.04468
G1 F1039 X93.803 Y26.106 E7.15485
G1 X93.928 Y26.401 E7.23609
G1 F1039.7 X94.069 Y26.806 E7.34474
G1 F1040.5 X94.142 Y27.118 E7.42586
G1 F1039 X94.213 Y27.551 E7.53711
G1 X94.233 Y27.881 E7.62093
G1 F1039.7 X94.228 Y28.308 E7.72913
G1 F1040.5 X94.193 Y28.629 E7.81088
G1 F1041.2 X94.115 Y29.054 E7.9202
G1 X94.03 Y29.355 E7.99932
G1 F1039.7 X93.876 Y29.777 E8.11314
G1 F1038.2 X93.74 Y30.059 E8.19258
G1 X93.524 Y30.436 E8.30282
G1 F1039 X93.336 Y30.699 E8.38478
G1 F1039.7 X93.061 Y31.032 E8.4942
G1 F1038.2 X92.829 Y31.262 E8.57709
G1 F1029.3 X92.245 Y31.755 E8.77268
G1 F2100 E2.77268
G0 F6000 X90.29 Y33.892
G0 X88.295 Y36.379
G0 X86.72 Y39.153
G0 X85.608 Y42.142
G0 X84.986 Y45.27
G0 X84.87 Y48.455
G0 X85.263 Y51.621
G0 X86.155 Y54.683
G0 X87.495 Y57.504
G0 X116.152 Y108.392
G0 X116.452 Y109.017
G0 X116.633 Y109.602
G0 X116.724 Y110.199
G0 X116.724 Y110.81
G0 X116.633 Y111.407
G0 X116.452 Y111.993
G0 X107.722 Y128.486
G0 X107.639 Y150.458
G0 X103.724 Y148.916
G1 F2100 E8.77268
G1 F1030.8 X103.4 Y148.929 E8.85555
G1 F1038.2 X102.803 Y148.985 E9.00769
G1 F1036 X102.074 Y149.175 E9.19925
G1 X101.378 Y149.491 E9.39361
G1 F1036.7 X100.759 Y149.912 E9.58382
G1 F1037.5 X100.206 Y150.445 E9.77883
G1 X99.764 Y151.052 E9.96949
G1 X99.437 Y151.692 E10.15197
G1 X99.212 Y152.416 E10.34447
G1 X99.116 Y153.211 E10.54779
G1 F1036.7 X99.155 Y153.974 E10.74192
G1 F1036 X99.318 Y154.707 E10.93285
G1 X99.587 Y155.373 E11.11549
G1 X99.984 Y156.016 E11.30764
G1 F1037.5 X100.064 Y156.109 E11.33879
G0 F6000 X99.546 Y154.595
G0 X99.397 Y153.9
G0 X99.367 Y153.191
G0 X99.456 Y152.482
G0 X99.665 Y151.801
G0 X99.985 Y151.168
G0 X100.408 Y150.593
G0 X100.924 Y150.1
G0 X101.514 Y149.702
G0 X102.162 Y149.409
G0 X102.851 Y149.229
G0 X103.561 Y149.168
G0 X104.27 Y149.229
G0 X104.959 Y149.409
G0 X105.607 Y149.702
G0 X106.197 Y150.1
G0 X106.713 Y150.593
G0 X107.136 Y151.168
G0 X107.456 Y151.801
G0 X107.665 Y152.482
G0 X107.737 Y153.054
G0 X107.629 Y155.73
G1 F778 X107.767 Y155.469 E11.43876
G1 F837.7 X107.882 Y154.871 E11.63025
G1 F895.5 X107.932 Y154.543 E11.72785
G1 F959.4 X107.989 Y154.018 E11.87285
G1 F1006.3 X108.002 Y153.763 E11.93969
G1 F1022.7 X108.012 Y153.265 E12.06798
G1 F1004.2 X107.976 Y152.58 E12.24792
G1 F1074.6 X108.106 Y151.819 E12.43716
G1 F1192.1 X108.11 Y140.685 E14.89756
G1 F1198 X108.114 Y129.551 E17.34573
G1 F1200 X108.182 Y128.557 E17.56444
G1 X108.389 Y127.548 E17.79055
G1 X108.731 Y126.542 E18.0238
G1 X109.201 Y125.584 E18.25804
G1 X116.567 Y112.828 E21.49153
G1 X116.885 Y112.164 E21.65314
G1 X117.087 Y111.512 E21.80298
G1 X117.189 Y110.845 E21.9511
G1 X117.189 Y110.164 E22.10059
G1 X117.088 Y109.497 E22.24867
G1 X116.885 Y108.846 E22.39837
G1 X116.563 Y108.174 E22.56194
G1 X87.353 Y57.583 E35.3857
G1 X86.001 Y54.73 E36.07874
G1 X85.145 Y51.792 E36.7505
G1 X85.092 Y51.542 E36.8066
G1 X84.726 Y48.609 E37.45544
G1 X84.713 Y48.355 E37.51127
G1 X84.825 Y45.246 E38.19419
G1 X85.451 Y42.103 E38.89768
G1 X86.569 Y39.092 E39.60274
G1 X88.091 Y36.41 E40.27968
G1 X88.252 Y36.173 E40.34257
G1 X90.08 Y33.894 E40.9839
G1 X90.276 Y33.687 E41.04648
G1 X91.669 Y32.425 E41.45909
G1 F1166.9 X91.89 Y32.179 E41.53374
G1 F1070.6 X92.245 Y31.755 E41.6698
G1 X91.73 Y31.955 E41.80573
G1 F1166.9 X91.443 Y32.046 E41.8737
G1 F1200 X91.044 Y32.188 E41.96667
G1 X90.736 Y32.268 E42.03652
G1 X90.285 Y32.342 E42.13685
G1 X89.98 Y32.366 E42.20401
G1 X89.421 Y32.359 E42.32673
G1 X88.845 Y32.266 E42.45481
G1 X88.557 Y32.19 E42.52019
G1 X88.045 Y32.012 E42.63918
G1 X87.488 Y31.71 E42.77827
G1 X87.266 Y31.564 E42.8366
G1 X86.774 Y31.167 E42.97537
G1 X86.291 Y30.606 E43.13788
G1 X85.981 Y30.114 E43.26553
G1 X85.845 Y29.845 E43.3317
G1 X85.637 Y29.331 E43.45342
G1 X85.471 Y28.591 E43.6199
G1 X85.443 Y27.84 E43.78487
G1 F1175.5 X85.431 Y27.687 E43.81926
G1 F1108.5 X85.415 Y27.073 E43.96521
G1 F1090.9 X85.288 Y27.287 E44.0253
G1 F1155.7 X84.953 Y27.695 E44.14563
G1 F1200 X84.867 Y27.825 E44.17985
G1 X84.478 Y28.306 E44.31564
G1 X84.077 Y28.667 E44.43408
G1 X65.907 Y42.618 E49.46279
G1 X65.694 Y42.838 E49.53001
G1 X65.573 Y43.179 E49.60944
G1 X65.593 Y43.462 E49.67172
G1 X66.121 Y44.466 E49.92073
G1 X66.238 Y44.74 E49.98613
G1 X66.483 Y45.48 E50.15725
G1 X66.552 Y45.757 E50.21991
G1 X66.696 Y46.717 E50.433
G1 X66.681 Y47.819 E50.67493
G1 X66.488 Y48.869 E50.90929
G1 X66.125 Y49.885 E51.14613
G1 X65.618 Y50.804 E51.37652
G1 X64.946 Y51.654 E51.61438
G1 X64.148 Y52.38 E51.8512
G1 X63.231 Y52.97 E52.09057
G1 X62.271 Y53.383 E52.31998
G1 X61.227 Y53.646 E52.55631
G1 X60.258 Y53.727 E52.76977
G1 X59.958 Y53.726 E52.83562
G1 X59.067 Y53.647 E53.03198
G1 X58.017 Y53.381 E53.26975
G1 X57.125 Y52.991 E53.48346
G1 X56.874 Y52.854 E53.54623
G1 X56.098 Y52.344 E53.75007
G1 X55.213 Y51.526 E54.01462
G1 X54.887 Y51.38 E54.09303
G1 X54.528 Y51.405 E54.17203
G1 X54.255 Y51.556 E54.24051
G1 X39.658 Y62.76 E58.27987
G1 X39.114 Y63.119 E58.42295
G1 X38.639 Y63.337 E58.53768
G1 F1198 X38.318 Y63.452 E58.61265
G1 F1146.5 X38.005 Y63.591 E58.69134
G1 F1075.4 X37.621 Y63.733 E58.79163
G1 F1076.2 X38.037 Y63.831 E58.89623
G1 F1148.3 X38.323 Y63.931 E58.96574
G1 F1198 X38.74 Y64.041 E59.06056
G1 F1200 X39 Y64.13 E59.12089
G1 X39.543 Y64.375 E59.25166
G1 X40.148 Y64.778 E59.41123
G1 X40.668 Y65.268 E59.56808
G1 F1188.1 X41.069 Y65.771 E59.7107
G1 F1133 X41.274 Y66.016 E59.78497
G1 F1054.9 X41.475 Y66.309 E59.8737
G1 X41.443 Y65.964 E59.96021
G1 F1133 X41.473 Y65.644 E60.03494
G1 F1188.1 X41.535 Y65.284 E60.11593
G1 F1200 X41.627 Y65.006 E60.18021
G1 X41.77 Y64.736 E60.24728
G1 X41.958 Y64.491 E60.31507
G1 X42.189 Y64.28 E60.38375
G1 X53.676 Y55.466 E63.56211
G1 X54.009 Y55.264 E63.6476
G1 X54.37 Y55.139 E63.73147
G1 X54.732 Y55.095 E63.81152
G1 X55.119 Y55.127 E63.89676
G1 X55.51 Y55.253 E63.98694
G1 X57.053 Y55.946 E64.35824
G1 X58.534 Y56.333 E64.69427
G1 X60.077 Y56.474 E65.03439
G1 X61.609 Y56.359 E65.37164
G1 X63.096 Y55.993 E65.7078
G1 X64.512 Y55.386 E66.04599
G1 X65.814 Y54.547 E66.386
G1 X66.952 Y53.515 E66.72324
G1 X67.899 Y52.313 E67.05915
G1 X68.646 Y50.956 E67.39919
G1 X69.153 Y49.505 E67.73659
G1 X69.414 Y47.989 E68.07427
G1 X69.422 Y46.453 E68.41146
G1 X69.152 Y44.785 E68.78238
G1 X69.133 Y44.374 E68.87269
G1 X69.201 Y43.992 E68.95787
G1 X69.338 Y43.654 E69.03793
G1 X69.569 Y43.311 E69.1287
G1 X69.834 Y43.068 E69.20763
G1 X81.775 Y33.905 E72.51169
G1 X82.185 Y33.669 E72.61554
G1 X82.626 Y33.55 E72.71581
G1 X83.055 Y33.543 E72.80999
G1 X83.439 Y33.626 E72.89624
G1 X83.672 Y33.722 E72.95155
G1 X83.976 Y33.912 E73.03025
G1 X84.566 Y34.405 E73.19903
G1 X84.775 Y34.67 E73.27311
G1 X84.934 Y34.961 E73.34591
G1 X85.056 Y35.36 E73.4375
G1 X85.083 Y35.645 E73.50034
G1 X85.04 Y36.083 E73.59695
G1 X84.881 Y36.509 E73.69677
G1 X83.773 Y38.646 E74.22518
G1 X82.644 Y42.001 E75.00224
G1 X82.051 Y45.46 E75.77263
G1 X81.993 Y48.981 E76.54565
G1 X82.479 Y52.466 E77.31807
G1 X83.495 Y55.843 E78.0922
G1 X85.045 Y59.078 E78.87964
G1 X114.281 Y109.725 E91.7169
G1 X114.377 Y109.97 E91.77466
G1 X114.439 Y110.235 E91.83441
G1 X114.457 Y110.505 E91.89381
G1 X114.439 Y110.774 E91.95299
G1 X114.378 Y111.041 E92.01311
G1 X114.283 Y111.283 E92.07018
G1 X106.844 Y124.173 E95.33716
G1 X106.196 Y125.489 E95.65916
G1 X105.737 Y126.836 E95.97155
G1 X105.457 Y128.251 E96.28819
G1 X105.361 Y129.699 E96.60675
G1 X105.361 Y147.016 E100.40812
G1 X105.334 Y147.358 E100.48343
G1 X105.209 Y147.74 E100.57166
G1 X105.086 Y147.975 E100.62988
G1 X104.915 Y148.204 E100.69262
G1 X104.694 Y148.415 E100.7597
G1 F1199 X104.389 Y148.615 E100.83983
G1 F1153.8 X104.124 Y148.776 E100.91061
G1 F1065.1 X103.724 Y148.916 E101.01543
G1 X104.15 Y149.011 E101.12338
G1 F1153.8 X104.445 Y149.108 E101.19427
G1 F1199 X105.023 Y149.266 E101.32592
G1 F1200 X105.545 Y149.495 E101.45105
G1 X105.778 Y149.622 E101.5093
G1 X106.172 Y149.888 E101.61365
G1 X106.409 Y150.078 E101.68033
G1 X106.723 Y150.379 E101.77582
G1 X106.932 Y150.616 E101.84518
G1 X107.183 Y150.961 E101.93884
G1 X107.336 Y151.21 E102.00299
G1 X107.536 Y151.604 E102.09999
G1 F1195 X107.657 Y151.886 E102.16763
G1 F1122.4 X107.851 Y152.27 E102.2686
G1 F1019.8 X107.976 Y152.58 E102.35494
G1 F2100 E96.35494
G0 F6000 X108.272 Y129.609
G0 X108.336 Y128.619
G0 X108.54 Y127.593
G0 X108.877 Y126.604
G0 X117.35 Y110.856
G0 X116.708 Y108.101
G0 X87.495 Y57.504
G0 X86.155 Y54.683
G0 X85.263 Y51.621
G0 X84.87 Y48.455
G0 X84.986 Y45.27
G0 X85.608 Y42.142
G0 X86.72 Y39.153
G0 X88.295 Y36.379
G0 X90.29 Y33.892
G0 X94.369 Y29.117
G0 X93.627 Y25.294
G0 X90.273 Y23.34
G0 X86.586 Y24.579
G0 X84.748 Y27.722
G0 X84.344 Y28.21
G0 X65.479 Y43.595
G0 X66.041 Y44.66
G0 X66.371 Y45.661
G0 X66.535 Y46.704
G0 X66.525 Y47.758
G0 X66.342 Y48.797
G0 X65.991 Y49.792
G0 X65.481 Y50.715
G0 X64.828 Y51.544
G0 X64.045 Y52.253
G0 X63.158 Y52.824
G0 X62.189 Y53.242
G0 X61.165 Y53.495
G0 X60.113 Y53.578
G0 X59.062 Y53.484
G0 X58.041 Y53.22
G0 X54.159 Y51.427
G0 X39.512 Y62.667
G0 X39.034 Y62.979
G0 X33.774 Y65.246
G0 X32.805 Y68.991
G0 X35.028 Y72.238
G0 X38.924 Y74.647
G0 X39.964 Y75.422
G0 X40.906 Y76.413
G0 X41.666 Y77.549
G0 X42.22 Y78.798
G0 X42.554 Y80.124
G0 X42.658 Y81.486
G0 X42.527 Y82.848
G0 X42.166 Y84.166
G0 X41.616 Y85.34
G0 X27.834 Y110.15
G0 X28.479 Y112.914
G0 X35.869 Y125.715
G0 X36.306 Y126.604
G0 X36.643 Y127.593
G0 X36.847 Y128.618
G0 X37.518 Y152.482
G0 X37.727 Y151.801
G0 X38.047 Y151.168
G0 X38.47 Y150.593
G0 X38.986 Y150.1
G0 X39.576 Y149.702
G0 X40.224 Y149.409
G0 X40.913 Y149.229
G0 X41.623 Y149.168
G0 X42.332 Y149.229
G0 X43.02 Y149.409
G0 X43.671 Y149.702
G0 X44.26 Y150.101
G0 X44.775 Y150.593
G0 X45.198 Y151.168
G0 X45.518 Y151.801
G0 X45.727 Y152.482
G0 X45.816 Y153.189
G0 X45.787 Y153.9
G0 X45.694 Y154.52
G0 X45.119 Y156.109
G1 F2100 E102.35494
G1 F1036.7 X45.2 Y156.016 E102.38627
G1 F1036 X45.597 Y155.372 E102.57864
G1 X45.863 Y154.706 E102.761
G1 F1037.5 X46.039 Y153.929 E102.96328
G1 F1039 X46.068 Y153.211 E103.14547
G1 F1038.2 X45.971 Y152.416 E103.34868
G1 F1037.5 X45.745 Y151.689 E103.54198
G1 F1036.7 X45.419 Y151.052 E103.7238
G1 X44.955 Y150.415 E103.92405
G1 X44.424 Y149.912 E104.10989
G1 F1035.2 X43.805 Y149.492 E104.30024
G1 F1036 X43.109 Y149.175 E104.4947
G1 F1036.7 X42.38 Y148.985 E104.68612
G1 F1039 X41.785 Y148.93 E104.83762
G1 F1030.8 X41.461 Y148.916 E104.9205
G1 F1064.3 X41.058 Y148.776 E105.02609
G1 F1153.8 X40.793 Y148.614 E105.097
G1 F1200 X40.489 Y148.415 E105.17676
G1 X40.269 Y148.203 E105.24383
G1 X40.098 Y147.974 E105.30656
G1 X39.974 Y147.74 E105.3647
G1 X39.852 Y147.362 E105.45189
G1 X39.823 Y147.016 E105.52811
G1 X39.823 Y129.699 E109.32948
G1 X39.727 Y128.25 E109.64826
G1 X39.446 Y126.836 E109.96473
G1 X38.987 Y125.489 E110.27711
G1 X38.339 Y124.173 E110.59912
G1 X30.966 Y111.406 E113.83547
G1 X30.849 Y111.163 E113.89467
G1 X30.75 Y110.837 E113.96946
G1 X30.726 Y110.505 E114.04253
G1 X30.745 Y110.237 E114.10151
G1 X30.806 Y109.97 E114.16163
G1 X30.918 Y109.687 E114.22844
G1 X44.067 Y86.913 E120.00116
G1 X44.825 Y85.327 E120.38703
G1 X45.311 Y83.7 E120.75978
G1 X45.538 Y82.02 E121.13192
G1 X45.504 Y80.329 E121.50319
G1 X45.205 Y78.663 E121.87475
G1 X44.647 Y77.054 E122.24859
G1 X43.854 Y75.561 E122.61969
G1 X42.834 Y74.202 E122.9927
G1 X41.521 Y72.927 E123.39445
G1 X41.264 Y72.615 E123.48319
G1 X41.122 Y72.35 E123.54918
G1 X41.026 Y72.063 E123.61562
G1 X40.976 Y71.724 E123.69084
G1 F1179.4 X40.967 Y71.41 E123.761
G1 F1143.8 X41.013 Y70.86 E123.88811
G1 F1163.2 X40.338 Y71.437 E124.08922
G1 F1200 X39.864 Y71.809 E124.22149
G1 X39.237 Y72.163 E124.37955
G1 X38.694 Y72.359 E124.50627
G1 X38.378 Y72.441 E124.57794
G1 X37.929 Y72.514 E124.67779
G1 X37.627 Y72.538 E124.7443
G1 X37.212 Y72.536 E124.8354
G1 X36.913 Y72.51 E124.90128
G1 F1198 X36.492 Y72.439 E124.99516
G1 F1142.9 X36.181 Y72.415 E125.06705
G1 F1036.7 X35.742 Y72.337 E125.18035
G1 F1030.8 X36.038 Y72.595 E125.28069
G1 F1134.8 X36.335 Y72.854 E125.37217
G1 F1198 X38.945 Y74.471 E126.04728
G1 F1200 X40.07 Y75.297 E126.35365
G1 X41.032 Y76.311 E126.66048
G1 X41.797 Y77.458 E126.96313
G1 X42.375 Y78.744 E127.27263
G1 X42.717 Y80.126 E127.58515
G1 X42.817 Y81.501 E127.88778
G1 X42.686 Y82.882 E128.1923
G1 X42.32 Y84.218 E128.49638
G1 X41.788 Y85.357 E128.77234
G1 X28.623 Y108.169 E134.55403
G1 X28.297 Y108.845 E134.71878
G1 X28.095 Y109.496 E134.86841
G1 X27.995 Y110.161 E135.01603
G1 X27.995 Y110.848 E135.16684
G1 X28.095 Y111.512 E135.31424
G1 X28.298 Y112.163 E135.46393
G1 X28.622 Y112.84 E135.62869
G1 X36.039 Y125.692 E138.88602
G1 X36.452 Y126.542 E139.09347
