;FLAVOR:Marlin
;TIME:4778
;Filament used: 15.0669m
;Layer height: 0.6
;MINX:92.5
;MINY:56.471
;MINZ:0.4
;MAXX:142.5
;MAXY:170.234
;MAXZ:49.6
;Generated with Cura_SteamEngine 5.3.1
M82 ;absolute extrusion mode
; START G-CODE BEGIN

M104 S220.0 ﻿T0
M140 S60.0

G28 ; Home all axes
G92 E0 ; Reset Extruder
M420 S1 ; Load Mesh

M109 S220.0 ﻿T0
M190 S60.0

G92 E0 ; Reset Extruder

G1 X0.6 Y20 Z0.3 F5000.0 ; Move to start position
G1 X0.6 Y200.0 Z0.3 F1500.0 E15 ; Draw the first line
G1 X0.9 Y200.0 Z0.3 F5000.0 ; Move to side a little
G1 X0.9 Y20 Z0.3 F1500.0 E30 ; Draw the second line
G92 E0 ; Reset Extruder
G1 Z2.0 F3000 ; Move Z Axis up little to prevent scratching of Heat Bed
G1 X5 Y20 Z0.3 F5000.0 ; Move over to prevent blob squish

; START G-CODE END
G92 E0
G92 E0
G1 F1500 E-6
;LAYER_COUNT:83
;LAYER:0
M107
G0 F6000 X113.95 Y62.086 Z0.4
;TYPE:SUPPORT
G1 F1500 E0
G1 F1200 X121.05 Y62.086 E0.99182
G1 X121.05 Y87.348 E4.52073
G1 X113.95 Y87.348 E5.51255
G1 X113.95 Y62.086 E9.04146
G1 F1500 E3.04146
G0 F6000 X114.07 Y64
G1 F1500 E9.04146
G1 F1200 X120.93 Y64 E9.99975
G1 F1500 E3.99975
G0 F6000 X120 Y62.206
G1 F1500 E9.99975
G1 F1200 X120 Y87.228 E13.49514
G1 F1500 E7.49514
G0 F6000 X120.93 Y84
G1 F1500 E13.49514
G1 F1200 X114.07 Y84 E14.45343
G1 F1500 E8.45343
G0 F6000 X116 Y87.228
G1 F1500 E14.45343
G1 F1200 X116 Y62.206 E17.94882
G1 F1500 E11.94882
G0 F6000 X116 Y61.021
G0 X112.897 Y61.033
G0 X112.885 Y68
G0 X114.07 Y68
G1 F1500 E17.94882
G1 F1200 X120.93 Y68 E18.90711
G1 F1500 E12.90711
G0 F6000 X120.93 Y72
G1 F1500 E18.90711
G1 F1200 X114.07 Y72 E19.8654
G1 F1500 E13.8654
G0 F6000 X114.07 Y76
G1 F1500 E19.8654
G1 F1200 X120.93 Y76 E20.82369
G1 F1500 E14.82369
G0 F6000 X120.93 Y80
G1 F1500 E20.82369
G1 F1200 X114.07 Y80 E21.78198
G1 F1500 E15.78198
G0 F6000 X112.885 Y80
G0 X110.749 Y91.084
G0 X110.75 Y92.149
;TYPE:SUPPORT-INTERFACE
G1 F1500 E21.78198
G1 F1200 X124.25 Y92.148 E23.66783
G1 X124.25 Y97.616 E24.43167
G1 X124.279 Y97.968 E24.48101
G1 X124.301 Y98.054 E24.49341
G1 X124.3 Y98.054 E24.49355
G1 X124.327 Y98.166 E24.50964
G1 X124.325 Y98.166 E24.50992
G1 X124.278 Y97.966 E24.53862
G1 X124.223 Y97.27 E24.63615
G1 X110.778 Y97.27 E26.51432
G1 X110.722 Y97.963 E26.61144
G1 X110.721 Y97.968 E26.61215
G1 X110.75 Y97.617 E26.66135
G1 X110.75 Y92.149 E27.42519
G1 F1500 E21.42519
G0 F6000 X112.913 Y92.548
G1 F1500 E27.42519
G1 F1200 X117.234 Y96.87 E28.27893
G1 F1500 E22.27893
G0 F6000 X120.353 Y96.87
G1 F1500 E28.27893
G1 F1200 X123.849 Y93.374 E28.96958
G1 F1500 E22.96958
G0 F6000 X123.849 Y96.696
G1 F1500 E28.96958
G1 F1200 X119.701 Y92.548 E29.78904
G1 F1500 E23.78904
G0 F6000 X117.886 Y92.548
G1 F1500 E29.78904
G1 F1200 X113.564 Y96.87 E30.64287
G1 F1500 E24.64287
;MESH:pusher.stl
G0 F6000 X113.564 Y98.335
G0 X113.565 Y98.701
G0 X113.565 Y101.651
G0 X111.288 Y101.632
G0 X108.682 Y102.464
G0 X97.391 Y102.466
G0 X96.782 Y102.519
G0 X96.287 Y102.652
G0 X95.834 Y102.865
G0 X95.411 Y103.159
G0 X95.051 Y103.521
G0 X94.769 Y103.923
G0 X94.55 Y104.389
G0 X94.418 Y104.884
G0 X94.365 Y105.492
G0 X94.387 Y163.511
G0 X94.539 Y164.66
G0 X94.837 Y165.751
G0 X95.259 Y166.701
G0 X95.703 Y167.367
G0 X96.955 Y168.603
;TYPE:WALL-INNER
G1 F1500 E30.64287
G1 F1200 X97.355 Y168.634 E30.69891
G1 X137.645 Y168.633 E36.32713
G1 X138.044 Y168.602 E36.38303
G1 X138.404 Y168.469 E36.43665
G1 X138.639 Y168.343 E36.47389
G1 X138.91 Y168.151 E36.52029
G1 X139.183 Y167.905 E36.57162
G1 X139.453 Y167.608 E36.62769
G1 X139.719 Y167.247 E36.69033
G1 X139.973 Y166.827 E36.7589
G1 X140.197 Y166.377 E36.82912
G1 X140.41 Y165.844 E36.9093
G1 X140.572 Y165.33 E36.98458
G1 X140.72 Y164.713 E37.07322
G1 X140.816 Y164.136 E37.15493
G1 X140.877 Y163.53 E37.24001
G1 X140.899 Y162.89 E37.32947
G1 X140.899 Y105.48 E45.34922
G1 X140.843 Y104.837 E45.43938
G1 X140.699 Y104.297 E45.51745
G1 X140.462 Y103.79 E45.59563
G1 X140.153 Y103.35 E45.67074
G1 X139.76 Y102.956 E45.74848
G1 X139.3 Y102.634 E45.82691
G1 X138.805 Y102.403 E45.90322
G1 X138.264 Y102.258 E45.98146
G1 X137.622 Y102.202 E46.07148
G1 X126.329 Y102.202 E47.64903
G1 X125.531 Y102.127 E47.761
G1 X125.247 Y102.064 E47.80164
G1 X124.601 Y101.819 E47.89815
G1 X124.296 Y101.673 E47.94539
G1 X123.93 Y101.459 E48.00461
G1 X123.8 Y101.367 E48.02686
G1 X111.2 Y101.366 E49.78698
G1 X111.07 Y101.458 E49.80923
G1 X110.711 Y101.67 E49.86747
G1 X110.41 Y101.814 E49.91408
G1 X109.763 Y102.058 E50.01068
G1 X109.413 Y102.135 E50.06074
G1 X108.673 Y102.2 E50.16451
G1 X97.378 Y102.201 E51.74234
G1 X96.736 Y102.258 E51.83237
G1 X96.195 Y102.403 E51.91062
G1 X95.7 Y102.634 E51.98692
G1 X95.24 Y102.956 E52.06536
G1 X94.847 Y103.35 E52.1431
G1 X94.538 Y103.79 E52.21821
G1 X94.301 Y104.297 E52.29639
G1 X94.157 Y104.837 E52.37446
G1 X94.1 Y105.48 E52.46463
G1 X94.1 Y162.864 E60.48075
G1 X94.123 Y163.53 E60.57384
G1 X94.183 Y164.137 E60.65905
G1 X94.28 Y164.714 E60.74078
G1 X94.428 Y165.333 E60.82969
G1 X94.588 Y165.841 E60.90409
G1 X94.803 Y166.377 E60.98476
G1 X95.028 Y166.83 E61.05542
G1 X95.285 Y167.253 E61.12456
G1 X95.547 Y167.609 E61.18631
G1 X95.817 Y167.906 E61.24238
G1 X96.09 Y168.152 E61.29371
G1 X96.361 Y168.344 E61.34011
G1 X96.596 Y168.469 E61.37729
G1 X96.955 Y168.603 E61.43082
G0 F6000 X97.325 Y169.434
G1 F1200 X137.675 Y169.433 E67.06741
G1 X138.049 Y169.405 E67.1198
G1 X138.381 Y169.331 E67.16732
G1 X138.734 Y169.199 E67.21997
G1 X139.061 Y169.024 E67.27178
G1 X139.41 Y168.777 E67.3315
G1 X139.748 Y168.473 E67.39501
G1 X140.073 Y168.115 E67.46255
G1 X140.384 Y167.692 E67.53589
G1 X140.675 Y167.213 E67.61419
G1 X140.927 Y166.704 E67.69353
G1 X141.164 Y166.114 E67.78235
G1 X141.343 Y165.544 E67.8658
G1 X141.505 Y164.872 E67.96237
G1 X141.61 Y164.241 E68.05173
G1 X141.675 Y163.583 E68.14409
G1 X141.699 Y162.903 E68.23914
G1 X141.699 Y105.445 E76.2656
G1 X141.634 Y104.698 E76.37034
G1 X141.454 Y104.023 E76.46793
G1 X141.157 Y103.388 E76.56586
G1 X140.769 Y102.834 E76.66034
G1 X140.276 Y102.34 E76.75783
G1 X139.701 Y101.939 E76.85576
G1 X139.08 Y101.648 E76.95156
G1 X138.404 Y101.467 E77.04932
G1 X137.657 Y101.402 E77.15406
G1 X126.362 Y101.4 E78.73189
G1 X125.553 Y101.324 E78.8454
G1 X124.792 Y101.036 E78.95906
G1 X124.336 Y100.769 E79.03288
G1 X124.067 Y100.566 E79.07996
G1 X110.932 Y100.566 E80.91482
G1 X110.664 Y100.769 E80.96178
G1 X110.223 Y101.029 E81.0333
G1 X109.437 Y101.328 E81.15077
G1 X108.637 Y101.4 E81.26298
G1 X97.343 Y101.401 E82.84067
G1 X96.596 Y101.467 E82.94542
G1 X95.92 Y101.648 E83.04318
G1 X95.299 Y101.939 E83.13898
G1 X94.724 Y102.34 E83.23691
G1 X94.232 Y102.834 E83.3343
G1 X93.843 Y103.388 E83.42887
G1 X93.546 Y104.023 E83.52679
G1 X93.366 Y104.698 E83.62438
G1 X93.3 Y105.445 E83.72914
G1 X93.3 Y162.878 E91.7521
G1 X93.324 Y163.583 E91.85064
G1 X93.39 Y164.242 E91.94316
G1 X93.495 Y164.873 E92.03252
G1 X93.657 Y165.547 E92.12935
G1 X93.834 Y166.11 E92.21179
G1 X94.073 Y166.705 E92.30137
G1 X94.326 Y167.216 E92.38102
G1 X94.62 Y167.698 E92.45989
G1 X94.927 Y168.116 E92.53234
G1 X95.252 Y168.474 E92.59988
G1 X95.59 Y168.778 E92.66338
G1 X95.939 Y169.025 E92.72311
G1 X96.266 Y169.2 E92.77492
G1 X96.619 Y169.332 E92.82757
G1 X96.951 Y169.406 E92.87508
G1 X97.325 Y169.434 E92.92747
G0 F6000 X97.296 Y170.234
;TYPE:WALL-OUTER
G1 F1200 X137.704 Y170.233 E98.57217
G1 X138.166 Y170.199 E98.63688
G1 X138.609 Y170.1 E98.70029
G1 X139.064 Y169.93 E98.76815
G1 X139.483 Y169.706 E98.83452
G1 X139.91 Y169.403 E98.90766
G1 X140.313 Y169.041 E98.98333
G1 X140.693 Y168.622 E99.06235
G1 X141.05 Y168.138 E99.14636
G1 X141.377 Y167.599 E99.23443
G1 X141.658 Y167.031 E99.32295
G1 X141.918 Y166.384 E99.42036
G1 X142.115 Y165.758 E99.51203
G1 X142.289 Y165.032 E99.61632
G1 X142.404 Y164.347 E99.71335
G1 X142.474 Y163.636 E99.81315
G1 X142.499 Y162.917 E99.91365
G1 X142.499 Y105.41 E107.94695
G1 X142.425 Y104.558 E108.06642
G1 X142.208 Y103.748 E108.18356
G1 X141.853 Y102.986 E108.30099
G1 X141.384 Y102.318 E108.41501
G1 X140.792 Y101.725 E108.53206
G1 X140.103 Y101.243 E108.64952
G1 X139.355 Y100.894 E108.76483
G1 X138.544 Y100.676 E108.88214
G1 X137.692 Y100.602 E109.0016
G1 X126.382 Y100.6 E110.58153
G1 X125.74 Y100.54 E110.6716
G1 X125.168 Y100.323 E110.75706
G1 X124.741 Y100.079 E110.82576
G1 X124.356 Y99.766 E110.89507
G1 X110.643 Y99.766 E112.81068
G1 X110.31 Y100.043 E112.87119
G1 X109.872 Y100.307 E112.94263
G1 X109.241 Y100.543 E113.03674
G1 X108.601 Y100.601 E113.12651
G1 X97.308 Y100.601 E114.70405
G1 X96.456 Y100.676 E114.82353
G1 X95.645 Y100.894 E114.94084
G1 X94.897 Y101.243 E115.05615
G1 X94.208 Y101.725 E115.17361
G1 X93.616 Y102.318 E115.29066
G1 X93.147 Y102.986 E115.40468
G1 X92.792 Y103.748 E115.52211
G1 X92.575 Y104.558 E115.63925
G1 X92.5 Y105.41 E115.75873
G1 X92.5 Y162.892 E123.78854
G1 X92.526 Y163.636 E123.89253
G1 X92.596 Y164.348 E123.99247
G1 X92.711 Y165.033 E124.0895
G1 X92.885 Y165.761 E124.19406
G1 X93.08 Y166.38 E124.28472
G1 X93.342 Y167.032 E124.38288
G1 X93.625 Y167.602 E124.47178
G1 X93.954 Y168.144 E124.56035
G1 X94.307 Y168.623 E124.64347
G1 X94.687 Y169.042 E124.72248
G1 X95.09 Y169.404 E124.79816
G1 X95.517 Y169.707 E124.8713
G1 X95.936 Y169.931 E124.93767
G1 X96.391 Y170.101 E125.00552
G1 X96.834 Y170.2 E125.06893
G1 X97.296 Y170.234 E125.13364
G0 F6000 X97.352 Y168.935
G0 X97.086 Y168.407
G0 X97.232 Y167.93
;TYPE:SKIN
G1 F1200 X96.819 Y167.803 E125.194
G1 X96.528 Y167.598 E125.24373
G1 X96.311 Y167.404 E125.28439
G1 X96.094 Y167.166 E125.32938
G1 X95.869 Y166.857 E125.38278
G1 X95.65 Y166.497 E125.44164
G1 X95.447 Y166.089 E125.5053
G1 X95.255 Y165.609 E125.57752
G1 X95.11 Y165.154 E125.64423
G1 X94.966 Y164.55 E125.73096
G1 X94.882 Y164.048 E125.80207
G1 X94.827 Y163.497 E125.87942
G1 X94.804 Y162.864 E125.9679
G1 X94.804 Y105.518 E133.97871
G1 X94.853 Y104.96 E134.05696
G1 X94.966 Y104.536 E134.11826
G1 X95.152 Y104.141 E134.17925
G1 X95.384 Y103.809 E134.23583
G1 X95.696 Y103.497 E134.29746
G1 X96.059 Y103.243 E134.35935
G1 X96.429 Y103.071 E134.41635
G1 X96.862 Y102.954 E134.47901
G1 X97.417 Y102.905 E134.55684
G1 X108.707 Y102.903 E136.13397
G1 X109.602 Y102.823 E136.25949
G1 X109.971 Y102.731 E136.31262
G1 X110.683 Y102.462 E136.41894
G1 X111.042 Y102.291 E136.47449
G1 X111.408 Y102.071 E136.53414
G1 X123.591 Y102.071 E138.23601
G1 X123.958 Y102.29 E138.29572
G1 X124.322 Y102.465 E138.35214
G1 X125.137 Y102.769 E138.47365
G1 X125.56 Y102.837 E138.5335
G1 X126.275 Y102.902 E138.63379
G1 X137.585 Y102.906 E140.21371
G1 X138.139 Y102.954 E140.29139
G1 X138.571 Y103.071 E140.35391
G1 X138.941 Y103.244 E140.41097
G1 X139.305 Y103.497 E140.47289
G1 X139.61 Y103.802 E140.53315
G1 X139.852 Y104.149 E140.59224
G1 X140.034 Y104.537 E140.65211
G1 X140.146 Y104.96 E140.71324
G1 X140.195 Y105.517 E140.79135
G1 X140.195 Y162.866 E148.80258
G1 X140.172 Y163.501 E148.89134
G1 X140.119 Y164.045 E148.96769
G1 X140.034 Y164.549 E149.03909
G1 X139.889 Y165.158 E149.12654
G1 X139.75 Y165.598 E149.191
G1 X139.553 Y166.088 E149.26477
G1 X139.356 Y166.484 E149.32656
G1 X139.131 Y166.856 E149.38729
G1 X138.904 Y167.164 E149.44074
G1 X138.688 Y167.403 E149.48574
G1 X138.472 Y167.597 E149.5263
G1 X138.181 Y167.802 E149.57602
G1 X137.768 Y167.929 E149.63638
G1 X97.232 Y167.93 E155.29896
G0 F6000 X97.383 Y167.528
G1 F1200 X95.844 Y165.989 E155.603
G0 F6000 X95.037 Y166.389
G0 X94.451 Y164.498
G0 X95.337 Y164.351
G1 F1200 X98.514 Y167.528 E156.23063
G0 F6000 X98.514 Y168.43
G0 X99.646 Y168.43
G0 X99.646 Y167.528
G1 F1200 X95.212 Y163.094 E157.10659
G0 F6000 X94.312 Y163.124
G0 X94.304 Y161.954
G0 X95.203 Y161.954
G1 F1200 X100.777 Y167.528 E158.20776
G0 F6000 X100.777 Y168.43
G0 X101.908 Y168.43
G0 X101.908 Y167.528
G1 F1200 X95.203 Y160.822 E159.53247
G0 F6000 X94.304 Y160.822
G0 X94.304 Y159.691
G0 X95.203 Y159.691
G1 F1200 X103.04 Y167.528 E161.08071
G0 F6000 X103.04 Y168.43
G0 X104.171 Y168.43
G0 X104.171 Y167.528
G1 F1200 X95.203 Y158.56 E162.85238
G0 F6000 X94.304 Y158.56
G0 X94.304 Y157.428
G0 X95.203 Y157.428
G1 F1200 X105.303 Y167.528 E164.84769
G0 F6000 X105.303 Y168.43
G0 X106.434 Y168.43
G0 X106.434 Y167.528
G1 F1200 X95.203 Y156.297 E167.06643
G0 F6000 X94.304 Y156.297
G0 X94.304 Y155.166
G0 X95.203 Y155.166
G1 F1200 X107.565 Y167.528 E169.50861
G0 F6000 X107.565 Y168.43
G0 X108.697 Y168.43
G0 X108.697 Y167.528
G1 F1200 X95.203 Y154.034 E172.17441
G0 F6000 X94.304 Y154.034
G0 X94.304 Y152.903
G0 X95.203 Y152.903
G1 F1200 X109.828 Y167.528 E175.06366
G0 F6000 X109.828 Y168.43
G0 X110.959 Y168.43
G0 X110.959 Y167.528
G1 F1200 X95.203 Y151.771 E178.17644
G0 F6000 X94.304 Y151.771
G0 X94.304 Y150.64
G0 X95.203 Y150.64
G1 F1200 X112.091 Y167.528 E181.51275
G0 F6000 X112.091 Y168.43
G0 X113.222 Y168.43
G0 X113.222 Y167.528
G1 F1200 X95.203 Y149.509 E185.07249
G0 F6000 X94.304 Y149.509
G0 X94.304 Y148.377
G0 X95.203 Y148.377
G1 F1200 X114.354 Y167.528 E188.85587
G0 F6000 X114.354 Y168.43
G0 X115.485 Y168.43
G0 X115.485 Y167.528
G1 F1200 X95.203 Y147.246 E192.86268
G0 F6000 X94.304 Y147.246
G0 X94.304 Y146.115
G0 X95.203 Y146.115
G1 F1200 X116.616 Y167.528 E197.09293
G0 F6000 X116.616 Y168.43
G0 X117.748 Y168.43
G0 X117.748 Y167.528
G1 F1200 X95.203 Y144.983 E201.54681
G0 F6000 X94.304 Y144.983
G0 X94.304 Y143.852
G0 X95.203 Y143.852
G1 F1200 X118.879 Y167.528 E206.22413
G0 F6000 X118.879 Y168.43
G0 X120.01 Y168.43
G0 X120.01 Y167.528
G1 F1200 X95.203 Y142.721 E211.12488
G0 F6000 X94.304 Y142.721
G0 X94.304 Y141.589
G0 X95.203 Y141.589
G1 F1200 X121.142 Y167.528 E216.24926
G0 F6000 X121.142 Y168.43
G0 X122.273 Y168.43
G0 X122.273 Y167.528
G1 F1200 X95.203 Y140.458 E221.59708
G0 F6000 X94.304 Y140.458
G0 X94.304 Y139.326
G0 X95.203 Y139.326
G1 F1200 X123.404 Y167.528 E227.16843
G0 F6000 X123.404 Y168.43
G0 X124.536 Y168.43
G0 X124.536 Y167.528
G1 F1200 X95.203 Y138.195 E232.96331
G0 F6000 X94.304 Y138.195
G0 X94.304 Y137.064
G0 X95.203 Y137.064
G1 F1200 X125.667 Y167.528 E238.98163
G0 F6000 X125.667 Y168.43
G0 X126.799 Y168.43
G0 X126.799 Y167.528
G1 F1200 X95.203 Y135.932 E245.22358
G0 F6000 X94.304 Y135.932
G0 X94.304 Y134.801
G0 X95.203 Y134.801
G1 F1200 X127.93 Y167.528 E251.68897
G0 F6000 X127.93 Y168.43
G0 X129.061 Y168.43
G0 X129.061 Y167.528
G1 F1200 X95.203 Y133.67 E258.37779
G0 F6000 X94.304 Y133.67
G0 X94.304 Y132.538
G0 X95.203 Y132.538
G1 F1200 X130.193 Y167.528 E265.29024
G0 F6000 X130.193 Y168.43
G0 X131.324 Y168.43
G0 X131.324 Y167.528
G1 F1200 X95.203 Y131.407 E272.42613
G0 F6000 X94.304 Y131.407
G0 X94.304 Y130.275
G0 X95.203 Y130.275
G1 F1200 X132.455 Y167.528 E279.78556
G0 F6000 X132.455 Y168.43
G0 X133.587 Y168.43
G0 X133.587 Y167.528
G1 F1200 X95.203 Y129.144 E287.36851
G0 F6000 X94.304 Y129.144
G0 X94.304 Y128.013
G0 X95.203 Y128.013
G1 F1200 X134.718 Y167.528 E295.1749
G0 F6000 X134.718 Y168.43
G0 X135.85 Y168.43
G0 X135.85 Y167.528
G1 F1200 X95.203 Y126.881 E303.20492
G0 F6000 X94.304 Y126.881
G0 X94.304 Y125.75
G0 X95.203 Y125.75
G1 F1200 X136.981 Y167.528 E311.45838
G0 F6000 X136.981 Y168.43
G0 X137.669 Y168.381
G0 X138.533 Y168.167
G0 X138.013 Y167.429
G1 F1200 X95.203 Y124.619 E319.91572
G0 F6000 X94.304 Y124.619
G0 X94.304 Y123.487
G0 X95.203 Y123.487
G1 F1200 X138.607 Y166.891 E328.4904
G0 F6000 X139.049 Y166.201
G1 F1200 X95.203 Y122.356 E337.1523
G0 F6000 X94.304 Y122.356
G0 X94.304 Y121.224
G0 X95.203 Y121.224
G1 F1200 X139.389 Y165.411 E345.88157
G0 F6000 X139.629 Y164.519
G1 F1200 X95.203 Y120.093 E354.65816
G0 F6000 X94.304 Y120.093
G0 X94.304 Y118.962
G0 X95.203 Y118.962
G1 F1200 X139.768 Y163.526 E363.4621
G0 F6000 X140.662 Y163.614
G0 X140.695 Y162.422
G0 X139.795 Y162.422
G1 F1200 X95.203 Y117.83 E372.27148
G0 F6000 X94.304 Y117.83
G0 X94.304 Y116.699
G0 X95.203 Y116.699
G1 F1200 X139.795 Y161.291 E381.08086
G0 F6000 X140.695 Y161.291
G0 X140.695 Y160.159
G0 X139.795 Y160.159
G1 F1200 X95.203 Y115.568 E389.89014
G0 F6000 X94.304 Y115.568
G0 X94.304 Y114.436
G0 X95.203 Y114.436
G1 F1200 X139.795 Y159.028 E398.69952
G0 F6000 X140.695 Y159.028
G0 X140.695 Y157.896
G0 X139.795 Y157.896
G1 F1200 X95.203 Y113.305 E407.50879
G0 F6000 X94.304 Y113.305
G0 X94.304 Y112.174
G0 X95.203 Y112.174
G1 F1200 X139.795 Y156.765 E416.31807
