;FLAVOR:Marlin
;TIME:11841
;Filament used: 28.3102m
;Layer height: 0.4
;MINX:4.625
;MINY:65.889
;MINZ:0.4
;MAXX:225.603
;MAXY:169.036
;MAXZ:21.6
;Generated with Cura_SteamEngine 5.3.1
M82 ;absolute extrusion mode
; START G-CODE BEGIN

M104 S220.0 ﻿T0
M140 S60.0

G28 ; Home all axes
G92 E0 ; Reset Extruder
M420 S1 ; Load Mesh

M109 S220.0 ﻿T0
M190 S60.0

G92 E0 ; Reset Extruder

G1 X0.6 Y20 Z0.3 F5000.0 ; Move to start position
G1 X0.6 Y200.0 Z0.3 F1500.0 E15 ; Draw the first line
G1 X0.9 Y200.0 Z0.3 F5000.0 ; Move to side a little
G1 X0.9 Y20 Z0.3 F1500.0 E30 ; Draw the second line
G92 E0 ; Reset Extruder
G1 Z2.0 F3000 ; Move Z Axis up little to prevent scratching of Heat Bed
G1 X5 Y20 Z0.3 F5000.0 ; Move over to prevent blob squish

; START G-CODE END
G92 E0
G92 E0
G1 F1500 E-6
;LAYER_COUNT:54
;LAYER:0
M107
;MESH:Casted Wheel Mold Top - TPU.STL
G0 F6000 X34.766 Y72.171 Z0.4
;TYPE:WALL-INNER
G1 F1500 E0
G1 F748.2 X34.443 Y71.532 E0.16041
G1 F778 X34.166 Y71.111 E0.269
G1 F779.2 X34.008 Y70.898 E0.32605
G1 X33.72 Y70.587 E0.41723
G1 F778.6 X33.52 Y70.396 E0.47678
G1 F779.2 X33.191 Y70.142 E0.56619
G1 F779.9 X32.976 Y69.995 E0.62218
G1 X32.601 Y69.796 E0.71343
G1 F780.5 X32.371 Y69.688 E0.768
G1 F775.4 X31.793 Y69.496 E0.89966
G1 F776.1 X31.118 Y69.389 E1.04728
G1 F776.7 X30.416 Y69.398 E1.19881
G1 X29.747 Y69.52 E1.34557
G1 X29.106 Y69.749 E1.49248
G1 F776.1 X28.51 Y70.084 E1.64016
G1 X27.967 Y70.52 E1.79058
G1 X27.514 Y71.028 E1.9376
G1 F775.4 X27.115 Y71.678 E2.10247
G1 X26.882 Y72.27 E2.24
G1 F776.1 X26.721 Y72.987 E2.39873
G1 F776.7 X26.692 Y73.672 E2.5467
G1 F776.1 X26.777 Y74.357 E2.6958
G1 F774.8 X26.975 Y75.02 E2.8455
G1 F772.9 X27.29 Y75.651 E2.99845
G1 F755.3 X27.585 Y76.11 E3.11954
G1 F1500 E-2.88046
G0 F6000 X30.952 Y82.904
G0 X26.393 Y87.668
G0 X23.236 Y91.203
G0 X20.5 Y95.06
G0 X18.206 Y99.214
G0 X16.401 Y103.572
G0 X15.095 Y108.107
G0 X14.305 Y112.742
G0 X14.034 Y117.489
G0 X14.298 Y122.219
G0 X15.089 Y126.871
G0 X16.401 Y131.428
G0 X18.216 Y135.81
G0 X20.498 Y139.936
G0 X23.238 Y143.797
G0 X26.377 Y147.315
G0 X30.955 Y152.051
G0 X28.087 Y158.069
G0 X32.579 Y157.709
G0 X34.983 Y161.457
G0 X34.967 Y162.072
G0 X39.038 Y156.614
G0 X46.839 Y158.625
G0 X51.495 Y159.418
G0 X56.192 Y159.683
G0 X60.936 Y159.418
G0 X65.591 Y158.626
G0 X74.764 Y156.015
G0 X74.982 Y156.463
G1 F1500 E3.11954
G1 F1200 X79.224 Y154.121 E3.79643
G1 X83.171 Y151.318 E4.47269
G1 X86.81 Y148.067 E5.15434
G1 X90.026 Y144.465 E5.82889
G1 X92.847 Y140.487 E6.51013
G1 X95.175 Y136.273 E7.18265
G1 X97.048 Y131.75 E7.86651
G1 X98.385 Y127.102 E8.54213
G1 X99.061 Y123.471 E9.05807
G1 X99.246 Y123.135 E9.11165
G1 X99.451 Y122.92 E9.15315
G1 X99.676 Y122.775 E9.19054
G1 X100.103 Y122.654 E9.25254
G1 X106.961 Y122.65 E10.21055
G1 X107.863 Y122.574 E10.337
G1 X108.685 Y122.367 E10.45541
G1 X109.474 Y122.02 E10.57582
G1 X110.167 Y121.567 E10.69147
G1 X110.806 Y120.979 E10.81278
G1 X111.322 Y120.317 E10.93003
G1 X111.727 Y119.567 E11.0491
G1 X112.006 Y118.756 E11.1689
G1 X112.144 Y117.93 E11.28589
G1 X112.144 Y117.07 E11.40602
G1 X112.006 Y116.244 E11.52301
G1 X111.727 Y115.433 E11.64282
G1 X111.322 Y114.684 E11.76176
G1 X110.806 Y114.021 E11.87912
G1 X110.167 Y113.432 E12.00052
G1 X109.474 Y112.98 E12.1161
G1 X108.685 Y112.634 E12.23645
G1 X107.863 Y112.427 E12.35486
G1 X106.961 Y112.351 E12.48131
G1 X100.103 Y112.346 E13.43932
G1 X99.676 Y112.225 E13.50132
G1 X99.451 Y112.08 E13.53871
G1 X99.192 Y111.809 E13.59108
G1 X99.056 Y111.48 E13.64081
G1 X98.385 Y107.898 E14.14989
G1 X97.039 Y103.225 E14.82922
G1 X95.176 Y98.727 E15.50932
G1 X92.837 Y94.492 E16.18515
G1 X90.042 Y90.555 E16.85962
G1 X86.797 Y86.919 E17.5404
G1 X83.178 Y83.687 E18.21821
G1 X79.224 Y80.879 E18.89566
G1 X74.984 Y78.537 E19.57231
G1 X70.511 Y76.684 E20.24865
G1 X65.836 Y75.336 E20.92832
G1 X61.032 Y74.52 E21.60901
G1 X56.217 Y74.252 E22.28267
G1 X51.377 Y74.523 E22.95985
G1 X46.6 Y75.334 E23.63671
G1 X41.926 Y76.681 E24.3162
G1 X40.138 Y77.349 E24.58283
G1 X39.872 Y77.416 E24.62115
G1 X39.604 Y77.42 E24.65859
G1 X39.29 Y77.354 E24.70342
G1 X39.022 Y77.203 E24.74639
G1 X38.715 Y76.89 E24.80763
G1 X35.296 Y70.967 E25.76299
G1 X34.791 Y70.238 E25.88687
G1 X34.192 Y69.623 E26.0068
G1 X33.512 Y69.123 E26.1247
G1 X32.755 Y68.741 E26.24315
G1 X31.941 Y68.486 E26.36231
G1 X31.098 Y68.37 E26.48118
G1 X30.251 Y68.392 E26.59954
G1 X29.415 Y68.556 E26.71855
G1 X28.622 Y68.852 E26.83679
G1 X27.888 Y69.278 E26.95534
G1 X27.226 Y69.82 E27.07486
G1 X26.664 Y70.467 E27.19458
G1 X26.225 Y71.18 E27.31154
G1 X25.906 Y71.965 E27.42991
G1 X25.719 Y72.801 E27.54958
G1 X25.673 Y73.647 E27.66793
G1 X25.767 Y74.497 E27.78739
G1 X25.996 Y75.305 E27.90471
G1 X26.384 Y76.126 E28.03156
G1 X29.823 Y82.085 E28.99267
G1 X29.898 Y82.373 E29.03424
G1 X29.899 Y82.744 E29.08607
G1 X29.833 Y82.995 E29.12232
G1 X29.704 Y83.241 E29.16112
G1 X29.512 Y83.456 E29.20139
G1 X25.639 Y86.914 E29.92669
G1 X22.403 Y90.538 E30.60539
G1 X19.596 Y94.492 E31.28276
G1 X17.245 Y98.752 E31.96246
G1 X15.394 Y103.22 E32.63805
G1 X14.055 Y107.868 E33.31374
G1 X13.245 Y112.622 E33.98741
G1 X12.968 Y117.489 E34.6684
G1 X13.239 Y122.339 E35.34696
G1 X14.049 Y127.109 E36.02284
G1 X15.394 Y131.78 E36.70185
G1 X17.256 Y136.272 E37.38112
G1 X19.594 Y140.504 E38.05652
G1 X22.404 Y144.462 E38.7346
G1 X25.622 Y148.068 E39.40974
G1 X29.245 Y151.308 E40.08871
G1 X29.63 Y151.612 E40.15724
G1 X29.83 Y151.958 E40.21306
G1 X29.906 Y152.227 E40.25211
G1 X29.92 Y152.484 E40.28807
G1 X29.883 Y152.728 E40.32254
G1 X29.761 Y153.025 E40.36739
G1 X26.384 Y158.874 E41.31086
G1 X25.995 Y159.695 E41.43777
G1 X25.767 Y160.504 E41.55518
G1 X25.673 Y161.352 E41.67437
G1 X25.719 Y162.199 E41.79286
G1 X25.906 Y163.036 E41.91267
G1 X26.225 Y163.819 E42.03078
G1 X26.664 Y164.533 E42.14786
G1 X27.226 Y165.18 E42.26758
G1 X27.887 Y165.722 E42.38699
G1 X28.623 Y166.147 E42.50571
G1 X29.414 Y166.444 E42.62374
G1 X30.251 Y166.608 E42.74289
G1 X31.098 Y166.63 E42.86125
G1 X31.941 Y166.514 E42.98012
G1 X32.755 Y166.26 E43.09923
G1 X33.512 Y165.877 E43.21774
G1 X34.192 Y165.377 E43.33565
G1 X34.79 Y164.762 E43.45548
G1 X35.298 Y164.028 E43.58018
G1 X38.737 Y158.082 E44.53971
G1 X39.024 Y157.795 E44.59641
G1 X39.358 Y157.629 E44.64851
G1 X39.606 Y157.578 E44.68388
G1 X39.874 Y157.583 E44.72132
G1 X40.14 Y157.651 E44.75967
G1 X41.92 Y158.318 E45.02521
G1 X46.601 Y159.665 E45.70565
G1 X51.375 Y160.477 E46.38212
G1 X56.192 Y160.749 E47.05609
G1 X61.055 Y160.477 E47.73648
G1 X65.83 Y159.666 E48.41306
G1 X70.504 Y158.319 E49.09256
G1 X74.982 Y156.463 E49.7697
G0 F6000 X74.634 Y155.741
G1 F1200 X78.798 Y153.442 E50.43415
G1 X82.671 Y150.691 E51.09777
G1 X86.243 Y147.5 E51.76686
G1 X89.399 Y143.966 E52.42874
G1 X92.169 Y140.061 E53.09754
G1 X94.453 Y135.925 E53.75755
G1 X96.291 Y131.485 E54.42883
G1 X97.605 Y126.918 E55.09269
G1 X98.288 Y123.248 E55.61416
G1 X98.461 Y122.879 E55.67109
G1 X98.603 Y122.659 E55.70767
G1 X98.945 Y122.301 E55.77683
G1 X99.32 Y122.058 E55.83926
G1 X99.69 Y121.918 E55.89452
G1 X100.077 Y121.849 E55.94943
G1 X105.078 Y121.849 E56.64803
G1 F1162.2 X105.403 Y121.823 E56.69506
G1 F969.7 X105.8 Y121.686 E56.76766
G1 F776.7 X106.117 Y121.577 E56.84001
G1 X105.837 Y121.391 E56.91256
G1 F969.7 X105.549 Y121.145 E56.97803
G1 F1162.2 X104.968 Y120.822 E57.07391
G1 F1200 X104.7 Y120.642 E57.11901
G1 X104.432 Y120.426 E57.16709
G1 X104.2 Y120.203 E57.21205
G1 X103.976 Y119.947 E57.25956
G1 X103.783 Y119.685 E57.30502
G1 X103.608 Y119.4 E57.35174
G1 X103.463 Y119.114 E57.39653
G1 X103.337 Y118.799 E57.44393
G1 X103.197 Y118.345 E57.51029
G1 X103.111 Y117.714 E57.59926
G1 X103.131 Y117.029 E57.69499
G1 X103.241 Y116.516 E57.76828
G1 X103.337 Y116.201 E57.81428
G1 X103.457 Y115.901 E57.85941
G1 X103.61 Y115.597 E57.90696
G1 X103.78 Y115.32 E57.95236
G1 X103.985 Y115.042 E58.00061
G1 X104.199 Y114.801 E58.04563
G1 X104.438 Y114.571 E58.09197
G1 X104.691 Y114.366 E58.13745
G1 X104.977 Y114.173 E58.18565
G1 F1159.4 X105.552 Y113.853 E58.28079
G1 F992.8 X105.822 Y113.639 E58.33897
G1 F794 X106.146 Y113.42 E58.42153
G1 X105.762 Y113.29 E58.50711
G1 F992.8 X105.436 Y113.179 E58.56526
G1 F1159.4 X105.032 Y113.15 E58.62382
G1 F1200 X100.064 Y113.149 E59.31782
G1 X99.689 Y113.081 E59.37106
G1 X99.319 Y112.941 E59.42632
G1 X98.944 Y112.699 E59.48866
G1 X98.603 Y112.341 E59.55773
G1 X98.461 Y112.121 E59.59431
G1 X98.345 Y111.874 E59.63243
G1 X98.244 Y111.516 E59.68439
G1 X97.606 Y108.082 E60.1723
G1 X96.283 Y103.489 E60.84
G1 X94.454 Y99.074 E61.50757
G1 X92.159 Y94.918 E62.17077
G1 X89.415 Y91.054 E62.8328
G1 X86.23 Y87.486 E63.50092
G1 X82.678 Y84.314 E64.16616
G1 X78.797 Y81.558 E64.83109
G1 X74.636 Y79.259 E65.49517
G1 X70.246 Y77.441 E66.15893
G1 X65.657 Y76.117 E66.82613
G1 X60.943 Y75.317 E67.49405
G1 X56.217 Y75.053 E68.15527
G1 X51.467 Y75.319 E68.81985
G1 X46.778 Y76.115 E69.48424
G1 X42.177 Y77.441 E70.15312
G1 X40.418 Y78.098 E70.41542
G1 X40.047 Y78.209 E70.46952
G1 X39.528 Y78.217 E70.54203
G1 X39.004 Y78.108 E70.61679
G1 X38.559 Y77.855 E70.6883
G1 X38.287 Y77.622 E70.73833
G1 X38.051 Y77.34 E70.7897
G1 X35.514 Y72.944 E71.49872
G1 F1132.1 X35.274 Y72.625 E71.55783
G1 F957.1 X35.018 Y72.396 E71.61799
G1 F789.5 X34.766 Y72.171 E71.68972
G1 X34.746 Y72.499 E71.75949
G1 F957.1 X34.71 Y72.84 E71.81955
G1 F1132.1 X34.705 Y73.179 E71.86975
G1 F1200 X34.718 Y73.492 E71.91351
G1 X34.705 Y73.839 E71.96202
G1 X34.663 Y74.164 E72.0078
G1 X34.591 Y74.493 E72.05484
G1 X34.496 Y74.804 E72.10027
G1 X34.37 Y75.117 E72.1474
G1 X34.226 Y75.403 E72.19213
G1 X34.043 Y75.699 E72.24075
G1 X33.847 Y75.962 E72.28657
G1 X33.629 Y76.209 E72.33259
G1 X33.275 Y76.547 E72.40096
G1 X32.747 Y76.906 E72.49015
G1 X32.155 Y77.18 E72.58128
G1 X31.647 Y77.319 E72.65485
G1 X31.307 Y77.377 E72.70303
G1 X30.981 Y77.404 E72.74873
G1 X30.65 Y77.404 E72.79496
G1 X30.324 Y77.377 E72.84066
G1 X29.985 Y77.319 E72.8887
G1 X29.678 Y77.239 E72.93302
G1 X29.355 Y77.125 E72.98087
G1 X29.06 Y76.991 E73.02613
G1 X28.765 Y76.825 E73.07342
G1 F1153.8 X28.209 Y76.452 E73.17069
G1 F1007.3 X27.765 Y76.231 E73.25322
G1 F864.1 X27.575 Y76.104 E73.29755
G1 F855.6 X27.671 Y76.492 E73.37586
G1 F995.9 X27.743 Y76.817 E73.4319
G1 F1153.8 X27.917 Y77.181 E73.49051
G1 F1200 X30.445 Y81.561 E74.19696
G1 X30.592 Y81.875 E74.24539
G1 X30.716 Y82.354 E74.31451
G1 X30.69 Y82.865 E74.38599
G1 X30.58 Y83.285 E74.44664
G1 X30.365 Y83.695 E74.51131
G1 X30.044 Y84.053 E74.57848
G1 X26.206 Y87.481 E75.29734
G1 X23.029 Y91.037 E75.96346
G1 X20.274 Y94.918 E76.62832
G1 X17.968 Y99.099 E77.29532
G1 X16.151 Y103.485 E77.9585
G1 X14.837 Y108.046 E78.62155
G1 X14.042 Y112.712 E79.28275
G1 X13.769 Y117.489 E79.95115
G1 X14.035 Y122.249 E80.61713
G1 X14.83 Y126.931 E81.28053
G1 X16.151 Y131.515 E81.94694
G1 X17.978 Y135.925 E82.61376
G1 X20.272 Y140.078 E83.27652
G1 X23.03 Y143.962 E83.94196
G1 X26.189 Y147.502 E84.60474
G1 X29.76 Y150.695 E85.27392
G1 X29.958 Y150.851 E85.30913
G1 X30.271 Y151.132 E85.36789
G1 X30.568 Y151.648 E85.45106
G1 X30.696 Y152.096 E85.51614
G1 X30.725 Y152.631 E85.59099
G1 X30.599 Y153.115 E85.66085
G1 X30.493 Y153.354 E85.69738
G1 X27.896 Y157.853 E86.42305
G1 F1162.2 X27.757 Y158.148 E86.47008
G1 F984.6 X27.668 Y158.547 E86.53968
G1 F800.7 X27.595 Y158.875 E86.61003
G1 X27.882 Y158.7 E86.68041
G1 F984.6 X28.221 Y158.544 E86.74394
G1 F1162.2 X28.771 Y158.17 E86.83987
G1 F1200 X29.055 Y158.011 E86.88534
G1 X29.375 Y157.867 E86.93436
G1 X29.678 Y157.762 E86.97915
G1 X29.984 Y157.682 E87.02334
G1 X30.293 Y157.627 E87.06718
G1 X30.638 Y157.597 E87.11556
G1 X30.973 Y157.596 E87.16235
G1 X31.322 Y157.625 E87.21127
G1 X31.639 Y157.679 E87.25619
G1 X31.963 Y157.764 E87.30299
G1 X32.444 Y157.936 E87.37435
G1 X32.856 Y158.167 E87.44033
G1 X33.12 Y158.343 E87.48465
G1 X33.418 Y158.585 E87.53828
G1 X33.637 Y158.799 E87.58105
G1 X33.85 Y159.039 E87.62588
G1 X34.05 Y159.31 E87.67293
G1 X34.22 Y159.587 E87.71833
G1 X34.373 Y159.888 E87.76549
G1 X34.493 Y160.185 E87.81024
G1 X34.595 Y160.52 E87.85916
G1 X34.663 Y160.841 E87.905
G1 X34.706 Y161.166 E87.95079
G1 X34.719 Y161.479 E87.99455
G1 F1165 X34.686 Y162.155 E88.09193
G1 F981.6 X34.738 Y162.529 E88.15642
G1 F790.8 X34.744 Y162.869 E88.2285
G1 X34.997 Y162.642 E88.30056
G1 F981.6 X35.308 Y162.364 E88.3718
G1 F1165 X35.494 Y162.09 E88.41945
G1 F1200 X38.053 Y157.657 E89.13447
G1 X38.288 Y157.376 E89.18565
G1 X38.562 Y157.142 E89.23598
G1 X39.011 Y156.888 E89.30804
G1 X39.532 Y156.78 E89.38237
G1 X39.977 Y156.789 E89.44455
G1 X40.421 Y156.901 E89.50851
G1 X42.171 Y157.558 E89.76963
G1 X46.779 Y158.884 E90.43946
G1 X51.465 Y159.681 E91.10346
G1 X56.192 Y159.947 E91.76483
G1 X60.966 Y159.681 E92.43276
G1 X65.651 Y158.885 E93.0966
G1 X70.239 Y157.563 E93.76358
G1 X74.634 Y155.741 E94.4282
G1 F1500 E88.4282
G0 F6000 X74.063 Y155.671
G0 X73.089 Y154.168
G0 X73.241 Y153.683
G1 F1500 E94.4282
G1 F1200 X73.154 Y153.766 E94.44499
G1 X72.935 Y153.927 E94.48296
G1 X72.627 Y154.087 E94.53145
G1 X68.606 Y155.642 E95.13369
G1 X64.356 Y156.77 E95.74794
G1 X63.957 Y156.8 E95.80383
G1 X63.714 Y156.78 E95.83789
G1 X63.401 Y156.926 E95.88614
G1 X63.066 Y157.013 E95.93449
G1 X58.723 Y157.523 E96.54534
G1 X54.344 Y157.556 E97.15707
G1 X53.936 Y157.491 E97.21479
G1 X53.706 Y157.409 E97.2489
G1 X53.424 Y157.467 E97.28912
G1 X53.035 Y157.478 E97.34348
G1 X48.745 Y156.899 E97.94819
G1 X44.494 Y155.85 E98.55984
G1 X44.063 Y155.669 E98.62514
G1 X43.859 Y155.532 E98.65947
G1 X43.614 Y155.523 E98.69371
G1 X43.229 Y155.447 E98.74853
G1 X39.139 Y153.784 E99.3653
G1 X35.348 Y151.741 E99.96688
G1 X35.051 Y151.534 E100.01745
G1 X34.864 Y151.355 E100.05361
G1 X34.79 Y151.263 E100.0701
G1 X34.675 Y151.235 E100.08664
G1 X34.433 Y151.141 E100.1229
G1 X34.078 Y150.932 E100.18045
G1 X30.634 Y148.385 E100.77882
G1 X27.417 Y145.412 E101.39073
G1 X27.179 Y145.092 E101.44644
G1 X27.066 Y144.874 E101.48074
G1 X26.771 Y144.685 E101.52968
G1 X26.519 Y144.448 E101.57801
G1 X23.776 Y141.078 E102.185
G1 X21.389 Y137.377 E102.80021
G1 X21.229 Y137.002 E102.85716
G1 X21.175 Y136.763 E102.89139
G1 X20.969 Y136.549 E102.93289
G1 X20.755 Y136.23 E102.98655
G1 X18.918 Y132.236 E103.60066
G1 X17.552 Y128.143 E104.20343
G1 X17.476 Y127.689 E104.26773
G1 X17.483 Y127.444 E104.30197
G1 X17.359 Y127.233 E104.33616
G1 X17.219 Y126.865 E104.39116
G1 X16.43 Y122.544 E105.00475
G1 X16.122 Y118.248 E105.60641
G1 X16.159 Y117.738 E105.67784
G1 X16.227 Y117.5 E105.71242
G1 X16.188 Y117.386 E105.72925
G1 X16.133 Y117.098 E105.77021
G1 X16.123 Y116.75 E105.81884
G1 X16.428 Y112.464 E106.41908
G1 X17.219 Y108.132 E107.03423
G1 X17.359 Y107.768 E107.08871
G1 X17.483 Y107.556 E107.12302
G1 X17.486 Y107.196 E107.17331
G1 X17.553 Y106.856 E107.22172
G1 X18.925 Y102.744 E107.82726
G1 X20.758 Y98.762 E108.43962
G1 X21.003 Y98.407 E108.49988
G1 X21.175 Y98.234 E108.53396
G1 X21.248 Y97.94 E108.57627
G1 X21.388 Y97.624 E108.62455
G1 X23.789 Y93.906 E109.24282
G1 X26.519 Y90.552 E109.84693
G1 X26.856 Y90.252 E109.90996
G1 X27.066 Y90.125 E109.94424
G1 X27.182 Y89.903 E109.97923
G1 X27.422 Y89.582 E110.03522
G1 X30.652 Y86.599 E110.64941
G1 X34.078 Y84.068 E111.24443
G1 X34.432 Y83.859 E111.30186
G1 X34.674 Y83.766 E111.33807
G1 X34.79 Y83.738 E111.35474
G1 X34.865 Y83.645 E111.37143
G1 X35.052 Y83.466 E111.4076
G1 X35.367 Y83.248 E111.46111
G1 X39.132 Y81.219 E112.05856
G1 X43.229 Y79.553 E112.67639
G1 X43.616 Y79.476 E112.73151
G1 X43.861 Y79.468 E112.76576
G1 X44.171 Y79.276 E112.81669
G1 X44.494 Y79.152 E112.86502
G1 X48.67 Y78.113 E113.46617
G1 X53.042 Y77.521 E114.08247
G1 X53.467 Y77.538 E114.14189
G1 X53.705 Y77.591 E114.17595
G1 X54.003 Y77.492 E114.21982
G1 X54.345 Y77.443 E114.26808
G1 X58.725 Y77.477 E114.87995
G1 X63.066 Y77.988 E115.49055
G1 X63.494 Y78.11 E115.55272
G1 X63.713 Y78.22 E115.58695
G1 X63.967 Y78.2 E115.62254
G1 X64.358 Y78.23 E115.67732
G1 X68.614 Y79.362 E116.29252
G1 X72.627 Y80.912 E116.89347
G1 X73.054 Y81.155 E116.9621
G1 X73.241 Y81.317 E116.99667
G1 X73.712 Y81.426 E117.0642
G1 X73.98 Y81.547 E117.10528
G1 X77.72 Y83.648 E117.70452
G1 X81.312 Y86.216 E118.32134
G1 X81.568 Y86.487 E118.37342
