;FLAVOR:Marlin
;TIME:5029
;Filament used: 12.7961m
;Layer height: 0.4
;MINX:63.117
;MINY:70.355
;MINZ:0.4
;MAXX:171.94
;MAXY:155.121
;MAXZ:9.6
;Generated with Cura_SteamEngine 5.3.1
M82 ;absolute extrusion mode
; START G-CODE BEGIN

M104 S230.0 ﻿T0
M140 S60.0

G28 ; Home all axes
G92 E0 ; Reset Extruder
M420 S1 ; Load Mesh

M109 S230.0 ﻿T0
M190 S60.0

G92 E0 ; Reset Extruder

G1 X0.6 Y20 Z0.3 F5000.0 ; Move to start position
G1 X0.6 Y200.0 Z0.3 F1500.0 E15 ; Draw the first line
G1 X0.9 Y200.0 Z0.3 F5000.0 ; Move to side a little
G1 X0.9 Y20 Z0.3 F1500.0 E30 ; Draw the second line
G92 E0 ; Reset Extruder
G1 Z2.0 F3000 ; Move Z Axis up little to prevent scratching of Heat Bed
G1 X5 Y20 Z0.3 F5000.0 ; Move over to prevent blob squish

; START G-CODE END
G92 E0
G92 E0
G1 F1500 E-6
;LAYER_COUNT:24
;LAYER:0
M107
;MESH:PRC.stl
G0 F6000 X106.353 Y96.096 Z0.4
;TYPE:WALL-INNER
G1 F1500 E0
G1 F1070.2 X106.027 Y96.246 E0.05621
G1 F1147 X105.831 Y96.307 E0.08621
G1 F1188.1 X105.553 Y96.413 E0.12819
G1 F1200 X105.095 Y96.53 E0.19422
G1 X104.649 Y96.587 E0.25703
G1 X104.373 Y96.592 E0.29559
G1 X103.737 Y96.508 E0.38521
G1 X103.411 Y96.399 E0.43322
G1 X103.106 Y96.273 E0.47932
G1 X102.777 Y96.101 E0.53118
G1 X102.291 Y95.737 E0.61601
G1 X102.07 Y95.506 E0.66066
G1 X101.733 Y95.073 E0.73731
G1 X101.587 Y94.813 E0.77897
G1 X101.378 Y94.291 E0.85751
G1 X101.312 Y94.043 E0.89336
G1 X101.229 Y93.455 E0.97632
G1 X101.242 Y93.1 E1.02594
G1 X101.334 Y92.445 E1.11834
G1 X101.596 Y91.811 E1.21417
G1 X101.818 Y91.459 E1.2723
G1 X102.099 Y91.102 E1.33577
G1 X102.279 Y90.917 E1.37182
G1 X102.761 Y90.544 E1.45696
G1 X103.006 Y90.413 E1.49577
G1 X103.416 Y90.242 E1.55783
G1 X103.744 Y90.133 E1.60611
G1 X104.354 Y90.052 E1.69207
G1 X104.658 Y90.052 E1.73454
G1 X105.381 Y90.158 E1.83662
G1 X105.967 Y90.4 E1.92518
G1 X106.283 Y90.581 E1.97605
G1 X106.715 Y90.911 E2.05199
G1 X106.92 Y91.12 E2.09289
G1 X107.211 Y91.498 E2.15953
G1 X107.366 Y91.743 E2.20003
G1 X107.578 Y92.233 E2.27461
G1 X107.681 Y92.558 E2.32223
G1 X107.754 Y93.064 E2.39365
G1 X107.753 Y93.586 E2.46657
G1 X107.69 Y94.06 E2.53336
G1 X107.577 Y94.41 E2.58474
G1 F1155.2 X107.29 Y95.153 E2.70032
G1 F1094.6 X106.871 Y95.643 E2.79905
G1 F1067.9 X106.653 Y95.845 E2.8457
G1 F1042.3 X106.353 Y96.096 E2.90861
G0 F6000 X104.575 Y96.296
G0 X104.51 Y95.799
G1 F1200 X103.874 Y95.72 E2.99814
G1 X103.279 Y95.481 E3.08771
G1 X102.759 Y95.088 E3.17876
G1 X102.36 Y94.575 E3.26955
G1 X102.108 Y93.968 E3.36136
G1 X102.018 Y93.322 E3.45247
G1 X102.108 Y92.676 E3.54358
G1 X102.351 Y92.077 E3.63388
G1 X102.738 Y91.582 E3.72166
G1 X103.242 Y91.181 E3.81163
G1 X103.859 Y90.924 E3.90499
G1 X104.524 Y90.842 E3.99859
G1 X105.158 Y90.932 E4.08805
G1 X105.742 Y91.172 E4.17625
G1 X106.252 Y91.571 E4.2667
G1 X106.647 Y92.082 E4.35693
G1 X106.896 Y92.677 E4.44703
G1 X106.961 Y93.167 E4.51608
G1 X106.96 Y93.48 E4.5598
G1 F1201.5 X106.896 Y93.963 E4.62778
G1 X106.657 Y94.543 E4.7153
G1 X106.257 Y95.074 E4.80805
G1 X105.752 Y95.462 E4.8969
G1 X105.264 Y95.667 E4.97075
G1 F1200 X104.989 Y95.737 E5.01039
G1 X104.51 Y95.799 E5.07786
G1 F1500 E-0.92214
G0 F6000 X104.575 Y96.296
G0 X106.94 Y96.03
G0 X112.075 Y93.658
G0 X114.044 Y92.981
G0 X115.662 Y92.665
G0 X117.308 Y92.543
G0 X118.951 Y92.62
G0 X120.579 Y92.893
G0 X122.16 Y93.356
G0 X123.019 Y93.725
G0 X127.647 Y95.939
G0 X129.742 Y96.508
G1 F1500 E5.07786
G1 F1200 X129.45 Y96.414 E5.12071
G1 X129.106 Y96.273 E5.17265
G1 F1158 X128.625 Y96.029 E5.25072
G1 F1092.2 X128.339 Y95.835 E5.30376
G1 F1060.8 X128.063 Y95.576 E5.36358
G1 F1042.3 X127.762 Y95.219 E5.43867
G1 F1077.4 X127.59 Y94.867 E5.49963
G1 F1163.6 X127.393 Y94.334 E5.58149
G1 F1200 X127.291 Y93.916 E5.64159
G1 X127.235 Y93.477 E5.70341
G1 X127.232 Y93.219 E5.73946
G1 X127.288 Y92.739 E5.80696
G1 X127.376 Y92.356 E5.86186
G1 X127.599 Y91.814 E5.94373
G1 X127.791 Y91.495 E5.99574
G1 X128.102 Y91.093 E6.06674
G1 X128.32 Y90.887 E6.10864
G1 X128.749 Y90.559 E6.18408
G1 X129.029 Y90.402 E6.22892
G1 X129.552 Y90.192 E6.30765
G1 X129.841 Y90.122 E6.34919
G1 X130.35 Y90.052 E6.42096
G1 X130.647 Y90.052 E6.46245
G1 X131.259 Y90.134 E6.54871
G1 X131.584 Y90.242 E6.59655
G1 X132.004 Y90.417 E6.66011
G1 X132.229 Y90.536 E6.69566
G1 X132.747 Y90.937 E6.78717
G1 X132.95 Y91.16 E6.8293
G1 X133.326 Y91.644 E6.91491
G1 X133.578 Y92.233 E7.00441
G1 X133.686 Y92.58 E7.05517
G1 X133.759 Y93.105 E7.12922
G1 X133.764 Y93.485 E7.18231
G1 X133.709 Y93.916 E7.243
G1 X133.623 Y94.288 E7.29634
G1 X133.409 Y94.822 E7.3767
G1 X133.262 Y95.079 E7.41806
G1 X132.895 Y95.555 E7.50202
G1 X132.666 Y95.767 E7.54562
G1 X132.358 Y96.006 E7.60007
G1 X132.044 Y96.213 E7.65261
G1 X131.589 Y96.398 E7.72122
G1 X131.095 Y96.53 E7.79265
G1 X130.699 Y96.582 E7.84845
G1 X130.235 Y96.574 E7.91327
G1 X129.742 Y96.508 E7.98276
G0 F6000 X129.857 Y95.717
G1 F1200 X129.409 Y95.533 E8.05041
G1 F1201.5 X129.132 Y95.372 E8.09511
G1 X128.832 Y95.141 E8.14794
G1 F1200 X128.651 Y94.953 E8.18439
G1 X128.448 Y94.69 E8.2308
G1 X128.309 Y94.461 E8.26823
G1 X128.145 Y94.061 E8.32862
G1 X128.084 Y93.81 E8.3647
G1 X128.022 Y93.332 E8.43203
G1 X128.098 Y92.699 E8.52109
G1 X128.358 Y92.069 E8.6163
G1 X128.753 Y91.562 E8.70608
G1 X129.261 Y91.172 E8.79555
G1 X129.854 Y90.931 E8.88496
G1 X130.492 Y90.844 E8.97491
G1 X131.133 Y90.922 E9.06512
G1 X131.748 Y91.173 E9.15791
G1 X132.257 Y91.576 E9.2486
G1 X132.637 Y92.06 E9.33456
G1 X132.894 Y92.679 E9.42818
G1 X132.981 Y93.314 E9.51772
G1 X132.887 Y93.981 E9.61181
G1 X132.651 Y94.551 E9.69799
G1 X132.262 Y95.068 E9.78837
G1 X131.754 Y95.463 E9.87827
G1 X131.286 Y95.658 E9.94909
G1 X130.989 Y95.737 E9.99202
G1 X130.62 Y95.786 E10.04402
G1 X130.341 Y95.781 E10.083
G1 X129.857 Y95.717 E10.1512
G1 F1500 E4.1512
G0 F6000 X129.791 Y96.212
G0 X130.734 Y96.865
G0 X129.9 Y98.939
G0 X131.065 Y103.861
G0 X131.261 Y105.498
G0 X131.26 Y107.144
G0 X131.064 Y108.78
G0 X129.892 Y113.677
G0 X128.574 Y115.538
G0 X128.158 Y116.23
G0 X127.676 Y118.566
G0 X127.576 Y119.321
G0 X127.676 Y120.078
G0 X127.969 Y120.784
G0 X128.433 Y121.388
G0 X128.921 Y121.763
G0 X130.527 Y122.599
G1 F1500 E10.1512
G1 F1200 X130.177 Y122.567 E10.2003
G1 X129.763 Y122.507 E10.25873
G1 X129.517 Y122.443 E10.29424
G1 X128.976 Y122.215 E10.37625
G1 X128.712 Y122.057 E10.41923
G1 X128.315 Y121.751 E10.48925
G1 X128.095 Y121.543 E10.53155
G1 X127.791 Y121.146 E10.60139
G1 X127.595 Y120.821 E10.65441
G1 X127.377 Y120.288 E10.73486
G1 X127.291 Y119.916 E10.78819
G1 X127.234 Y119.449 E10.85391
G1 X127.229 Y119.187 E10.89052
G1 X127.288 Y118.739 E10.95364
G1 X127.395 Y118.304 E11.01622
G1 F1162.2 X127.599 Y117.755 E11.10069
G1 F1076.2 X127.765 Y117.419 E11.15906
G1 F1045.8 X127.978 Y117.168 E11.21183
G1 F1059.6 X128.204 Y116.925 E11.26433
G1 F1045.8 X128.599 Y116.587 E11.34767
G1 F1102.2 X129.105 Y116.362 E11.43189
G1 F1189.6 X129.705 Y116.14 E11.52204
G1 F1200 X130.234 Y116.068 E11.59662
G1 X130.709 Y116.061 E11.66298
G1 X131.094 Y116.112 E11.71723
G1 X131.584 Y116.242 E11.78805
G1 X132.058 Y116.436 E11.8596
G1 X132.362 Y116.639 E11.91066
G1 X132.665 Y116.875 E11.96431
G1 X132.893 Y117.085 E12.00761
G1 X133.269 Y117.572 E12.09356
G1 X133.407 Y117.817 E12.13284
G1 X133.61 Y118.317 E12.20822
G1 X133.688 Y118.593 E12.24829
G1 X133.77 Y119.177 E12.33067
G1 X133.764 Y119.488 E12.37412
G1 X133.684 Y120.067 E12.45577
G1 X133.614 Y120.312 E12.49137
G1 X133.393 Y120.847 E12.57223
G1 X133.185 Y121.179 E12.62696
G1 X132.888 Y121.563 E12.69477
G1 X132.677 Y121.758 E12.7349
G1 X132.318 Y122.036 E12.79833
G1 X132.026 Y122.213 E12.84603
G1 X131.482 Y122.443 E12.92854
G1 X131.193 Y122.518 E12.97025
G1 X130.527 Y122.599 E13.06397
G0 F6000 X130.476 Y121.802
G1 F1200 X129.84 Y121.711 E13.15372
G1 X129.248 Y121.463 E13.24338
G1 X128.766 Y121.091 E13.32843
G1 X128.354 Y120.569 E13.42133
G1 X128.101 Y119.948 E13.515
G1 X128.024 Y119.333 E13.60158
G1 X128.081 Y118.842 E13.67063
G1 X128.146 Y118.581 E13.7082
G1 X128.363 Y118.062 E13.78679
G1 X128.748 Y117.565 E13.87461
G1 X129.128 Y117.271 E13.94172
G1 F1201.5 X129.409 Y117.109 E13.98698
G1 X129.862 Y116.925 E14.05519
G1 X130.34 Y116.861 E14.12248
G1 F1200 X130.626 Y116.857 E14.16243
G1 X130.988 Y116.905 E14.21344
G1 X131.282 Y116.983 E14.25593
G1 X131.743 Y117.171 E14.32548
G1 X132.256 Y117.569 E14.41618
G1 X132.635 Y118.06 E14.50283
G1 X132.9 Y118.685 E14.59766
G1 X132.978 Y119.331 E14.68856
G1 X132.891 Y119.979 E14.77989
G1 X132.649 Y120.558 E14.86755
G1 X132.257 Y121.072 E14.95785
G1 X131.739 Y121.473 E15.04936
G1 X131.121 Y121.72 E15.14233
G1 X130.476 Y121.802 E15.23316
G0 F6000 X130.411 Y122.294
G0 X127.903 Y121.724
G0 X127.347 Y117.604
G0 X127.566 Y117.045
G0 X121.66 Y119.79
G0 X116.897 Y120.448
G1 F1200 X115.692 Y120.345 E15.4021
G1 X115.166 Y120.266 E15.4764
G1 X113.954 Y120.011 E15.64942
G1 X113.53 Y119.891 E15.71097
G1 X112.343 Y119.489 E15.88604
G1 X111.887 Y119.297 E15.95516
G1 X110.81 Y118.783 E16.12186
G1 X110.384 Y118.536 E16.19065
G1 X109.425 Y117.93 E16.34912
G1 X109.037 Y117.645 E16.41637
G1 F1183.7 X108.446 Y117.181 E16.52278
G1 F1097.1 X107.944 Y116.836 E16.61584
G1 F1054.9 X107.51 Y116.378 E16.7161
G1 F1093.4 X106.955 Y115.835 E16.83514
G1 F1153.8 X106.579 Y115.295 E16.93074
G1 F1200 X105.795 Y114.267 E17.11134
G1 X104.936 Y112.828 E17.34545
G1 X104.241 Y111.244 E17.58708
G1 X103.752 Y109.666 E17.81786
G1 X103.458 Y108.014 E18.05226
G1 X103.354 Y106.344 E18.286
G1 X103.456 Y104.629 E18.52599
G1 X103.757 Y102.965 E18.76221
G1 X104.271 Y101.321 E19.00283
G1 X104.939 Y99.82 E19.23234
G1 X105.585 Y98.718 E19.41078
G1 X105.862 Y98.288 E19.48223
G1 X106.415 Y97.552 E19.61083
G1 F1188.1 X106.603 Y97.317 E19.65329
G1 F1134.8 X106.92 Y96.842 E19.73765
G1 F1086 X107.512 Y96.263 E19.86547
G1 F1056.1 X107.928 Y95.825 E19.96136
G1 F1102.2 X108.455 Y95.457 E20.05912
G1 F1188.1 X109.041 Y94.994 E20.16449
G1 F1200 X109.313 Y94.791 E20.2119
G1 X110.366 Y94.118 E20.38647
G1 X110.872 Y93.831 E20.46773
G1 X111.946 Y93.319 E20.63394
G1 X112.409 Y93.131 E20.70375
G1 X113.511 Y92.756 E20.86636
G1 X113.958 Y92.63 E20.93123
G1 X115.17 Y92.375 E21.10425
G1 X115.68 Y92.299 E21.17628
G1 X116.818 Y92.197 E21.33588
G1 X117.363 Y92.184 E21.41204
G1 X118.564 Y92.221 E21.57989
G1 X118.975 Y92.259 E21.63755
G1 X120.278 Y92.454 E21.82159
G1 X120.667 Y92.544 E21.87737
G1 X121.857 Y92.868 E22.04965
G1 X122.293 Y93.022 E22.11425
G1 X123.413 Y93.475 E22.28302
G1 X123.892 Y93.713 E22.35773
G1 X124.874 Y94.254 E22.51435
G1 X125.328 Y94.552 E22.59021
G1 X126.307 Y95.255 E22.75858
G1 F1188.1 X126.539 Y95.442 E22.80062
G1 F1152.5 X126.69 Y95.549 E22.82754
G1 F1077.4 X127.078 Y95.848 E22.90375
G1 F1048 X127.74 Y96.499 E23.05226
G1 F1129.4 X128.369 Y97.296 E23.20295
G1 F1200 X128.706 Y97.686 E23.27495
G1 X129.657 Y99.087 E23.51149
G1 X130.426 Y100.576 E23.7456
G1 X131.019 Y102.161 E23.982
G1 X131.421 Y103.799 E24.21761
G1 X131.621 Y105.505 E24.45755
G1 X131.618 Y107.168 E24.68986
G1 X131.412 Y108.87 E24.92935
G1 X131.018 Y110.48 E25.1609
G1 X130.427 Y112.061 E25.39668
G1 X129.652 Y113.562 E25.63265
G1 X128.937 Y114.626 E25.81173
G1 X128.735 Y114.909 E25.8603
G1 F1189.6 X128.377 Y115.349 E25.94023
G1 F1102.2 X127.953 Y115.929 E26.0495
G1 F1032.3 X127.083 Y116.791 E26.24839
G1 F1031.1 X127.074 Y116.79 E26.24986
G1 F1077.4 X126.711 Y117.077 E26.32186
G1 F1149.7 X126.548 Y117.193 E26.35103
G1 F1188.1 X126.307 Y117.385 E26.3945
G1 F1200 X125.258 Y118.14 E26.57505
G1 X124.852 Y118.399 E26.64232
G1 X123.811 Y118.973 E26.80838
G1 X123.475 Y119.139 E26.86073
G1 X122.325 Y119.61 E27.03433
G1 X121.794 Y119.792 E27.11274
G1 X120.678 Y120.097 E27.27436
G1 X120.267 Y120.188 E27.33316
G1 X119.016 Y120.379 E27.50994
G1 X118.566 Y120.421 E27.57308
G1 X117.365 Y120.458 E27.74093
G1 X116.897 Y120.448 E27.80632
G0 F6000 X116.872 Y119.646
G1 F1200 X115.679 Y119.538 E27.97365
G1 X115.276 Y119.472 E28.0307
G1 X114.144 Y119.233 E28.19232
G1 X113.767 Y119.127 E28.24702
G1 X112.625 Y118.74 E28.41546
G1 X112.281 Y118.597 E28.4675
G1 X111.182 Y118.074 E28.63752
G1 X110.811 Y117.859 E28.69742
G1 X109.852 Y117.253 E28.85589
G1 X109.488 Y116.982 E28.91929
G1 X108.537 Y116.208 E29.09057
G1 X108.258 Y115.935 E29.1451
G1 X107.492 Y115.143 E29.29902
G1 X107.181 Y114.766 E29.36729
G1 X106.482 Y113.85 E29.52825
G1 X105.652 Y112.462 E29.75416
G1 X105.013 Y111.026 E29.97373
G1 X104.545 Y109.523 E30.19363
G1 X104.252 Y107.918 E30.42154
G1 X104.157 Y106.365 E30.63889
G1 X104.259 Y104.681 E30.87456
G1 X104.546 Y103.12 E31.09628
G1 X104.999 Y101.658 E31.31009
G1 X105.652 Y100.184 E31.53529
G1 X106.264 Y99.141 E31.70422
G1 X106.502 Y98.768 E31.76603
G1 X107.069 Y98.014 E31.89782
G1 F1201.5 X107.157 Y97.924 E31.91538
G1 X107.439 Y97.558 E31.97984
G1 X108.301 Y96.666 E32.15291
G1 F1200 X108.529 Y96.445 E32.19726
G1 X109.52 Y95.635 E32.37606
G1 X109.792 Y95.433 E32.42339
G1 X110.837 Y94.768 E32.59642
G1 X111.178 Y94.573 E32.65129
G1 X112.272 Y94.05 E32.82068
G1 X112.631 Y93.901 E32.87498
G1 X113.749 Y93.52 E33.03997
G1 X114.186 Y93.399 E33.10332
G1 X115.317 Y93.162 E33.26474
G1 X115.752 Y93.096 E33.3262
G1 X116.874 Y92.995 E33.48357
G1 X117.34 Y92.984 E33.54868
G1 X118.509 Y93.019 E33.71206
G1 X118.925 Y93.059 E33.77044
G1 X120.052 Y93.226 E33.92959
G1 X120.495 Y93.326 E33.99303
G1 X121.576 Y93.619 E34.14949
G1 X122.036 Y93.781 E34.21762
G1 X123.092 Y94.208 E34.37673
G1 X123.506 Y94.414 E34.44133
G1 X124.481 Y94.951 E34.59682
G1 X124.862 Y95.202 E34.66056
G1 X125.815 Y95.886 E34.82442
G1 X126.104 Y96.132 E34.87744
G1 X126.964 Y96.916 E35.04
G1 F1201.5 X127.311 Y97.295 E35.1117
G1 X128.062 Y98.163 E35.27183
G1 X128.942 Y99.458 E35.49028
G1 F1200 X129.693 Y100.89 E35.71616
G1 X130.255 Y102.39 E35.93992
G1 X130.633 Y103.954 E36.16469
G1 X130.818 Y105.487 E36.38039
G1 X130.82 Y107.12 E36.60851
G1 X130.626 Y108.716 E36.8331
G1 X130.254 Y110.252 E37.05387
G1 X129.695 Y111.739 E37.27579
G1 X128.966 Y113.147 E37.49728
G1 X128.285 Y114.162 E37.66802
G1 X128.016 Y114.53 E37.7317
G1 X127.298 Y115.365 E37.88553
G1 X127.041 Y115.647 E37.93883
G1 X126.118 Y116.497 E38.11411
G1 X125.854 Y116.723 E38.16266
G1 X124.819 Y117.471 E38.34105
G1 X124.465 Y117.699 E38.39987
G1 X123.455 Y118.256 E38.56099
G1 X123.068 Y118.445 E38.62115
G1 X122.024 Y118.869 E38.77856
G1 X121.618 Y119.01 E38.8386
G1 X120.483 Y119.321 E39.00299
G1 X120.103 Y119.405 E39.05736
G1 X118.907 Y119.587 E39.22635
G1 X118.512 Y119.623 E39.28176
G1 X117.342 Y119.658 E39.44527
G1 X116.872 Y119.646 E39.51095
G0 F6000 X116.828 Y120.141
G0 X111.772 Y119.535
G0 X107.199 Y116.513
G0 X107.7 Y120.809
G0 X104.651 Y122.59
G1 F1200 X104.342 Y122.589 E39.55412
G1 X103.825 Y122.518 E39.62702
G1 X103.523 Y122.444 E39.67045
G1 X103.039 Y122.244 E39.74361
G1 X102.761 Y122.097 E39.78754
G1 X102.321 Y121.756 E39.8653
G1 X102.112 Y121.563 E39.90504
G1 X101.792 Y121.149 E39.97813
G1 X101.607 Y120.847 E40.02761
G1 X101.41 Y120.379 E40.09854
G1 X101.317 Y120.067 E40.14402
G1 X101.236 Y119.488 E40.22569
G1 X101.231 Y119.17 E40.27012
G1 X101.312 Y118.593 E40.35151
G1 X101.39 Y118.317 E40.39157
G1 X101.551 Y117.92 E40.45142
G1 X101.726 Y117.579 E40.50496
G1 X102.178 Y117 E40.60757
G1 X102.737 Y116.561 E40.70686
G1 X103.107 Y116.368 E40.76516
G1 X103.446 Y116.23 E40.81628
G1 X103.743 Y116.134 E40.85989
G1 X104.233 Y116.068 E40.92895
G1 X104.612 Y116.053 E40.98194
G1 X105.094 Y116.112 E41.04977
G1 X105.584 Y116.242 E41.12059
G1 X105.807 Y116.334 E41.15429
G1 F1159.4 X106.084 Y116.426 E41.19649
G1 F1076.2 X106.401 Y116.588 E41.25194
G1 F1048 X106.656 Y116.798 E41.30478
G1 F1058.4 X106.916 Y117.041 E41.36114
G1 F1082.3 X107.299 Y117.504 E41.45421
G1 F1153.8 X107.578 Y118.233 E41.56761
G1 F1200 X107.692 Y118.587 E41.61956
G1 X107.755 Y119.064 E41.68677
G1 X107.753 Y119.586 E41.75969
G1 X107.66 Y120.213 E41.84824
G1 X107.392 Y120.848 E41.94452
G1 X107.262 Y121.079 E41.98155
G1 X106.89 Y121.562 E42.06671
G1 X106.621 Y121.803 E42.11716
G1 X106.288 Y122.058 E42.17575
G1 X106.024 Y122.215 E42.21866
G1 X105.48 Y122.444 E42.30111
G1 X105.237 Y122.506 E42.33614
G1 X104.651 Y122.59 E42.41884
G0 F6000 X104.521 Y121.8
G1 F1200 X103.88 Y121.72 E42.50908
G1 X103.258 Y121.472 E42.60262
