;FLAVOR:Marlin
;TIME:6466
;Filament used: 17.619m
;Layer height: 0.4
;MINX:79.175
;MINY:73.367
;MINZ:0.4
;MAXX:164.602
;MAXY:161.633
;MAXZ:16.4
;Generated with Cura_SteamEngine 5.3.1
M82 ;absolute extrusion mode
; START G-CODE BEGIN

M104 S230.0 ﻿T0
M140 S60.0

G28 ; Home all axes
G92 E0 ; Reset Extruder
M420 S1 ; Load Mesh

M109 S230.0 ﻿T0
M190 S60.0

G92 E0 ; Reset Extruder

G1 X0.6 Y20 Z0.3 F5000.0 ; Move to start position
G1 X0.6 Y200.0 Z0.3 F1500.0 E15 ; Draw the first line
G1 X0.9 Y200.0 Z0.3 F5000.0 ; Move to side a little
G1 X0.9 Y20 Z0.3 F1500.0 E30 ; Draw the second line
G92 E0 ; Reset Extruder
G1 Z2.0 F3000 ; Move Z Axis up little to prevent scratching of Heat Bed
G1 X5 Y20 Z0.3 F5000.0 ; Move over to prevent blob squish

; START G-CODE END
G92 E0
G92 E0
G1 F2100 E-6
;LAYER_COUNT:41
;LAYER:0
M107
;MESH:tpu forks.stl(1)
G0 F6000 X112.121 Y82.637 Z0.4
;TYPE:WALL-INNER
G1 F2100 E0
G1 F939.9 X112.121 Y81.105 E0.42934
G1 X110.525 Y81.105 E0.87662
G1 F927.8 X109.732 Y81.124 E1.10183
G1 F882.9 X108.938 Y81.185 E1.33942
G1 X108.144 Y81.125 E1.57699
G1 F927.8 X107.35 Y81.105 E1.80249
G1 F939.9 X105.762 Y81.105 E2.24753
G1 F927.8 X104.969 Y81.124 E2.47273
G1 F882.9 X104.175 Y81.185 E2.71033
G1 X103.381 Y81.125 E2.9479
G1 F927.8 X102.587 Y81.105 E3.17339
G1 F939.9 X101 Y81.105 E3.61815
G1 F927.8 X100.207 Y81.124 E3.84336
G1 F882.9 X99.413 Y81.185 E4.08095
G1 X98.619 Y81.125 E4.31852
G1 F927.8 X97.825 Y81.105 E4.54402
G1 F939.9 X96.237 Y81.105 E4.98906
G1 F927.8 X95.444 Y81.124 E5.21426
G1 F882.4 X94.65 Y81.185 E5.452
G1 X93.856 Y81.125 E5.68972
G1 F927.8 X93.062 Y81.105 E5.91522
G1 F939.9 X91.475 Y81.105 E6.35997
G1 F927.8 X90.682 Y81.124 E6.58518
G1 F882.4 X89.888 Y81.185 E6.82292
G1 X89.094 Y81.125 E7.06064
G1 F927.8 X88.3 Y81.105 E7.28613
G1 F939.9 X86.712 Y81.105 E7.73117
G1 F927.8 X85.919 Y81.124 E7.95637
G1 F882.4 X85.125 Y81.185 E8.19411
G1 X84.331 Y81.125 E8.43183
G1 F927.8 X83.537 Y81.105 E8.65733
G1 F939.9 X81.941 Y81.104 E9.10461
G1 X81.941 Y82.637 E9.53423
G1 X83.537 Y82.636 E9.98151
G1 F927.8 X84.174 Y82.68 E10.16279
G1 F882.4 X84.797 Y82.809 E10.35273
G1 F851.1 X85.125 Y82.973 E10.46623
G1 X85.453 Y82.809 E10.57974
G1 F887.8 X86.114 Y82.671 E10.78009
G1 F933.9 X86.712 Y82.636 E10.94907
G1 F939.9 X88.3 Y82.636 E11.3941
G1 F927.8 X88.937 Y82.68 E11.57538
G1 F882.4 X89.56 Y82.809 E11.76532
G1 F851.1 X89.888 Y82.973 E11.87883
G1 X90.216 Y82.809 E11.99233
G1 F887.8 X90.877 Y82.671 E12.19269
G1 F933.9 X91.475 Y82.636 E12.36166
G1 F939.9 X93.062 Y82.636 E12.80642
G1 F927.8 X93.699 Y82.68 E12.9877
G1 F882.4 X94.322 Y82.809 E13.17764
G1 F851.1 X94.65 Y82.973 E13.29114
G1 X94.978 Y82.809 E13.40465
G1 F887.8 X95.639 Y82.671 E13.605
G1 F933.9 X96.237 Y82.636 E13.77397
G1 F939.9 X97.825 Y82.636 E14.21901
G1 F927.8 X98.462 Y82.68 E14.40029
G1 F882.9 X99.085 Y82.81 E14.59017
G1 F851.6 X99.413 Y82.975 E14.70375
G1 X99.741 Y82.81 E14.81733
G1 F888.3 X100.402 Y82.671 E15.01762
G1 F933.9 X101 Y82.636 E15.18659
G1 F939.9 X102.587 Y82.636 E15.63135
G1 F927.8 X103.224 Y82.68 E15.81263
G1 F882.9 X103.847 Y82.81 E16.00251
G1 F851.6 X104.175 Y82.975 E16.11609
G1 X104.503 Y82.81 E16.22967
G1 F888.3 X105.164 Y82.671 E16.42996
G1 F933.9 X105.762 Y82.636 E16.59893
G1 F939.9 X107.35 Y82.636 E17.04397
G1 F927.8 X107.987 Y82.68 E17.22525
G1 F882.9 X108.61 Y82.81 E17.41513
G1 F851.6 X108.938 Y82.975 E17.52871
G1 X109.266 Y82.81 E17.64229
G1 F888.3 X109.927 Y82.671 E17.84258
G1 F933.9 X110.525 Y82.636 E18.01155
G1 F939.9 X112.121 Y82.637 E18.45883
G0 F6000 X113.487 Y84.102
G0 X113.487 Y84.704
G1 F1200 X113.487 Y79.739 E19.54873
G1 X80.575 Y79.738 E26.77347
G1 X80.574 Y84.706 E27.86403
G1 X80.87 Y84.362 E27.96365
G1 X81.445 Y84.073 E28.10492
G1 X81.95 Y84.002 E28.21687
G1 X83.537 Y84.002 E28.56524
G1 X83.897 Y84.038 E28.64466
G1 X84.236 Y84.142 E28.7225
G1 X84.617 Y84.341 E28.81686
G1 X84.949 Y84.683 E28.92149
G1 X85.125 Y84.989 E28.99898
G1 X85.301 Y84.683 E29.07647
G1 X85.632 Y84.341 E29.18095
G1 X86.013 Y84.142 E29.2753
G1 X86.352 Y84.037 E29.35321
G1 X86.712 Y84.002 E29.43261
G1 X88.3 Y84.002 E29.7812
G1 X88.66 Y84.038 E29.86062
G1 X88.999 Y84.142 E29.93846
G1 X89.38 Y84.341 E30.03282
G1 X89.712 Y84.683 E30.13745
G1 X89.888 Y84.989 E30.21494
G1 X90.064 Y84.683 E30.29243
G1 X90.395 Y84.341 E30.39691
G1 X90.776 Y84.142 E30.49126
G1 X91.115 Y84.037 E30.56917
G1 X91.475 Y84.002 E30.64857
G1 X93.062 Y84.002 E30.99694
G1 X93.422 Y84.038 E31.07636
G1 X93.761 Y84.142 E31.1542
G1 X94.142 Y84.341 E31.24856
G1 X94.474 Y84.683 E31.35319
G1 X94.65 Y84.989 E31.43068
G1 X94.826 Y84.683 E31.50817
G1 X95.157 Y84.341 E31.61265
G1 X95.538 Y84.142 E31.707
G1 X95.877 Y84.037 E31.78491
G1 X96.237 Y84.002 E31.86431
G1 X97.825 Y84.002 E32.2129
G1 X98.185 Y84.038 E32.29232
G1 X98.524 Y84.142 E32.37016
G1 X98.905 Y84.341 E32.46452
G1 X99.238 Y84.684 E32.56946
G1 X99.413 Y84.988 E32.64646
G1 X99.588 Y84.684 E32.72346
G1 X99.92 Y84.341 E32.82825
G1 X100.301 Y84.142 E32.9226
G1 X100.64 Y84.037 E33.00051
G1 X101 Y84.002 E33.07991
G1 X102.587 Y84.002 E33.42828
G1 X102.947 Y84.038 E33.5077
G1 X103.286 Y84.142 E33.58554
G1 X103.667 Y84.341 E33.6799
G1 X104 Y84.684 E33.78484
G1 X104.175 Y84.988 E33.86184
G1 X104.35 Y84.684 E33.93884
G1 X104.682 Y84.341 E34.04363
G1 X105.063 Y84.142 E34.13798
G1 X105.402 Y84.037 E34.21589
G1 X105.762 Y84.002 E34.29529
G1 X107.35 Y84.002 E34.64388
G1 X107.71 Y84.038 E34.7233
G1 X108.049 Y84.142 E34.80114
G1 X108.43 Y84.341 E34.8955
G1 X108.763 Y84.684 E35.00044
G1 X108.938 Y84.988 E35.07744
G1 X109.113 Y84.684 E35.15444
G1 X109.445 Y84.341 E35.25923
G1 X109.826 Y84.142 E35.35358
G1 X110.165 Y84.037 E35.43149
G1 X110.525 Y84.002 E35.51089
G1 X112.112 Y84.002 E35.85926
G1 X112.617 Y84.073 E35.97121
G1 X113.193 Y84.361 E36.11257
G1 X113.487 Y84.704 E36.21174
G1 F2100 E30.21174
G0 F6000 X113.487 Y84.102
G0 X114.417 Y154.965
G0 X114.494 Y155.042
;TYPE:WALL-OUTER
G1 F2100 E36.21174
G1 F907.4 X114.494 Y85.802 E56.31288
G1 F966.4 X114.59 Y85.405 E56.42421
G1 F1111.1 X114.687 Y85.008 E56.5211
G1 F1200 X114.687 Y78.539 E57.94115
G1 X79.375 Y78.538 E65.69273
G1 X79.375 Y85.008 E67.11301
G1 F1111.1 X79.472 Y85.405 E67.2099
G1 F966.4 X79.569 Y85.802 E67.32129
G1 F907.4 X79.569 Y155.042 E87.42243
G1 X81.157 Y155.042 E87.88344
G1 X81.157 Y85.802 E107.98458
G1 F1033.7 X81.42 Y85.519 E108.08303
G1 F1200 X81.59 Y85.322 E108.14015
G1 X81.826 Y85.202 E108.19827
G1 X83.617 Y85.202 E108.59142
G1 X83.924 Y85.342 E108.66549
G1 F1160.4 X84.134 Y85.565 E108.73503
G1 F1004.2 X84.331 Y85.802 E108.81587
G1 F907.4 X84.331 Y155.042 E128.91701
G1 X85.919 Y155.042 E129.37803
G1 X85.919 Y85.802 E149.47917
G1 F1004.2 X86.116 Y85.565 E149.56001
G1 F1160.4 X86.325 Y85.342 E149.62939
G1 F1200 X86.635 Y85.202 E149.70406
G1 X88.38 Y85.202 E150.08712
G1 X88.687 Y85.342 E150.16119
G1 F1160.4 X88.897 Y85.565 E150.23073
G1 F1004.2 X89.094 Y85.802 E150.31157
G1 F907.4 X89.094 Y155.042 E170.41271
G1 X90.682 Y155.042 E170.87372
G1 X90.682 Y85.802 E190.97486
G1 F1004.2 X90.879 Y85.565 E191.05571
G1 F1160.4 X91.088 Y85.342 E191.12509
G1 F1200 X91.398 Y85.202 E191.19976
G1 X93.142 Y85.202 E191.5826
G1 X93.449 Y85.342 E191.65667
G1 F1160.4 X93.659 Y85.565 E191.7262
G1 F1004.2 X93.856 Y85.802 E191.80705
G1 F907.4 X93.856 Y155.042 E211.90819
G1 X95.444 Y155.042 E212.3692
G1 X95.444 Y85.802 E232.47034
G1 F1004.2 X95.641 Y85.565 E232.55119
G1 F1160.4 X95.85 Y85.342 E232.62057
G1 F1200 X96.16 Y85.202 E232.69524
G1 X97.905 Y85.202 E233.07829
G1 X98.212 Y85.342 E233.15236
G1 F1160.4 X98.422 Y85.565 E233.2219
G1 F1004.2 X98.619 Y85.802 E233.30274
G1 F907.4 X98.619 Y155.042 E253.40388
G1 X100.207 Y155.042 E253.8649
G1 X100.207 Y85.802 E273.96604
G1 F1004.2 X100.404 Y85.565 E274.04688
G1 F1160.4 X100.613 Y85.342 E274.11627
G1 F1200 X100.923 Y85.202 E274.19093
G1 X102.667 Y85.202 E274.57377
G1 X102.974 Y85.342 E274.64784
G1 F1160.4 X103.184 Y85.565 E274.71738
G1 F1004.2 X103.381 Y85.802 E274.79822
G1 F907.4 X103.381 Y155.042 E294.89936
G1 X104.969 Y155.042 E295.36038
G1 X104.969 Y85.802 E315.46152
G1 F1004.2 X105.166 Y85.565 E315.54236
G1 F1160.4 X105.375 Y85.342 E315.61174
G1 F1200 X105.685 Y85.202 E315.68641
G1 X107.43 Y85.202 E316.06947
G1 X107.737 Y85.342 E316.14354
G1 F1160.4 X107.947 Y85.565 E316.21308
G1 F1004.2 X108.144 Y85.802 E316.29392
G1 F907.4 X108.144 Y155.042 E336.39506
G1 X109.732 Y155.042 E336.85607
G1 X109.732 Y85.802 E356.95721
G1 F1004.2 X109.929 Y85.565 E357.03806
G1 F1160.4 X110.138 Y85.342 E357.10744
G1 F1200 X110.448 Y85.202 E357.18211
G1 X112.235 Y85.202 E357.57438
G1 X112.473 Y85.321 E357.6328
G1 X112.642 Y85.519 E357.68994
G1 F1033.7 X112.906 Y85.802 E357.78856
G1 F907.4 X112.906 Y155.042 E377.8897
G1 X114.494 Y155.042 E378.35072
G1 F2100 E372.35072
;MESH:tpu forks.stl
G0 F6000 X114.417 Y154.965
G0 X114.467 Y153.895
G0 X115.952 Y153.895
G0 X127.825 Y153.895
G0 X129.31 Y153.895
G0 X131.656 Y153.895
;TYPE:WALL-INNER
G1 F2100 E378.35072
G1 F939.9 X133.252 Y153.895 E378.79799
G1 F930.8 X133.936 Y153.881 E378.9916
G1 F885.6 X134.84 Y153.815 E379.26121
G1 F882.9 X135.633 Y153.875 E379.49849
G1 F927.8 X136.427 Y153.895 E379.72398
G1 F939.9 X138.015 Y153.895 E380.16902
G1 F930.8 X138.699 Y153.881 E380.36263
G1 F885.6 X139.603 Y153.815 E380.63223
G1 F882.9 X140.396 Y153.875 E380.86951
G1 F927.8 X141.19 Y153.895 E381.095
G1 F939.9 X142.777 Y153.895 E381.53976
G1 F930.8 X143.461 Y153.881 E381.73337
G1 F885.6 X144.365 Y153.815 E382.00297
G1 F882.9 X145.158 Y153.875 E382.24025
G1 F927.8 X145.952 Y153.895 E382.46574
G1 F939.9 X147.54 Y153.895 E382.91078
G1 F930.8 X148.224 Y153.881 E383.10439
G1 F885.1 X149.128 Y153.815 E383.37416
G1 F882.4 X149.921 Y153.875 E383.61158
G1 F927.8 X150.715 Y153.895 E383.83708
G1 F939.9 X152.302 Y153.895 E384.28183
G1 F930.8 X152.986 Y153.881 E384.47544
G1 F885.1 X153.89 Y153.815 E384.74521
G1 F882.4 X154.683 Y153.875 E384.98264
G1 F927.8 X155.477 Y153.895 E385.20813
G1 F939.9 X157.065 Y153.895 E385.65317
G1 F930.8 X157.749 Y153.881 E385.84678
G1 F885.1 X158.653 Y153.815 E386.11655
G1 F882.4 X159.446 Y153.875 E386.35397
G1 F927.8 X160.24 Y153.895 E386.57946
G1 F939.9 X161.836 Y153.896 E387.02674
G1 X161.836 Y152.363 E387.45637
G1 X160.24 Y152.364 E387.90364
G1 F927.8 X159.603 Y152.32 E388.08493
G1 F882.4 X158.981 Y152.191 E388.27457
G1 F851.1 X158.653 Y152.026 E388.38821
G1 X158.325 Y152.191 E388.50186
G1 F868 X157.655 Y152.33 E388.70952
G1 F912 X157.065 Y152.364 E388.88022
G1 F939.9 X155.477 Y152.364 E389.32526
G1 F927.8 X154.84 Y152.32 E389.50654
G1 F882.4 X154.218 Y152.191 E389.69619
G1 F851.1 X153.89 Y152.026 E389.80983
G1 X153.562 Y152.191 E389.92348
G1 F868 X152.892 Y152.33 E390.13114
G1 F912 X152.302 Y152.364 E390.30184
G1 F939.9 X150.715 Y152.364 E390.7466
G1 F927.8 X150.078 Y152.32 E390.92788
G1 F882.4 X149.456 Y152.191 E391.11752
G1 F851.1 X149.128 Y152.026 E391.23117
G1 X148.8 Y152.191 E391.34481
G1 F868 X148.13 Y152.33 E391.55247
G1 F912 X147.54 Y152.364 E391.72318
G1 F939.9 X145.952 Y152.364 E392.16821
G1 F927.8 X145.315 Y152.32 E392.34949
G1 F882.9 X144.693 Y152.19 E392.53908
G1 F851.6 X144.365 Y152.025 E392.65266
G1 X144.037 Y152.19 E392.76624
G1 F868.5 X143.368 Y152.33 E392.97354
G1 F912 X142.777 Y152.364 E393.14453
G1 F939.9 X141.19 Y152.364 E393.58929
G1 F927.8 X140.553 Y152.32 E393.77057
G1 F882.9 X139.931 Y152.19 E393.96016
G1 F851.6 X139.603 Y152.025 E394.07374
G1 X139.275 Y152.19 E394.18731
G1 F868.5 X138.606 Y152.33 E394.39461
G1 F912 X138.015 Y152.364 E394.56561
G1 F939.9 X136.427 Y152.364 E395.01064
G1 F927.8 X135.79 Y152.32 E395.19192
G1 F882.9 X135.168 Y152.19 E395.38151
G1 F851.6 X134.84 Y152.025 E395.49509
G1 X134.512 Y152.19 E395.60867
G1 F868.5 X133.843 Y152.33 E395.81597
G1 F912 X133.252 Y152.364 E395.98696
G1 F939.9 X131.656 Y152.363 E396.43424
G1 X131.656 Y153.895 E396.86358
G0 F6000 X130.29 Y155.261
G1 F1200 X163.202 Y155.262 E404.08832
G1 X163.202 Y150.296 E405.17844
G1 X162.909 Y150.639 E405.27747
G1 X162.333 Y150.927 E405.41884
G1 X161.827 Y150.998 E405.531
G1 X160.24 Y150.998 E405.87937
G1 X159.88 Y150.962 E405.95879
G1 X159.541 Y150.858 E406.03663
G1 X159.16 Y150.659 E406.13099
G1 X158.828 Y150.316 E406.23578
G1 X158.653 Y150.012 E406.31278
G1 X158.478 Y150.316 E406.38978
G1 X158.145 Y150.659 E406.49472
G1 X157.764 Y150.858 E406.58908
G1 X157.376 Y150.972 E406.67785
G1 X157.065 Y150.998 E406.74636
G1 X155.477 Y150.998 E407.09495
G1 X155.117 Y150.962 E407.17437
G1 X154.778 Y150.858 E407.25221
G1 X154.397 Y150.659 E407.34657
G1 X154.065 Y150.316 E407.45136
G1 X153.89 Y150.012 E407.52836
G1 X153.715 Y150.316 E407.60536
G1 X153.382 Y150.659 E407.7103
G1 X153.001 Y150.858 E407.80466
G1 X152.613 Y150.972 E407.89343
G1 X152.302 Y150.998 E407.96194
G1 X150.715 Y150.998 E408.31031
G1 X150.355 Y150.962 E408.38973
G1 X150.016 Y150.858 E408.46757
G1 X149.635 Y150.659 E408.56193
G1 X149.303 Y150.316 E408.66671
G1 X149.128 Y150.012 E408.74371
G1 X148.953 Y150.316 E408.82072
G1 X148.62 Y150.659 E408.92566
G1 X148.239 Y150.858 E409.02001
G1 X147.851 Y150.972 E409.10879
G1 X147.54 Y150.998 E409.17729
G1 X145.952 Y150.998 E409.52589
G1 X145.592 Y150.962 E409.60531
G1 X145.253 Y150.858 E409.68315
G1 X144.872 Y150.659 E409.7775
G1 X144.54 Y150.316 E409.88229
G1 X144.365 Y150.012 E409.95929
G1 X144.19 Y150.316 E410.03629
G1 X143.857 Y150.659 E410.14123
G1 X143.476 Y150.858 E410.23559
G1 X143.088 Y150.972 E410.32436
G1 X142.777 Y150.998 E410.39287
G1 X141.19 Y150.998 E410.74125
G1 X140.83 Y150.962 E410.82067
G1 X140.491 Y150.858 E410.89851
G1 X140.11 Y150.659 E410.99286
G1 X139.778 Y150.316 E411.09765
G1 X139.603 Y150.012 E411.17465
G1 X139.428 Y150.316 E411.25165
G1 X139.095 Y150.659 E411.35659
G1 X138.714 Y150.858 E411.45095
G1 X138.326 Y150.972 E411.53972
G1 X138.015 Y150.998 E411.60823
G1 X136.427 Y150.998 E411.95682
G1 X136.067 Y150.962 E412.03624
G1 X135.728 Y150.858 E412.11408
G1 X135.347 Y150.659 E412.20844
G1 X135.015 Y150.316 E412.31323
G1 X134.84 Y150.012 E412.39023
G1 X134.665 Y150.316 E412.46723
G1 X134.332 Y150.659 E412.57217
G1 X133.951 Y150.858 E412.66653
G1 X133.563 Y150.972 E412.7553
G1 X133.252 Y150.998 E412.82381
G1 X131.665 Y150.998 E413.17218
G1 X131.159 Y150.927 E413.28435
G1 X130.583 Y150.638 E413.42581
G1 X130.289 Y150.294 E413.52515
G1 X130.29 Y155.261 E414.61549
G1 F2100 E408.61549
G0 F6000 X129.09 Y156.461
;TYPE:WALL-OUTER
G1 F2100 E414.61549
G1 F1200 X164.402 Y156.462 E422.36707
G1 X164.402 Y150.785 E423.61326
G1 F1135.6 X164.334 Y149.991 E423.79811
G1 F981.6 X164.203 Y149.474 E423.94124
G1 F904.5 X164.209 Y149.198 E424.02164
G1 F907.4 X164.209 Y79.958 E444.12278
G1 X162.621 Y79.958 E444.58379
G1 F906.8 X162.62 Y97.303 E449.62241
G1 F905.1 X162.619 Y114.648 E454.67055
G1 F904 X162.618 Y131.993 E459.72503
G1 F902.3 X162.616 Y149.338 E464.78903
G1 F981.6 X162.417 Y149.513 E464.86015
G1 F1106 X162.069 Y149.765 E464.96248
G1 F1166.9 X161.827 Y149.798 E465.01762
G1 F1200 X160.16 Y149.798 E465.38355
G1 F1163.2 X159.936 Y149.731 E465.4365
G1 F1062.7 X159.446 Y149.301 E465.59809
G1 F1003.5 X159.446 Y148.017 E465.93515
G1 F1001.4 X159.446 Y146.733 E466.27291
G1 F999.3 X159.446 Y145.449 E466.61138
G1 F997.9 X159.446 Y144.165 E466.95031
G1 F995.9 X159.446 Y142.881 E467.28995
G1 F993.8 X159.446 Y141.597 E467.6303
G1 F991.7 X159.446 Y140.313 E467.97135
G1 F989.7 X159.446 Y139.029 E468.31311
G1 F987.7 X159.446 Y137.745 E468.65556
G1 F986.3 X159.446 Y136.461 E468.99849
G1 F984.3 X159.446 Y135.177 E469.34213
G1 F982.3 X159.446 Y133.893 E469.68647
G1 F980.3 X159.446 Y132.609 E470.03151
G1 F978.3 X159.446 Y131.325 E470.37726
G1 F976.3 X159.446 Y130.041 E470.72371
G1 F974.9 X159.446 Y128.757 E471.07063
G1 F973 X159.446 Y127.473 E471.41826
G1 F971 X159.446 Y126.189 E471.76659
G1 F969 X159.446 Y124.905 E472.11563
G1 F967.1 X159.446 Y123.621 E472.46537
G1 F965.1 X159.446 Y122.337 E472.81581
G1 F963.9 X159.446 Y121.053 E473.16673
G1 F961.9 X159.446 Y119.769 E473.51835
G1 F960 X159.446 Y118.485 E473.87067
G1 F958.1 X159.446 Y117.201 E474.2237
G1 F956.2 X159.446 Y115.917 E474.57744
G1 F954.3 X159.446 Y114.633 E474.93188
G1 F953 X159.446 Y113.349 E475.28678
G1 F951.1 X159.446 Y112.065 E475.6424
