;FLAVOR:Marlin
;TIME:18839
;Filament used: 73.22m
;Layer height: 0.6
;MINX:16.167
;MINY:16.987
;MINZ:0.4
;MAXX:225.493
;MAXY:218.835
;MAXZ:19
;Generated with Cura_SteamEngine 5.3.1
M82 ;absolute extrusion mode
; START G-CODE BEGIN

M104 S230.0 ﻿T0
M140 S60.0

G28 ; Home all axes
G92 E0 ; Reset Extruder
M420 S1 ; Load Mesh

M109 S230.0 ﻿T0
M190 S60.0

G92 E0 ; Reset Extruder

G1 X0.6 Y20 Z0.3 F5000.0 ; Move to start position
G1 X0.6 Y200.0 Z0.3 F1500.0 E15 ; Draw the first line
G1 X0.9 Y200.0 Z0.3 F5000.0 ; Move to side a little
G1 X0.9 Y20 Z0.3 F1500.0 E30 ; Draw the second line
G92 E0 ; Reset Extruder
G1 Z2.0 F3000 ; Move Z Axis up little to prevent scratching of Heat Bed
G1 X5 Y20 Z0.3 F5000.0 ; Move over to prevent blob squish

; START G-CODE END
G92 E0
G92 E0
G1 F2100 E-6
;LAYER_COUNT:32
;LAYER:0
M107
;MESH:3.5 mold bottom.stl
G0 F6000 X31.351 Y36.075 Z0.4
;TYPE:WALL-INNER
G1 F2100 E0
G1 F1200 X30.981 Y36.266 E0.0914
G1 X30.046 Y36.651 E0.31337
G1 X29.665 Y36.74 E0.39926
G1 X28.746 Y36.866 E0.60288
G1 X28.493 Y36.875 E0.65846
G1 X28.209 Y36.868 E0.72082
G1 X27.255 Y36.742 E0.93206
G1 X26.924 Y36.655 E1.00718
G1 X26.663 Y36.561 E1.06808
G1 X26.049 Y36.307 E1.21394
G1 X25.821 Y36.202 E1.26904
G1 X25.592 Y36.071 E1.32696
G1 X25.366 Y35.912 E1.38761
G1 X24.841 Y35.508 E1.53303
G1 X24.556 Y35.259 E1.61611
G1 X24.293 Y34.961 E1.70336
G1 X23.888 Y34.435 E1.84909
G1 X23.669 Y34.109 E1.9353
G1 X23.49 Y33.744 E2.02454
G1 X23.239 Y33.134 E2.16934
G1 X23.117 Y32.772 E2.25319
G1 X23.059 Y32.512 E2.31167
G1 X22.952 Y31.731 E2.48471
G1 X22.927 Y31.335 E2.57182
G1 X22.952 Y30.938 E2.65914
G1 X23.039 Y30.284 E2.80396
G1 X23.115 Y29.903 E2.88925
G1 X23.238 Y29.54 E2.97338
G1 X23.492 Y28.921 E3.12026
G1 X23.604 Y28.681 E3.1784
G1 X23.803 Y28.342 E3.26469
G1 X24.346 Y27.639 E3.45968
G1 X24.669 Y27.294 E3.56343
G1 X25.481 Y26.668 E3.7885
G1 X25.817 Y26.469 E3.87422
G1 X26.055 Y26.359 E3.93177
G1 X26.666 Y26.107 E4.07686
G1 X27.031 Y25.983 E4.16148
G1 X27.292 Y25.925 E4.22017
G1 X28.073 Y25.819 E4.39319
G1 X28.467 Y25.794 E4.47985
G1 X28.861 Y25.819 E4.56651
G1 X29.519 Y25.906 E4.71221
G1 X29.905 Y25.983 E4.79862
G1 X30.271 Y26.108 E4.88352
G1 X30.881 Y26.36 E5.0284
G1 X31.239 Y26.536 E5.11597
G1 X31.561 Y26.751 E5.20096
G1 X32.092 Y27.158 E5.34783
G1 X32.395 Y27.425 E5.43648
G1 X32.647 Y27.714 E5.52065
G1 X33.048 Y28.237 E5.66532
G1 X33.205 Y28.462 E5.72555
G1 X33.377 Y28.764 E5.80184
G1 X33.694 Y29.53 E5.98382
G1 X33.788 Y29.791 E6.04471
G1 X33.875 Y30.122 E6.11984
G1 X34.001 Y31.076 E6.33108
G1 X34.008 Y31.36 E6.39344
G1 X33.999 Y31.613 E6.44901
G1 X33.864 Y32.599 E6.66748
G1 X33.754 Y32.992 E6.75706
G1 X33.399 Y33.848 E6.96049
G1 X33.265 Y34.108 E7.0247
G1 X33.087 Y34.381 E7.09624
G1 X32.509 Y35.13 E7.30392
G1 X32.145 Y35.468 E7.41296
G1 X31.351 Y36.075 E7.63236
G0 F6000 X28.476 Y35.687
G1 F1200 X27.478 Y35.561 E7.85317
G1 X27.218 Y35.492 E7.91222
G1 X26.412 Y35.159 E8.10366
G1 X26.183 Y35.027 E8.16168
G1 X25.45 Y34.462 E8.36484
G1 X25.244 Y34.229 E8.43311
G1 X24.743 Y33.579 E8.61326
G1 X24.6 Y33.288 E8.68444
G1 X24.349 Y32.678 E8.82924
G1 X24.241 Y32.304 E8.91469
G1 X24.142 Y31.573 E9.07662
G1 X24.122 Y31.25 E9.14766
G1 X24.249 Y30.289 E9.36045
G1 X24.348 Y29.996 E9.42834
G1 X24.643 Y29.278 E9.59874
G1 X24.77 Y29.061 E9.65393
G1 X25.275 Y28.399 E9.83671
G1 X25.47 Y28.189 E9.89962
G1 X26.196 Y27.637 E10.09982
G1 X26.411 Y27.509 E10.15475
G1 X27.123 Y27.216 E10.32376
G1 X27.499 Y27.107 E10.4097
G1 X28.23 Y27.009 E10.5716
G1 X28.551 Y26.989 E10.6422
G1 X29.361 Y27.096 E10.82156
G1 X29.667 Y27.157 E10.89005
G1 X30.423 Y27.469 E11.06958
G1 X30.707 Y27.609 E11.13909
G1 X31.362 Y28.111 E11.32024
G1 X31.6 Y28.32 E11.38977
G1 X32.163 Y29.054 E11.59284
G1 X32.294 Y29.285 E11.65113
G1 X32.625 Y30.085 E11.84118
G1 X32.694 Y30.345 E11.90023
G1 X32.82 Y31.344 E12.12127
G1 X32.675 Y32.447 E12.36548
G1 X32.279 Y33.419 E12.59588
G1 X32.12 Y33.671 E12.66129
G1 X31.601 Y34.343 E12.84768
G1 X31.392 Y34.533 E12.90968
G1 X30.727 Y35.04 E13.09324
G1 X30.484 Y35.174 E13.15416
G1 X29.68 Y35.501 E13.34469
G1 X29.361 Y35.573 E13.41648
G1 X28.476 Y35.687 E13.61236
G1 F2100 E7.61236
G0 F6000 X29.553 Y35.385
G0 X30.126 Y35.147
G0 X34.192 Y33.196
G0 X100.691 Y35.849
G0 X104.91 Y36.87
G1 F2100 E13.61236
G1 F1200 X104.45 Y36.868 E13.71333
G1 X103.616 Y36.763 E13.89786
G1 X103.33 Y36.711 E13.96167
G1 X103.004 Y36.62 E14.03597
G1 X102.15 Y36.264 E14.23907
G1 X101.738 Y36.044 E14.3416
G1 X100.992 Y35.469 E14.54836
G1 X100.784 Y35.286 E14.60917
G1 X100.567 Y35.058 E14.67827
G1 X100.001 Y34.316 E14.88313
G1 X99.78 Y33.955 E14.97604
G1 X99.352 Y32.916 E15.22271
G1 X99.264 Y32.536 E15.30834
G1 X99.124 Y31.478 E15.54261
G1 X99.134 Y31.084 E15.62913
G1 X99.259 Y30.13 E15.84034
G1 X99.346 Y29.799 E15.91547
G1 X99.438 Y29.54 E15.9758
G1 X99.692 Y28.922 E16.12247
G1 X99.797 Y28.693 E16.17778
G1 X99.929 Y28.462 E16.23618
G1 X100.088 Y28.233 E16.29738
G1 X100.488 Y27.712 E16.44157
G1 X100.74 Y27.424 E16.52557
G1 X101.042 Y27.158 E16.61391
G1 X101.573 Y26.751 E16.76078
G1 X101.896 Y26.536 E16.84595
G1 X102.255 Y26.359 E16.93382
G1 X102.866 Y26.107 E17.0789
G1 X103.231 Y25.983 E17.16352
G1 X103.492 Y25.925 E17.22222
G1 X104.273 Y25.819 E17.39523
G1 X104.667 Y25.794 E17.48189
G1 X105.061 Y25.819 E17.56856
G1 X105.719 Y25.906 E17.71426
G1 X106.105 Y25.983 E17.80066
G1 X106.471 Y26.108 E17.88556
G1 X107.081 Y26.36 E18.03044
G1 X107.317 Y26.469 E18.08751
G1 X107.607 Y26.64 E18.16141
G1 X108.342 Y27.196 E18.36372
G1 X108.588 Y27.417 E18.43631
G1 X108.789 Y27.641 E18.50238
G1 X109.361 Y28.394 E18.70996
G1 X109.531 Y28.682 E18.78337
G1 X109.64 Y28.916 E18.84003
G1 X109.894 Y29.529 E18.98569
G1 X110.019 Y29.896 E19.0708
G1 X110.096 Y30.283 E19.15742
G1 X110.182 Y30.94 E19.30287
G1 X110.209 Y31.334 E19.38956
G1 X110.182 Y31.728 E19.47626
G1 X110.077 Y32.509 E19.64924
G1 X110.019 Y32.769 E19.70772
G1 X109.895 Y33.134 E19.79234
G1 X109.642 Y33.748 E19.93812
G1 X109.464 Y34.113 E20.02726
G1 X109.243 Y34.438 E20.11354
G1 X108.838 Y34.963 E20.25909
G1 X108.578 Y35.259 E20.34557
G1 X108.296 Y35.506 E20.42787
G1 X107.771 Y35.911 E20.57342
G1 X107.542 Y36.071 E20.63474
G1 X107.311 Y36.204 E20.69325
G1 X107.081 Y36.309 E20.74876
G1 X106.467 Y36.562 E20.89453
G1 X106.208 Y36.656 E20.95502
G1 X105.895 Y36.738 E21.02604
G1 X104.91 Y36.87 E21.2442
G0 F6000 X104.658 Y35.687
G1 F1200 X103.655 Y35.558 E21.46619
G1 X103.384 Y35.477 E21.52828
G1 X102.593 Y35.146 E21.71651
G1 X102.332 Y34.987 E21.7836
G1 X101.664 Y34.467 E21.96942
G1 X101.49 Y34.286 E22.02454
G1 X101.013 Y33.668 E22.19591
G1 X100.826 Y33.348 E22.27727
G1 X100.525 Y32.615 E22.45121
G1 X100.445 Y32.347 E22.51261
G1 X100.315 Y31.344 E22.73463
G1 X100.44 Y30.352 E22.95411
G1 X100.509 Y30.092 E23.01316
G1 X100.841 Y29.283 E23.20512
G1 X100.97 Y29.056 E23.26244
G1 X101.535 Y28.319 E23.46629
G1 X101.772 Y28.111 E23.53551
G1 X102.424 Y27.611 E23.71588
G1 X102.712 Y27.468 E23.78646
G1 X103.323 Y27.216 E23.93155
G1 X103.699 Y27.107 E24.01748
G1 X104.582 Y26.989 E24.21304
G1 X104.904 Y27.009 E24.28386
G1 X105.72 Y27.117 E24.46455
G1 X106.013 Y27.217 E24.53251
G1 X106.83 Y27.555 E24.7266
G1 X107.592 Y28.133 E24.93655
G1 X107.86 Y28.4 E25.01959
G1 X108.447 Y29.171 E25.23231
G1 X108.785 Y29.988 E25.4264
G1 X108.885 Y30.281 E25.49436
G1 X109.014 Y31.257 E25.71047
G1 X108.993 Y31.571 E25.77955
G1 X108.895 Y32.302 E25.94145
G1 X108.786 Y32.677 E26.02718
G1 X108.533 Y33.291 E26.17296
G1 X108.396 Y33.572 E26.24158
G1 X107.888 Y34.23 E26.42406
G1 X107.684 Y34.462 E26.49188
G1 X106.949 Y35.03 E26.69579
G1 X106.716 Y35.162 E26.75457
G1 X105.909 Y35.494 E26.94613
G1 X105.652 Y35.562 E27.00448
G1 X104.658 Y35.687 E27.2244
G1 F2100 E21.2244
G0 F6000 X104.76 Y37.365
G0 X104.759 Y101.504
G0 X107.631 Y104.568
G0 X108.298 Y105.437
G0 X108.718 Y106.45
G0 X108.861 Y107.534
G0 X108.718 Y108.62
G0 X108.298 Y109.632
G0 X107.699 Y110.412
G0 X104.667 Y113.075
G1 F2100 E27.2244
G1 F1200 X104.272 Y113.05 E27.31128
G1 X103.616 Y112.963 E27.45655
G1 X103.229 Y112.885 E27.54321
G1 X102.862 Y112.761 E27.62825
G1 X102.249 Y112.507 E27.77391
G1 X101.888 Y112.329 E27.86226
G1 X101.566 Y112.112 E27.9475
G1 X101.041 Y111.708 E28.09292
G1 X100.742 Y111.445 E28.18033
G1 X100.493 Y111.161 E28.26324
G1 X100.088 Y110.635 E28.40897
G1 X99.928 Y110.405 E28.47047
G1 X99.796 Y110.174 E28.52888
G1 X99.69 Y109.944 E28.58447
G1 X99.439 Y109.334 E28.72927
G1 X99.347 Y109.076 E28.7894
G1 X99.263 Y108.756 E28.86202
G1 X99.134 Y107.787 E29.07661
G1 X99.124 Y107.392 E29.16335
G1 X99.263 Y106.338 E29.39672
G1 X99.323 Y106.075 E29.45594
G1 X99.438 Y105.741 E29.53348
G1 X99.735 Y105.022 E29.70425
G1 X99.926 Y104.651 E29.79585
G1 X100.615 Y103.747 E30.04536
G1 X100.945 Y103.436 E30.1449
G1 X101.694 Y102.858 E30.35258
G1 X102.115 Y102.616 E30.45918
G1 X103.089 Y102.217 E30.69023
G1 X103.469 Y102.129 E30.77586
G1 X104.388 Y102.003 E30.97948
G1 X104.64 Y101.994 E31.03483
G1 X104.924 Y102.001 E31.09719
G1 X105.878 Y102.127 E31.30843
G1 X106.21 Y102.214 E31.38377
G1 X106.471 Y102.308 E31.44467
G1 X107.239 Y102.625 E31.62706
G1 X107.535 Y102.794 E31.70188
G1 X107.76 Y102.952 E31.76223
G1 X108.291 Y103.359 E31.90909
G1 X108.581 Y103.61 E31.99329
G1 X108.847 Y103.914 E32.08196
G1 X109.248 Y104.437 E32.22663
G1 X109.464 Y104.757 E32.31138
G1 X109.64 Y105.116 E32.39915
G1 X109.894 Y105.729 E32.54481
G1 X110.019 Y106.096 E32.62991
G1 X110.096 Y106.483 E32.71653
G1 X110.182 Y107.14 E32.86199
G1 X110.209 Y107.534 E32.94868
G1 X110.182 Y107.928 E33.03537
G1 X110.077 Y108.709 E33.20836
G1 X110.019 Y108.969 E33.26683
G1 X109.895 Y109.334 E33.35145
G1 X109.642 Y109.948 E33.49723
G1 X109.531 Y110.186 E33.55488
G1 X109.333 Y110.522 E33.64049
G1 X108.718 Y111.321 E33.86182
G1 X108.363 Y111.653 E33.96852
G1 X107.654 Y112.2 E34.1651
G1 X107.319 Y112.398 E34.25052
G1 X107.081 Y112.509 E34.30817
G1 X106.467 Y112.762 E34.45394
G1 X106.102 Y112.886 E34.53856
G1 X105.842 Y112.944 E34.59704
G1 X105.062 Y113.05 E34.76984
G1 X104.667 Y113.075 E34.85672
G0 F6000 X104.583 Y111.88
G1 F1200 X103.773 Y111.773 E35.03607
G1 X103.467 Y111.712 E35.10457
G1 X102.707 Y111.398 E35.28508
G1 X102.423 Y111.258 E35.35459
G1 X101.773 Y110.757 E35.53474
G1 X101.537 Y110.55 E35.60365
G1 X100.972 Y109.816 E35.80698
G1 X100.838 Y109.58 E35.86655
G1 X100.51 Y108.783 E36.05575
G1 X100.441 Y108.522 E36.11501
G1 X100.315 Y107.524 E36.33582
G1 X100.443 Y106.555 E36.55038
G1 X100.524 Y106.258 E36.61796
G1 X100.896 Y105.361 E36.83113
G1 X101.463 Y104.613 E37.03717
G1 X101.673 Y104.386 E37.10505
G1 X102.413 Y103.826 E37.30877
G1 X102.653 Y103.694 E37.3689
G1 X103.323 Y103.416 E37.52813
G1 X103.65 Y103.312 E37.60345
G1 X104.658 Y103.182 E37.82656
G1 X105.652 Y103.307 E38.04648
G1 X105.912 Y103.375 E38.10547
G1 X106.86 Y103.773 E38.33117
G1 X107.688 Y104.408 E38.56023
G1 X107.895 Y104.644 E38.62914
G1 X108.392 Y105.292 E38.80841
G1 X108.531 Y105.574 E38.87742
G1 X108.845 Y106.334 E39.05793
G1 X108.906 Y106.64 E39.12643
G1 X109.014 Y107.457 E39.30733
G1 X108.993 Y107.771 E39.37641
G1 X108.895 Y108.502 E39.53832
G1 X108.786 Y108.877 E39.62404
G1 X108.493 Y109.589 E39.79306
G1 X108.364 Y109.807 E39.84866
G1 X107.858 Y110.469 E40.03157
G1 X107.603 Y110.724 E40.11073
G1 X106.94 Y111.231 E40.29395
G1 X106.722 Y111.36 E40.34956
G1 X106.01 Y111.653 E40.51857
G1 X105.635 Y111.762 E40.60429
G1 X104.904 Y111.86 E40.7662
G1 X104.583 Y111.88 E40.8368
G1 F2100 E34.8368
G0 F6000 X107.265 Y112.957
G0 X107.265 Y116.73
G0 X109.5 Y117.169
G1 F2100 E40.8368
G1 F1200 X110.28 Y116.999 E41.01204
G1 X111.045 Y116.714 E41.19125
G1 X111.757 Y116.325 E41.36935
G1 X112.399 Y115.844 E41.54544
G1 X112.976 Y115.267 E41.72457
G1 X113.461 Y114.62 E41.90207
G1 X113.843 Y113.918 E42.07751
G1 X114.132 Y113.145 E42.25867
G1 X114.302 Y112.367 E42.43348
G1 X114.367 Y111.455 E42.63419
G1 X114.367 Y27.413 E61.08283
G1 X114.303 Y26.501 E61.28352
G1 X114.132 Y25.723 E61.45838
G1 X113.843 Y24.951 E61.63933
G1 X113.461 Y24.249 E61.81477
G1 X112.976 Y23.602 E61.99227
G1 X112.4 Y23.026 E62.17109
G1 X111.754 Y22.543 E62.34815
G1 X111.043 Y22.153 E62.52617
G1 X110.281 Y21.87 E62.7046
G1 X109.501 Y21.7 E62.87984
G1 X108.587 Y21.635 E63.08099
G1 X24.547 Y21.635 E81.52919
G1 X23.633 Y21.699 E81.73032
G1 X22.853 Y21.87 E81.90561
G1 X22.091 Y22.153 E82.08404
G1 X21.38 Y22.543 E82.26206
G1 X20.734 Y23.027 E82.43925
G1 X20.157 Y23.602 E82.61807
G1 X19.677 Y24.244 E82.79403
G1 X19.288 Y24.956 E82.97213
G1 X19.004 Y25.72 E83.15106
G1 X18.832 Y26.504 E83.32725
G1 X18.767 Y27.413 E83.5273
G1 X18.768 Y111.455 E101.97594
G1 X18.832 Y112.364 E102.17598
G1 X19.004 Y113.149 E102.35238
G1 X19.287 Y113.913 E102.53123
G1 X19.677 Y114.625 E102.70944
G1 X20.157 Y115.267 E102.8854
G1 X20.734 Y115.844 E103.06453
G1 X21.377 Y116.325 E103.2408
G1 X22.089 Y116.714 E103.4189
G1 X22.854 Y116.998 E103.59803
G1 X23.634 Y117.169 E103.77332
G1 X24.546 Y117.234 E103.97403
G1 X108.588 Y117.234 E122.42267
G1 X109.5 Y117.169 E122.62338
G0 F6000 X109.671 Y118.36
G1 F1200 X110.619 Y118.153 E122.83638
G1 X111.544 Y117.808 E123.0531
G1 X112.408 Y117.337 E123.26911
G1 X113.187 Y116.753 E123.48283
G1 X113.885 Y116.055 E123.69952
G1 X114.474 Y115.27 E123.91496
G1 X114.938 Y114.418 E124.12792
G1 X115.286 Y113.485 E124.34651
G1 X115.493 Y112.538 E124.55931
G1 X115.567 Y111.497 E124.7884
G1 X115.567 Y27.371 E143.25548
G1 X115.493 Y26.33 E143.48457
G1 X115.286 Y25.383 E143.69736
G1 X114.938 Y24.452 E143.91554
G1 X114.474 Y23.599 E144.1287
G1 X113.885 Y22.814 E144.34413
G1 X113.188 Y22.117 E144.56051
G1 X112.405 Y21.531 E144.7752
G1 X111.543 Y21.059 E144.99093
G1 X110.62 Y20.715 E145.20716
G1 X109.672 Y20.509 E145.42012
G1 X108.629 Y20.435 E145.64965
G1 X24.505 Y20.435 E164.11629
G1 X23.462 Y20.509 E164.34582
G1 X22.514 Y20.715 E164.55878
G1 X21.591 Y21.059 E164.77501
G1 X20.729 Y21.531 E164.99074
G1 X19.946 Y22.117 E165.20543
G1 X19.248 Y22.814 E165.42197
G1 X18.665 Y23.593 E165.63556
G1 X18.193 Y24.457 E165.85168
G1 X17.85 Y25.381 E166.06803
G1 X17.641 Y26.332 E166.28178
G1 X17.567 Y27.371 E166.51043
G1 X17.568 Y111.497 E184.97751
G1 X17.641 Y112.536 E185.20615
G1 X17.85 Y113.488 E185.42011
G1 X18.193 Y114.412 E185.63647
G1 X18.665 Y115.276 E185.85258
G1 X19.248 Y116.055 E186.06617
G1 X19.946 Y116.753 E186.28286
G1 X20.726 Y117.337 E186.49676
G1 X21.589 Y117.809 E186.71269
G1 X22.515 Y118.153 E186.92953
G1 X23.463 Y118.36 E187.14254
G1 X24.504 Y118.434 E187.37163
G1 X108.63 Y118.434 E205.83871
G1 X109.671 Y118.36 E206.0678
G1 F2100 E200.0678
G0 F6000 X31.245 Y116.73
G0 X31.065 Y112.957
G0 X31.245 Y112.33
G1 F2100 E206.0678
G1 F1200 X30.881 Y112.509 E206.15685
G1 X30.267 Y112.762 E206.30262
G1 X29.902 Y112.886 E206.38725
G1 X29.642 Y112.944 E206.44572
G1 X28.862 Y113.05 E206.61852
G1 X28.467 Y113.075 E206.7054
G1 X28.072 Y113.05 E206.79228
G1 X27.416 Y112.963 E206.93755
G1 X27.029 Y112.885 E207.02421
G1 X26.662 Y112.761 E207.10925
G1 X26.049 Y112.507 E207.25491
G1 X25.815 Y112.398 E207.31157
G1 X25.472 Y112.196 E207.39895
G1 X24.771 Y111.653 E207.5936
G1 X24.426 Y111.33 E207.69734
G1 X23.8 Y110.522 E207.92172
G1 X23.602 Y110.186 E208.00733
G1 X23.49 Y109.944 E208.06587
G1 X23.239 Y109.334 E208.21066
G1 X23.117 Y108.972 E208.29452
G1 X23.059 Y108.712 E208.353
G1 X22.952 Y107.931 E208.52604
G1 X22.927 Y107.535 E208.61314
G1 X22.952 Y107.138 E208.70047
G1 X23.039 Y106.484 E208.84529
G1 X23.115 Y106.103 E208.93058
G1 X23.238 Y105.74 E209.01471
G1 X23.492 Y105.121 E209.16159
G1 X23.67 Y104.758 E209.25034
G1 X23.887 Y104.433 E209.33612
G1 X24.288 Y103.913 E209.48027
G1 X24.554 Y103.61 E209.56878
G1 X24.842 Y103.358 E209.65278
G1 X25.373 Y102.951 E209.79965
G1 X25.6 Y102.794 E209.86024
G1 X25.903 Y102.621 E209.93683
G1 X26.666 Y102.307 E210.11795
G1 X26.926 Y102.213 E210.17864
G1 X27.259 Y102.127 E210.25413
G1 X28.226 Y101.999 E210.46826
G1 X28.683 Y102.001 E210.56858
G1 X29.519 Y102.106 E210.75354
G1 X29.804 Y102.158 E210.81713
G1 X30.129 Y102.249 E210.89122
G1 X30.979 Y102.602 E211.09326
G1 X31.387 Y102.819 E211.1947
G1 X32.092 Y103.358 E211.38951
G1 X32.352 Y103.583 E211.46499
G1 X32.532 Y103.772 E211.52228
