;FLAVOR:Marlin
;TIME:16304
;Filament used: 53.1381m
;Layer height: 0.4
;MINX:96.468
;MINY:100.549
;MINZ:0.3
;MAXX:302.377
;MAXY:300.546
;MAXZ:16.5
;Generated with Cura_SteamEngine 5.3.1
M82 ;absolute extrusion mode
; X5SA Start Code
G21 ; Set units to millimeters
G90 ; Set all axis to Absolute
M82 ; Set extrusion to Absolute
M107 ; Disable all fans
M190 S60 ; Set bed temperature and wait
G28 ; Home all axis
; Uncomment the line below to enable ABL Mesh probing
;G29 ; Probe bed mesh for ABL
; For best results do not run nozzle heater while performing ABL
G1 Z5.0 ; Raise nozzle to prevent scratching of heat bed
G1 X0 Y0 ; Move nozzle to Home before heating
M109 S230.0 T0 ; Set nozzle temp and wait
G92 E0 ; Set Extruder position to zero
; Uncomment the following lines to enable nozzle purge line along left edge of bed
;G1 Z2.0 F3000 ; Raise Z axis
;G1 X1.1 Y20 Z0.2 F3600.0 ; Move to purge line start position
;G1 Y290 F1500.0 E15 ; Draw first purge line
;G1 X1.4 F3600.0 ; Move to side
;G1 Y20 F1500.0 E30 ; Draw second purge line
;G92 E0 ; Reset Extruder
;G1 Z2.0 F3000 ; Move Z Axis up little to prevent scratching of Heat Bed
;G1 X5 Y20 Z0.2 F3600.0 ; Move over to finish nozzle wipe
;G92 E0

G92 E0
G92 E0
G1 F2700 E-10
;LAYER_COUNT:41
;LAYER:0
M107
G1 F300 Z0.5
G0 F2700 X151.8 Y105.4 Z0.5
;TYPE:SKIRT
G1 F300 Z0.3
G1 F2700 E0
G1 F1800 X152.333 Y104.649 E0.14666
G1 X152.93 Y103.948 E0.29329
G1 X153.585 Y103.301 E0.4399
G1 X154.293 Y102.713 E0.58647
G1 X155.05 Y102.189 E0.73308
G1 X155.85 Y101.733 E0.87972
G1 X156.686 Y101.348 E1.0263
G1 X157.553 Y101.037 E1.17298
G1 X158.443 Y100.802 E1.31957
G1 X159.35 Y100.645 E1.46616
G1 X160.373 Y100.564 E1.62958
G1 X161.024 Y100.549 E1.73328
G1 X238.759 Y100.55 E14.11254
G1 X239.46 Y100.56 E14.22418
G1 X240.379 Y100.613 E14.37078
G1 X241.29 Y100.746 E14.51739
G1 X242.186 Y100.957 E14.66398
G1 X243.061 Y101.245 E14.81068
G1 X243.907 Y101.608 E14.95728
G1 X244.718 Y102.043 E15.10384
G1 X245.489 Y102.547 E15.25053
G1 X246.213 Y103.116 E15.39717
G1 X246.885 Y103.745 E15.54375
G1 X247.5 Y104.43 E15.69035
G1 X248.053 Y105.166 E15.83696
G1 X248.54 Y105.948 E15.98366
G1 X248.957 Y106.768 E16.13016
G1 X249.302 Y107.622 E16.27684
G1 X249.642 Y108.796 E16.47148
G1 X249.848 Y109.699 E16.61898
G1 X250.079 Y110.764 E16.79252
G1 X250.687 Y113.231 E17.19715
G1 X251.362 Y115.67 E17.60016
G1 X252.095 Y118.056 E17.99765
G1 X252.915 Y120.473 E18.40411
G1 X253.8 Y122.863 E18.80997
G1 X254.743 Y125.204 E19.21188
G1 X255.746 Y127.502 E19.61118
G1 X256.816 Y129.775 E20.01125
G1 X257.98 Y132.08 E20.42247
G1 X259.164 Y134.268 E20.81866
G1 X260.432 Y136.457 E21.22151
G1 X261.772 Y138.629 E21.62793
G1 X263.147 Y140.722 E22.02673
G1 X264.605 Y142.81 E22.43229
G1 X266.103 Y144.831 E22.8329
G1 X267.667 Y146.822 E23.2361
G1 X269.289 Y148.771 E23.6399
G1 X270.962 Y150.667 E24.04257
G1 X272.679 Y152.509 E24.44359
G1 X274.444 Y154.296 E24.84357
G1 X276.3 Y156.072 E25.25266
G1 X278.137 Y157.733 E25.64705
G1 X280.098 Y159.408 E26.05776
G1 X282.055 Y160.986 E26.4581
G1 X284.045 Y162.499 E26.8562
G1 X286.114 Y163.982 E27.26159
G1 X288.241 Y165.418 E27.67028
G1 X290.337 Y166.748 E28.06559
G1 X292.537 Y168.058 E28.47335
G1 X294.72 Y169.274 E28.87129
G1 X296.251 Y170.074 E29.14638
G1 X296.796 Y170.367 E29.24491
G1 X297.587 Y170.839 E29.3916
G1 X298.334 Y171.377 E29.5382
G1 X299.031 Y171.978 E29.68477
G1 X299.674 Y172.638 E29.8315
G1 X300.256 Y173.351 E29.97807
G1 X300.775 Y174.111 E30.12463
G1 X301.226 Y174.914 E30.2713
G1 X301.605 Y175.753 E30.41791
G1 X301.911 Y176.621 E30.56448
G1 X302.139 Y177.513 E30.71109
G1 X302.29 Y178.421 E30.85768
G1 X302.362 Y179.373 E31.00972
G1 X302.377 Y180.024 E31.11341
G1 X302.376 Y257.736 E43.48901
G1 X302.365 Y258.467 E43.60544
G1 X302.311 Y259.387 E43.7522
G1 X302.178 Y260.298 E43.89881
G1 X301.966 Y261.193 E44.04529
G1 X301.677 Y262.068 E44.19203
G1 X301.313 Y262.913 E44.33855
G1 X300.878 Y263.724 E44.48511
G1 X300.373 Y264.495 E44.63189
G1 X299.804 Y265.218 E44.7784
G1 X299.174 Y265.89 E44.92509
G1 X298.488 Y266.504 E45.07171
G1 X297.752 Y267.056 E45.21821
G1 X296.97 Y267.543 E45.36492
G1 X296.149 Y267.959 E45.51149
G1 X295.295 Y268.303 E45.65811
G1 X294.326 Y268.594 E45.81923
G1 X292.117 Y269.144 E46.18175
G1 X289.636 Y269.83 E46.59168
G1 X287.217 Y270.572 E46.99462
G1 X284.832 Y271.38 E47.39563
G1 X282.47 Y272.254 E47.7967
G1 X280.121 Y273.201 E48.20004
G1 X277.811 Y274.209 E48.6014
G1 X275.501 Y275.294 E49.00782
G1 X273.258 Y276.428 E49.40808
G1 X271.03 Y277.634 E49.81153
G1 X268.859 Y278.889 E50.21087
G1 X266.683 Y280.231 E50.618
G1 X264.574 Y281.615 E51.01972
G1 X262.499 Y283.063 E51.42266
G1 X260.472 Y284.565 E51.82442
G1 X258.485 Y286.125 E52.22672
G1 X256.539 Y287.745 E52.62995
G1 X254.656 Y289.405 E53.02971
G1 X252.773 Y291.159 E53.43951
G1 X251 Y292.91 E53.83635
G1 X249.251 Y294.738 E54.23924
G1 X247.273 Y296.932 E54.70966
G1 X246.636 Y297.597 E54.85631
G1 X245.944 Y298.203 E55.00279
G1 X245.202 Y298.748 E55.1494
G1 X244.415 Y299.226 E55.29604
G1 X243.589 Y299.634 E55.44275
G1 X242.732 Y299.969 E55.58928
G1 X241.848 Y300.228 E55.73598
G1 X240.946 Y300.409 E55.88249
G1 X239.632 Y300.531 E56.09264
G1 X238.981 Y300.546 E56.19634
G1 X161.249 Y300.545 E68.57512
G1 X160.547 Y300.535 E68.68693
G1 X159.628 Y300.482 E68.83352
G1 X158.717 Y300.349 E68.98013
G1 X157.821 Y300.138 E69.12672
G1 X156.946 Y299.85 E69.27342
G1 X156.1 Y299.487 E69.42003
G1 X155.289 Y299.052 E69.56658
G1 X154.518 Y298.548 E69.71327
G1 X153.794 Y297.98 E69.85981
G1 X152.827 Y297.036 E70.07502
G1 X151.882 Y295.988 E70.29974
G1 X150.135 Y294.114 E70.70774
G1 X148.355 Y292.308 E71.11156
G1 X146.53 Y290.56 E71.514
G1 X144.658 Y288.864 E71.91626
G1 X142.745 Y287.228 E72.31712
G1 X140.773 Y285.635 E72.72082
G1 X138.729 Y284.078 E73.13001
G1 X136.709 Y282.628 E73.52599
G1 X134.618 Y281.214 E73.92797
G1 X132.457 Y279.841 E74.3357
G1 X130.299 Y278.554 E74.73583
G1 X128.135 Y277.344 E75.13066
G1 X125.848 Y276.15 E75.54151
G1 X123.557 Y275.034 E75.94734
G1 X121.299 Y274.013 E76.34198
G1 X118.896 Y273.008 E76.75677
G1 X116.587 Y272.117 E77.15091
G1 X114.224 Y271.281 E77.55007
G1 X111.772 Y270.492 E77.96027
G1 X109.383 Y269.796 E78.35653
G1 X106.903 Y269.15 E78.76465
G1 X104.67 Y268.629 E79.1298
G1 X103.784 Y268.381 E79.27632
G1 X102.922 Y268.057 E79.42297
G1 X102.091 Y267.66 E79.56963
G1 X101.299 Y267.192 E79.71613
G1 X100.549 Y266.657 E79.86284
G1 X99.849 Y266.059 E80.00946
G1 X99.204 Y265.402 E80.15608
G1 X98.618 Y264.692 E80.30268
G1 X98.096 Y263.934 E80.44925
G1 X97.641 Y263.133 E80.59595
G1 X97.258 Y262.296 E80.74253
G1 X96.949 Y261.429 E80.88911
G1 X96.716 Y260.538 E81.03577
G1 X96.561 Y259.631 E81.18231
G1 X96.483 Y258.626 E81.34283
G1 X96.468 Y257.975 E81.44653
G1 X96.469 Y180.224 E93.82834
G1 X96.479 Y179.543 E93.9368
G1 X96.533 Y178.624 E94.08341
G1 X96.666 Y177.713 E94.23002
G1 X96.877 Y176.817 E94.37661
G1 X97.166 Y175.943 E94.52321
G1 X97.529 Y175.097 E94.66981
G1 X97.964 Y174.286 E94.81637
G1 X98.468 Y173.515 E94.96305
G1 X99.038 Y172.792 E95.10967
G1 X99.667 Y172.12 E95.25625
G1 X100.353 Y171.506 E95.40286
G1 X101.089 Y170.953 E95.54947
G1 X101.871 Y170.466 E95.69618
G1 X102.288 Y170.243 E95.77148
G1 X104.347 Y169.2 E96.13905
G1 X106.611 Y167.976 E96.54891
G1 X108.767 Y166.73 E96.94546
G1 X110.945 Y165.389 E97.35278
G1 X113.048 Y164.01 E97.75326
G1 X115.128 Y162.561 E98.15695
G1 X117.141 Y161.071 E98.55578
G1 X119.157 Y159.49 E98.96378
G1 X121.085 Y157.887 E99.36307
G1 X122.973 Y156.226 E99.76353
G1 X124.835 Y154.49 E100.16894
G1 X126.654 Y152.697 E100.57568
G1 X128.387 Y150.889 E100.97451
G1 X130.064 Y149.037 E101.37239
G1 X131.754 Y147.06 E101.78658
G1 X133.313 Y145.13 E102.18167
G1 X134.842 Y143.121 E102.58373
G1 X136.323 Y141.06 E102.98789
G1 X137.738 Y138.968 E103.39009
G1 X139.104 Y136.817 E103.79587
G1 X140.389 Y134.663 E104.1953
G1 X141.63 Y132.443 E104.60032
G1 X142.783 Y130.236 E104.99686
G1 X143.915 Y127.91 E105.40881
G1 X144.929 Y125.667 E105.80081
G1 X145.926 Y123.285 E106.21203
G1 X146.841 Y120.912 E106.61705
G1 X147.671 Y118.564 E107.01364
G1 X148.445 Y116.159 E107.41598
G1 X149.153 Y113.729 E107.81905
G1 X149.8 Y111.25 E108.22705
G1 X150.371 Y108.775 E108.63155
G1 X150.616 Y107.888 E108.77809
G1 X150.938 Y107.025 E108.92478
G1 X151.133 Y106.616 E108.99694
G0 F1620 X151.334 Y106.194
G0 X151.8 Y105.4
G1 F2700 E98.99694
G1 F300 Z0.5
;MESH:tpu forks.stl(5)
G0 F2700 X236.197 Y126.1 Z0.5
;TYPE:WALL-INNER
G1 F300 Z0.3
G1 F2700 E108.99694
G1 F1520.1 X236.21 Y125.437 E109.12199
G1 F1534.1 X236.21 Y123.849 E109.41871
G1 F1512.6 X236.19 Y123.055 E109.56923
G1 F1430.5 X236.128 Y122.262 E109.72862
G1 F1436.2 X236.197 Y121.337 E109.91376
G1 F1520.1 X236.21 Y120.674 E110.03881
G1 F1534.1 X236.21 Y119.087 E110.33534
G1 F1512.6 X236.19 Y118.293 E110.48586
G1 F1430.5 X236.128 Y117.5 E110.64525
G1 F1436.2 X236.197 Y116.575 E110.83039
G1 F1520.1 X236.21 Y115.912 E110.95544
G1 F1534.1 X236.21 Y114.253 E111.26543
G1 X234.802 Y114.253 E111.52852
G1 X234.802 Y115.912 E111.83851
G1 F1523.3 X234.769 Y116.508 E111.95083
G1 F1440 X234.62 Y117.186 E112.08902
G1 F1373.2 X234.458 Y117.5 E112.16277
G1 X234.62 Y117.814 E112.23653
G1 F1430.5 X234.758 Y118.442 E112.36538
G1 F1512.6 X234.802 Y119.087 E112.48789
G1 F1534.1 X234.802 Y120.674 E112.78443
G1 F1523.3 X234.769 Y121.27 E112.89676
G1 F1440 X234.62 Y121.948 E113.03494
G1 F1373.2 X234.458 Y122.262 E113.1087
G1 X234.62 Y122.576 E113.18246
G1 F1430.5 X234.758 Y123.204 E113.3113
G1 F1512.6 X234.802 Y123.849 E113.43382
G1 F1534.1 X234.802 Y125.437 E113.73054
G1 F1523.3 X234.769 Y126.033 E113.84287
G1 F1440 X234.62 Y126.711 E113.98105
G1 F1373.2 X234.458 Y127.025 E114.05481
G1 X234.62 Y127.339 E114.12857
G1 F1430.5 X234.758 Y127.967 E114.25741
G1 F1512.6 X234.802 Y128.612 E114.37993
G1 F1534.1 X234.802 Y130.199 E114.67646
G1 F1523.3 X234.769 Y130.795 E114.78879
G1 F1440 X234.62 Y131.473 E114.92698
G1 F1373.2 X234.458 Y131.787 E115.00073
G1 X234.62 Y132.101 E115.07449
G1 F1430.5 X234.758 Y132.729 E115.20334
G1 F1512.6 X234.802 Y133.374 E115.32585
G1 F1534.1 X234.802 Y134.962 E115.62257
G1 F1523.3 X234.769 Y135.558 E115.7349
G1 F1440 X234.62 Y136.236 E115.87309
G1 F1373.2 X234.458 Y136.55 E115.94684
G1 X234.62 Y136.864 E116.0206
G1 F1430.5 X234.758 Y137.492 E116.14945
G1 F1512.6 X234.802 Y138.137 E116.27196
G1 F1534.1 X234.802 Y139.724 E116.5685
G1 F1523.3 X234.769 Y140.32 E116.68083
G1 F1440 X234.62 Y140.998 E116.81901
G1 F1373.2 X234.458 Y141.312 E116.89277
G1 X234.62 Y141.626 E116.96652
G1 F1430.5 X234.758 Y142.254 E117.09537
G1 F1512.6 X234.802 Y142.899 E117.21789
G1 F1534.1 X234.802 Y144.558 E117.52788
G1 X236.21 Y144.558 E117.79096
G1 X236.21 Y142.899 E118.10095
G1 F1512.6 X236.19 Y142.105 E118.25147
G1 F1430.5 X236.128 Y141.312 E118.41086
G1 F1436.2 X236.197 Y140.387 E118.596
G1 F1520.1 X236.21 Y139.724 E118.72105
G1 F1534.1 X236.21 Y138.137 E119.01759
G1 F1512.6 X236.19 Y137.343 E119.1681
G1 F1430.5 X236.128 Y136.55 E119.32749
G1 F1436.2 X236.197 Y135.625 E119.51263
G1 F1520.1 X236.21 Y134.962 E119.63768
G1 F1534.1 X236.21 Y133.374 E119.9344
G1 F1512.6 X236.19 Y132.58 E120.08492
G1 F1430.5 X236.128 Y131.787 E120.24431
G1 F1436.2 X236.197 Y130.862 E120.42945
G1 F1520.1 X236.21 Y130.199 E120.5545
G1 F1534.1 X236.21 Y128.612 E120.85104
G1 F1512.6 X236.19 Y127.818 E121.00155
G1 F1430.5 X236.128 Y127.025 E121.16095
G1 F1436.2 X236.197 Y126.1 E121.34608
G0 F2700 X233.398 Y122.105
G0 X232.793 Y122.105
G1 F1800 X232.512 Y122.262 E121.39734
G1 X232.793 Y122.419 E121.4486
G1 X233.143 Y122.748 E121.5251
G1 X233.349 Y123.129 E121.59407
G1 X233.461 Y123.477 E121.65229
G1 X233.498 Y123.849 E121.71183
G1 X233.498 Y125.437 E121.96471
G1 X233.471 Y125.779 E122.01935
G1 X233.349 Y126.157 E122.0826
G1 X233.144 Y126.538 E122.1515
G1 X232.793 Y126.868 E122.22822
G1 X232.512 Y127.025 E122.27948
G1 X232.793 Y127.182 E122.33074
G1 X233.143 Y127.511 E122.40724
G1 X233.349 Y127.892 E122.47621
G1 X233.461 Y128.24 E122.53443
G1 X233.498 Y128.612 E122.59396
G1 X233.498 Y130.199 E122.84669
G1 X233.471 Y130.541 E122.90133
G1 X233.349 Y130.919 E122.96458
G1 X233.144 Y131.3 E123.03348
G1 X232.793 Y131.63 E123.1102
G1 X232.512 Y131.787 E123.16146
G1 X232.793 Y131.944 E123.21272
G1 X233.143 Y132.273 E123.28922
G1 X233.349 Y132.654 E123.35819
G1 X233.461 Y133.002 E123.41641
G1 X233.498 Y133.374 E123.47594
G1 X233.498 Y134.962 E123.72883
G1 X233.471 Y135.304 E123.78346
G1 X233.349 Y135.682 E123.84672
G1 X233.144 Y136.063 E123.91562
G1 X232.793 Y136.393 E123.99234
G1 X232.512 Y136.55 E124.0436
G1 X232.793 Y136.707 E124.09486
G1 X233.143 Y137.036 E124.17136
G1 X233.349 Y137.417 E124.24033
G1 X233.461 Y137.765 E124.29855
G1 X233.498 Y138.137 E124.35808
G1 X233.498 Y139.724 E124.61081
G1 X233.471 Y140.066 E124.66544
G1 X233.349 Y140.444 E124.7287
G1 X233.144 Y140.825 E124.7976
G1 X232.793 Y141.155 E124.87432
G1 X232.512 Y141.312 E124.92558
G1 X232.793 Y141.469 E124.97684
G1 X233.143 Y141.798 E125.05333
G1 X233.349 Y142.179 E125.12231
G1 X233.461 Y142.527 E125.18053
G1 X233.498 Y142.899 E125.24006
G1 X233.498 Y144.487 E125.49295
G1 X233.427 Y144.993 E125.57432
G1 X233.138 Y145.569 E125.67694
G1 X232.794 Y145.863 E125.74901
G1 X237.514 Y145.862 E126.50067
G1 X237.514 Y112.949 E131.74205
G1 X232.794 Y112.948 E132.4937
G1 X233.138 Y113.244 E132.56597
G1 X233.427 Y113.819 E132.66846
G1 X233.498 Y114.324 E132.74967
G1 X233.498 Y115.912 E133.00256
G1 X233.471 Y116.254 E133.05719
G1 X233.349 Y116.632 E133.12044
G1 X233.144 Y117.013 E133.18934
G1 X232.793 Y117.343 E133.26607
G1 X232.512 Y117.5 E133.31733
G1 X232.793 Y117.657 E133.36859
G1 X233.143 Y117.986 E133.44508
G1 X233.349 Y118.367 E133.51406
G1 X233.461 Y118.715 E133.57227
G1 X233.498 Y119.087 E133.63181
G1 X233.498 Y120.674 E133.88454
G1 X233.477 Y120.939 E133.92687
G0 F1620 X233.471 Y121.016
G0 X233.349 Y121.394
G0 X233.144 Y121.775
G0 X232.793 Y122.105
G0 F2700 X233.398 Y122.105
G0 X233.398 Y121.069
G0 X232.151 Y121.069
;TYPE:WALL-OUTER
G1 F1733.5 X231.93 Y121.278 E133.97717
G1 F1501 X231.698 Y121.468 E134.03443
G1 F1361.1 X161.486 Y121.468 E148.82161
G1 X161.486 Y123.056 E149.15605
G1 X231.698 Y123.056 E163.94322
G1 F1501 X231.93 Y123.245 E164.00037
G1 F1733.5 X232.151 Y123.454 E164.05067
G1 F1800 X232.298 Y123.763 E164.10516
G1 X232.298 Y125.514 E164.384
G1 X232.151 Y125.832 E164.4398
G1 F1733.5 X231.93 Y126.041 E164.49009
G1 F1501 X231.698 Y126.231 E164.54736
G1 F1361.1 X161.486 Y126.231 E179.33453
G1 X161.486 Y127.819 E179.66898
G1 X231.698 Y127.819 E194.45615
G1 F1501 X231.93 Y128.008 E194.51329
G1 F1733.5 X232.151 Y128.217 E194.56359
G1 F1800 X232.298 Y128.526 E194.61808
G1 X232.298 Y130.276 E194.89677
G1 X232.151 Y130.594 E194.95256
G1 F1733.5 X231.93 Y130.803 E195.00286
G1 F1501 X231.698 Y130.993 E195.06012
G1 F1361.1 X161.486 Y130.993 E209.8473
G1 X161.486 Y132.581 E210.18174
G1 X231.698 Y132.581 E224.96892
G1 F1501 X231.93 Y132.77 E225.02606
G1 F1733.5 X232.151 Y132.979 E225.07636
G1 F1800 X232.298 Y133.288 E225.13085
G1 X232.298 Y135.039 E225.4097
G1 X232.151 Y135.357 E225.46549
G1 F1733.5 X231.93 Y135.566 E225.51578
G1 F1501 X231.698 Y135.756 E225.57305
G1 F1361.1 X161.486 Y135.756 E240.36022
G1 X161.486 Y137.344 E240.69467
G1 X231.698 Y137.344 E255.48184
G1 F1501 X231.93 Y137.533 E255.53898
G1 F1733.5 X232.151 Y137.742 E255.58928
G1 F1800 X232.298 Y138.051 E255.64377
G1 X232.298 Y139.801 E255.92246
G1 X232.151 Y140.119 E255.97825
G1 F1733.5 X231.93 Y140.328 E256.02855
G1 F1501 X231.698 Y140.518 E256.08581
G1 F1361.1 X161.486 Y140.518 E270.87299
G1 X161.486 Y142.106 E271.20743
G1 X231.698 Y142.106 E285.99461
G1 F1501 X231.93 Y142.295 E286.05175
G1 F1733.5 X232.151 Y142.504 E286.10205
G1 F1800 X232.298 Y142.813 E286.15654
G1 X232.298 Y144.487 E286.42312
G1 F1750.4 X232.265 Y144.726 E286.46263
G1 F1657.7 X232.013 Y145.078 E286.53749
G1 F1470.4 X231.836 Y145.276 E286.58927
G1 F1351.7 X217.766 Y145.277 E289.57305
G1 F1353.4 X203.696 Y145.278 E292.5531
G1 F1355.9 X189.626 Y145.279 E295.52756
G1 F1358.5 X175.556 Y145.28 E298.4964
G1 F1360.2 X161.486 Y145.281 E301.46152
G1 F1361.1 X161.486 Y146.869 E301.79596
