;FLAVOR:Marlin
;TIME:20038
;Filament used: 106.204m
;Layer height: 0.6
;MINX:150.582
;MINY:88.547
;MINZ:0.3
;MAXX:290.839
;MAXY:300.5
;MAXZ:56.9
;Generated with Cura_SteamEngine 5.3.1
M82 ;absolute extrusion mode
; X5SA Start Code
G21 ; Set units to millimeters
G90 ; Set all axis to Absolute
M82 ; Set extrusion to Absolute
M107 ; Disable all fans
M190 S60 ; Set bed temperature and wait
G28 ; Home all axis
; Uncomment the line below to enable ABL Mesh probing
;G29 ; Probe bed mesh for ABL
; For best results do not run nozzle heater while performing ABL
G1 Z5.0 ; Raise nozzle to prevent scratching of heat bed
G1 X0 Y0 ; Move nozzle to Home before heating
M109 S230.0 T0 ; Set nozzle temp and wait
G92 E0 ; Set Extruder position to zero
; Uncomment the following lines to enable nozzle purge line along left edge of bed
;G1 Z2.0 F3000 ; Raise Z axis
;G1 X1.1 Y20 Z0.2 F3600.0 ; Move to purge line start position
;G1 Y290 F1500.0 E15 ; Draw first purge line
;G1 X1.4 F3600.0 ; Move to side
;G1 Y20 F1500.0 E30 ; Draw second purge line
;G92 E0 ; Reset Extruder
;G1 Z2.0 F3000 ; Move Z Axis up little to prevent scratching of Heat Bed
;G1 X5 Y20 Z0.2 F3600.0 ; Move over to finish nozzle wipe
;G92 E0

G92 E0
G92 E0
G1 F2700 E-10
;LAYER_COUNT:95
;LAYER:0
M107
G1 F300 Z0.5
G0 F2700 X153.429 Y93.864 Z0.5
;TYPE:SKIRT
G1 F300 Z0.3
G1 F2700 E0
G1 F1800 X153.923 Y93.087 E0.14663
G1 X154.482 Y92.355 E0.2933
G1 X155.103 Y91.675 E0.43995
G1 X155.78 Y91.052 E0.58647
G1 X156.509 Y90.49 E0.73305
G1 X157.284 Y89.993 E0.87967
G1 X158.1 Y89.565 E1.02641
G1 X158.949 Y89.209 E1.17302
G1 X159.826 Y88.929 E1.31962
G1 X160.724 Y88.726 E1.46624
G1 X161.636 Y88.601 E1.61283
G1 X162.423 Y88.558 E1.73835
G1 X163.114 Y88.547 E1.8484
G1 X171.033 Y88.548 E3.1095
G1 X171.737 Y88.559 E3.22163
G1 X172.656 Y88.614 E3.36824
G1 X173.567 Y88.748 E3.51488
G1 X174.462 Y88.96 E3.66135
G1 X175.336 Y89.249 E3.80794
G1 X176.589 Y89.821 E4.02729
G1 X177.567 Y90.348 E4.20421
G1 X178.255 Y90.732 E4.32968
G1 X180.533 Y91.92 E4.73882
G1 X182.775 Y93.009 E5.13575
G1 X185.071 Y94.045 E5.53689
G1 X187.457 Y95.04 E5.94857
G1 X189.767 Y95.93 E6.3428
G1 X192.163 Y96.775 E6.74739
G1 X194.575 Y97.55 E7.15084
G1 X197.008 Y98.257 E7.55432
G1 X199.417 Y98.883 E7.9507
G1 X201.953 Y99.465 E8.36505
G1 X204.387 Y99.953 E8.76038
G1 X206.888 Y100.381 E9.16445
G1 X209.359 Y100.732 E9.56191
G1 X211.906 Y101.02 E9.9701
G1 X214.422 Y101.234 E10.37222
G1 X216.928 Y101.375 E10.77193
G1 X219.474 Y101.446 E11.17754
G1 X221.985 Y101.446 E11.57741
G1 X224.526 Y101.373 E11.98223
G1 X227.049 Y101.229 E12.38467
G1 X229.57 Y101.015 E12.78758
G1 X232.064 Y100.731 E13.18732
G1 X234.616 Y100.366 E13.59786
G1 X237.056 Y99.948 E13.99209
G1 X239.542 Y99.448 E14.39591
G1 X242.009 Y98.88 E14.79906
G1 X244.468 Y98.239 E15.20374
G1 X246.874 Y97.539 E15.60278
G1 X249.315 Y96.753 E16.01116
G1 X251.682 Y95.917 E16.41093
G1 X254.061 Y95 E16.81695
G1 X256.347 Y94.043 E17.21161
G1 X258.706 Y92.977 E17.62386
G1 X260.934 Y91.893 E18.01843
G1 X263.727 Y90.425 E18.52091
G1 X264.747 Y89.866 E18.70614
G1 X265.572 Y89.459 E18.85264
G1 X266.43 Y89.125 E18.99926
G1 X267.314 Y88.867 E19.14591
G1 X268.217 Y88.686 E19.29257
G1 X269.132 Y88.585 E19.43917
G1 X269.665 Y88.562 E19.52413
G1 X270.504 Y88.548 E19.65776
G1 X278.261 Y88.548 E20.89306
G1 X278.96 Y88.558 E21.00438
G1 X279.879 Y88.611 E21.15098
G1 X280.79 Y88.744 E21.29759
G1 X281.686 Y88.955 E21.44418
G1 X282.56 Y89.243 E21.59073
G1 X283.406 Y89.606 E21.73733
G1 X284.218 Y90.041 E21.88403
G1 X284.988 Y90.545 E22.03058
G1 X285.712 Y91.114 E22.17722
G1 X286.384 Y91.743 E22.32381
G1 X286.999 Y92.429 E22.47052
G1 X287.552 Y93.165 E22.61713
G1 X288.039 Y93.946 E22.7637
G1 X288.456 Y94.767 E22.91034
G1 X288.801 Y95.621 E23.05702
G1 X289.064 Y96.479 E23.19993
G1 X289.294 Y97.36 E23.34493
G1 X290.002 Y99.919 E23.76776
G1 X290.401 Y101.282 E23.99393
G1 X290.622 Y102.176 E24.14058
G1 X290.763 Y103.085 E24.28707
G1 X290.824 Y103.939 E24.42342
G1 X290.839 Y104.59 E24.52712
G1 X290.838 Y213.953 E41.94312
G1 X290.828 Y214.674 E42.05795
G1 X290.775 Y215.593 E42.20455
G1 X290.643 Y216.504 E42.35114
G1 X290.432 Y217.4 E42.49773
G1 X290.144 Y218.275 E42.64443
G1 X289.782 Y219.121 E42.79097
G1 X289.347 Y219.933 E42.93766
G1 X288.844 Y220.704 E43.08426
G1 X288.275 Y221.428 E43.23091
G1 X287.646 Y222.1 E43.37749
G1 X286.961 Y222.715 E43.52409
G1 X286.546 Y223.039 E43.60793
G1 X284.543 Y224.526 E44.0052
G1 X282.526 Y226.11 E44.41362
G1 X280.603 Y227.711 E44.8121
G1 X278.7 Y229.39 E45.21624
G1 X276.857 Y231.109 E45.61759
G1 X275.066 Y232.876 E46.01825
G1 X273.294 Y234.727 E46.42632
G1 X271.631 Y236.566 E46.82117
G1 X269.967 Y238.515 E47.22928
G1 X268.369 Y240.496 E47.6346
G1 X266.851 Y242.493 E48.03407
G1 X265.367 Y244.562 E48.43954
G1 X263.979 Y246.617 E48.83446
G1 X262.602 Y248.788 E49.24387
G1 X261.311 Y250.956 E49.6457
G1 X260.075 Y253.172 E50.04977
G1 X258.913 Y255.399 E50.4498
G1 X257.814 Y257.662 E50.85043
G1 X256.768 Y259.979 E51.25527
G1 X255.784 Y262.338 E51.66231
G1 X254.881 Y264.681 E52.06218
G1 X254.045 Y267.049 E52.4621
G1 X253.261 Y269.49 E52.87038
G1 X252.563 Y271.894 E53.26903
G1 X251.936 Y274.305 E53.66575
G1 X251.349 Y276.862 E54.08354
G1 X250.866 Y279.27 E54.47465
G1 X250.435 Y281.788 E54.88148
G1 X250.172 Y283.621 E55.17637
G1 X250.077 Y284.216 E55.27232
G1 X249.89 Y285.118 E55.41902
G1 X249.625 Y285.999 E55.56553
G1 X249.313 Y286.791 E55.70109
G1 X248.825 Y287.888 E55.89229
G1 X248.503 Y288.567 E56.01196
G1 X248.072 Y289.381 E56.15864
G1 X247.573 Y290.154 E56.30516
G1 X247.009 Y290.882 E56.45182
G1 X246.383 Y291.557 E56.59842
G1 X245.701 Y292.176 E56.7451
G1 X245.12 Y292.629 E56.86242
G1 X244.361 Y293.15 E57.00903
G1 X243.559 Y293.602 E57.15563
G1 X242.721 Y293.984 E57.30229
G1 X241.853 Y294.291 E57.44891
G1 X240.962 Y294.522 E57.5955
G1 X240.054 Y294.675 E57.74213
G1 X238.944 Y294.753 E57.91934
G1 X237.87 Y294.771 E58.09039
G1 X231.719 Y294.771 E59.06994
G1 X231.007 Y294.761 E59.18333
G1 X230.101 Y294.709 E59.32785
G1 X229.662 Y294.665 E59.39811
G1 X227.017 Y294.44 E59.82085
G1 X224.514 Y294.298 E60.22009
G1 X221.968 Y294.226 E60.6257
G1 X219.458 Y294.226 E61.02542
G1 X216.912 Y294.298 E61.43103
G1 X214.409 Y294.44 E61.83027
G1 X211.331 Y294.711 E62.32234
G1 X210.599 Y294.75 E62.43908
G1 X209.328 Y294.772 E62.64151
G1 X203.222 Y294.77 E63.61389
G1 X202.534 Y294.76 E63.72346
G1 X201.615 Y294.707 E63.87006
G1 X200.704 Y294.574 E64.01667
G1 X199.808 Y294.362 E64.1633
G1 X198.933 Y294.074 E64.31
G1 X198.087 Y293.711 E64.4566
G1 X197.276 Y293.275 E64.60323
G1 X196.533 Y292.797 E64.74393
G1 X195.718 Y292.177 E64.907
G1 X195.037 Y291.557 E65.05366
G1 X194.412 Y290.881 E65.20028
G1 X193.848 Y290.154 E65.34681
G1 X193.349 Y289.38 E65.49346
G1 X192.927 Y288.58 E65.6375
G1 X192.486 Y287.643 E65.80242
G1 X192.118 Y286.813 E65.947
G1 X191.781 Y285.956 E66.09365
G1 X191.521 Y285.073 E66.24024
G1 X191.345 Y284.213 E66.38003
G1 X191.238 Y283.547 E66.48745
G1 X190.917 Y281.363 E66.83899
G1 X190.476 Y278.863 E67.24326
G1 X189.967 Y276.382 E67.64659
G1 X189.396 Y273.948 E68.04472
G1 X188.744 Y271.491 E68.44954
G1 X188.027 Y269.067 E68.8521
G1 X187.235 Y266.641 E69.2585
G1 X186.386 Y264.272 E69.65926
G1 X185.475 Y261.939 E70.05811
G1 X184.478 Y259.587 E70.46493
G1 X183.429 Y257.292 E70.86677
G1 X182.312 Y255.023 E71.26952
G1 X181.137 Y252.793 E71.67093
G1 X179.879 Y250.565 E72.07839
G1 X178.594 Y248.43 E72.47522
G1 X177.228 Y246.3 E72.87818
G1 X175.794 Y244.199 E73.28327
G1 X174.316 Y242.158 E73.68457
G1 X172.769 Y240.143 E74.08912
G1 X171.162 Y238.17 E74.49435
G1 X169.528 Y236.277 E74.89259
G1 X167.834 Y234.422 E75.29264
G1 X166.057 Y232.582 E75.7
G1 X164.244 Y230.809 E76.10383
G1 X162.398 Y229.105 E76.5039
G1 X160.487 Y227.438 E76.90774
G1 X158.564 Y225.851 E77.3048
G1 X155.688 Y223.638 E77.88269
G1 X154.901 Y223.058 E78.03838
G1 X154.184 Y222.48 E78.18504
G1 X153.52 Y221.842 E78.33169
G1 X152.915 Y221.149 E78.47819
G1 X152.372 Y220.405 E78.62487
G1 X151.895 Y219.618 E78.77142
G1 X151.488 Y218.792 E78.91806
G1 X151.155 Y217.933 E79.06478
G1 X150.897 Y217.05 E79.21127
G1 X150.717 Y216.147 E79.3579
G1 X150.599 Y214.885 E79.55975
G1 X150.582 Y214.202 E79.66855
G1 X150.583 Y104.815 E97.08838
G1 X150.593 Y104.115 E97.19987
G1 X150.646 Y103.195 E97.34662
G1 X150.779 Y102.284 E97.49324
G1 X151.012 Y101.31 E97.65272
G1 X151.765 Y98.718 E98.08256
G1 X152.016 Y97.747 E98.24227
G1 X152.375 Y96.409 E98.46289
G1 X152.652 Y95.531 E98.6095
G1 X152.825 Y95.112 E98.68169
G0 F1620 X153.004 Y94.68
G0 X153.429 Y93.864
G1 F2700 E88.68169
G1 F300 Z0.5
;MESH:Wheel guard left.stl
G0 F2700 X199.37 Y210.332 Z0.5
;TYPE:WALL-INNER
G1 F300 Z0.3
G1 F2700 E98.68169
G1 F1800 X198.408 Y206.06 E99.37904
G1 X197.246 Y201.226 E100.17078
G1 X196.062 Y196.616 E100.92875
G1 X194.797 Y191.973 E101.6951
G1 X194.471 Y190.831 E101.88422
G1 X193.447 Y187.46 E102.44528
G1 X168.943 Y105.038 E116.13873
G1 F1739.1 X168.662 Y104.244 E116.27755
G1 F1575.5 X168.428 Y103.759 E116.37553
G1 X168.371 Y104.286 E116.47197
G1 F1739.1 X168.249 Y105.071 E116.60291
G1 F1800 X168.036 Y105.797 E116.7234
G1 X167.722 Y106.436 E116.83678
G1 X167.335 Y106.974 E116.94232
G1 X166.907 Y107.41 E117.03962
G1 X166.461 Y107.75 E117.12893
G1 X165.926 Y108.054 E117.22692
G1 X165.382 Y108.251 E117.31906
G1 X165.383 Y210.331 E133.57525
G1 X188.869 Y210.332 E137.31538
G1 X193.24 Y210.359 E138.01147
G1 X197.982 Y210.338 E138.76664
G0 F1620 X199.37 Y210.332
G1 F2700 E128.76664
G0 X165.794 Y106.752
G1 F2700 E138.76664
G1 F1800 X165.412 Y106.97 E138.83669
G1 X164.874 Y107.165 E138.92782
G1 X164.182 Y107.252 E139.03888
G1 X164.183 Y211.531 E155.64527
G1 X188.862 Y211.532 E159.57538
G1 X193.245 Y211.559 E160.27339
G1 X200.007 Y211.531 E161.35024
G1 X200.366 Y211.55 E161.40749
G1 X200.869 Y211.607 E161.48811
G1 X200.621 Y210.426 E161.68028
G1 X199.575 Y205.78 E162.43868
G1 X198.409 Y200.928 E163.23335
G1 X197.199 Y196.223 E164.007
G1 X195.932 Y191.576 E164.77405
G1 X195.662 Y190.625 E164.93148
G1 X194.597 Y187.118 E165.51515
G1 X169.334 Y102.148 E179.63199
G1 X166.627 Y102.148 E180.06308
G1 X167.001 Y103.403 E180.27163
G1 X167.101 Y103.81 E180.33837
G1 F1801.5 X167.127 Y104.278 E180.41295
G1 X167.071 Y104.839 E180.50266
G1 F1800 X166.919 Y105.358 E180.58878
G1 X166.695 Y105.814 E180.66969
G1 X166.418 Y106.198 E180.74509
G1 X166.321 Y106.297 E180.76716
G0 F1620 X166.113 Y106.51
G0 X165.794 Y106.752
G0 F2700 X166.303 Y105.882
G0 X165.018 Y100.948
G1 F1800 X165.851 Y103.745 E181.23191
G1 X165.937 Y104.157 E181.29894
G1 X165.893 Y104.607 E181.37094
G1 X165.802 Y104.919 E181.4227
G1 X165.667 Y105.192 E181.4712
G1 X165.501 Y105.423 E181.5165
G1 X165.24 Y105.69 E181.57596
G1 X164.897 Y105.886 E181.63887
G1 X164.575 Y106.003 E181.69343
G1 X164.125 Y106.059 E181.76565
G1 X162.982 Y106.059 E181.94767
G1 X162.983 Y212.731 E198.93513
G1 X188.855 Y212.732 E203.05524
G1 X193.25 Y212.759 E203.75515
G1 X200.131 Y212.731 E204.85096
G1 X200.541 Y212.779 E204.91669
G1 X200.855 Y212.794 E204.96676
G1 X201.313 Y212.879 E205.04094
G1 X201.73 Y213.013 E205.11069
G1 X202.281 Y213.302 E205.20977
G1 X202.487 Y213.466 E205.25171
G1 X201.792 Y210.162 E205.78938
G1 X200.742 Y205.5 E206.5504
G1 X199.59 Y200.703 E207.33604
G1 X198.357 Y195.908 E208.12448
G1 X197.087 Y191.249 E208.8935
G1 X196.813 Y190.287 E209.05279
G1 X195.747 Y186.776 E209.63712
G1 X170.23 Y100.948 E223.89645
G1 X166.406 Y100.948 E224.50542
G0 F1620 X165.018 Y100.948
G1 F2700 E214.50542
G0 X202.32 Y214.782
G0 X202.414 Y215.148
G0 X204.676 Y232.613
G1 F2700 E224.50542
G1 F1833.6 X204.727 Y233.266 E224.60782
G1 F1688.8 X204.779 Y233.92 E224.71917
G1 F1603.6 X204.796 Y234.198 E224.76896
G1 F1561.8 X204.814 Y234.476 E224.82009
G1 F1522.2 X204.832 Y234.755 E224.87274
G1 F1484.5 X204.85 Y235.033 E224.92653
G1 F1448.7 X204.868 Y235.312 E224.98185
G1 F1415.5 X204.886 Y235.59 E225.03827
G1 F1382.8 X204.904 Y235.869 E225.09622
G1 F1351.7 X204.921 Y236.147 E225.15529
G1 F1321.9 X204.939 Y236.426 E225.21591
G1 F1293.4 X204.957 Y236.704 E225.27765
G1 F1266.9 X204.975 Y236.983 E225.34091
G1 F1240.7 X204.993 Y237.261 E225.40528
G1 F1215.5 X205.011 Y237.54 E225.47121
G1 F1191.4 X205.029 Y237.818 E225.53823
G1 F1168.8 X205.046 Y238.097 E225.60678
G1 F1146.5 X205.064 Y238.375 E225.67643
G1 F1125 X205.082 Y238.654 E225.74767
G1 F1104.3 X205.1 Y238.932 E225.81998
G1 F1084.3 X205.118 Y239.211 E225.89389
G0 F2700 X208.57 Y257.513
G1 F1800 X208.186 Y252.628 E226.67423
G1 X207.746 Y247.9 E227.43041
G1 X207.22 Y242.969 E228.22013
G1 X206.028 Y233.724 E229.70458
G1 X205.826 Y232.433 E229.91267
G1 F1683.6 X205.702 Y232.184 E229.96003
G1 F1488.6 X205.578 Y231.935 E230.01359
G1 F1335 X205.454 Y231.686 E230.07332
G1 F1279.6 X205.415 Y231.347 E230.14976
G1 F1300.4 X205.375 Y231.007 E230.22523
G1 F1321.1 X205.335 Y230.667 E230.29951
G1 F1343.3 X205.295 Y230.328 E230.37235
G1 F1366.2 X205.255 Y229.988 E230.44418
G1 F1390 X205.215 Y229.648 E230.51478
G1 F1413.6 X205.175 Y229.309 E230.584
G1 F1439 X205.135 Y228.969 E230.65219
G1 F1465.4 X205.095 Y228.629 E230.71916
G1 F1492.7 X205.055 Y228.29 E230.78471
G1 F1520.1 X205.016 Y227.95 E230.84924
G1 F1549.5 X204.976 Y227.61 E230.91257
G1 F1580.1 X204.936 Y227.271 E230.9745
G1 F1611.9 X204.896 Y226.931 E231.03538
G1 F1645.1 X204.856 Y226.591 E231.09503
G1 F1678.3 X204.816 Y226.252 E231.15333
G1 F1714.3 X204.776 Y225.912 E231.21058
G1 F1751.8 X204.736 Y225.572 E231.26659
G1 F1791 X204.696 Y225.233 E231.32122
G1 F1830.5 X204.656 Y224.893 E231.37483
G1 F1873.4 X204.616 Y224.553 E231.42722
G1 F1894.7 X203.778 Y219.851 E232.14978
G1 X203.486 Y218.339 E232.38275
G1 X203.485 Y224.644 E233.33662
G1 F1873.4 X203.498 Y224.985 E233.38883
G1 F1830.5 X203.511 Y225.327 E233.44243
G1 F1791 X203.524 Y225.669 E233.4972
G1 F1751.8 X203.538 Y226.011 E233.55321
G1 F1714.3 X203.551 Y226.352 E233.61027
G1 F1678.3 X203.564 Y226.694 E233.66872
G1 F1645.1 X203.578 Y227.036 E233.72837
G1 F1611.9 X203.591 Y227.378 E233.78923
G1 F1580.1 X203.604 Y227.719 E233.85113
G1 F1549.5 X203.617 Y228.061 E233.91445
G1 F1520.1 X203.631 Y228.403 E233.97899
G1 F1492.7 X203.644 Y228.745 E234.04472
G1 F1465.4 X203.657 Y229.086 E234.11147
G1 F1439 X203.671 Y229.428 E234.17965
G1 F1413.6 X203.684 Y229.77 E234.24905
G1 F1390 X203.697 Y230.112 E234.31963
G1 F1366.2 X203.71 Y230.453 E234.39123
G1 F1343.3 X203.724 Y230.795 E234.46427
G1 F1321.1 X203.737 Y231.137 E234.53853
G1 F1300.4 X203.75 Y231.479 E234.61397
G1 F1279.6 X203.764 Y231.82 E234.69042
G1 F1335 X203.681 Y232.082 E234.74943
G1 F1488.6 X203.598 Y232.347 E234.80291
G1 F1683.6 X203.514 Y232.613 E234.8504
G1 F1800 X203.514 Y281.822 E242.68691
G1 X203.541 Y282.006 E242.71653
G1 X203.708 Y282.371 E242.78045
G1 X209.232 Y282.371 E243.66014
G1 X209.426 Y281.946 E243.73454
G1 X209.438 Y280.23 E244.00782
G1 X209.401 Y276.936 E244.53242
G1 X209.296 Y272.047 E245.31117
G1 X209.121 Y267.184 E246.0861
G1 X208.88 Y262.326 E246.86069
G1 X208.659 Y258.898 E247.40773
G0 F1620 X208.57 Y257.513
G0 F2700 X205.855 Y252.853
G1 F1960.1 X205.874 Y253.338 E247.47871
G1 F1894.7 X205.893 Y253.824 E247.5523
G1 F1833.6 X205.912 Y254.31 E247.62833
G1 F1776.3 X205.931 Y254.795 E247.70666
G1 F1722.5 X205.95 Y255.281 E247.7876
G1 F1673.1 X205.97 Y255.767 E247.87093
G1 F1625.3 X205.989 Y256.252 E247.95653
G1 F1580.1 X206.008 Y256.738 E248.04477
G1 F1537.4 X206.027 Y257.224 E248.13545
G1 F1496.9 X206.046 Y257.71 E248.22859
G1 F1458.5 X206.066 Y258.308 E248.34619
G1 F1422 X206.085 Y258.906 E248.4668
G1 F1386.4 X206.104 Y259.504 E248.5905
G1 F1353.4 X206.123 Y260.102 E248.71722
G1 F1321.1 X206.142 Y260.699 E248.84682
G1 F1291.1 X206.161 Y261.297 E248.97966
G1 F1261.7 X206.18 Y261.895 E249.11559
G1 F1234.3 X206.199 Y262.493 E249.25454
G1 F1206.7 X206.22 Y263.3 E249.44631
G1 F1180.3 X206.24 Y264.105 E249.64187
G1 F1155.1 X206.26 Y264.91 E249.8417
G1 F1130.9 X206.28 Y265.715 E250.04581
G1 F1107.7 X206.3 Y266.52 E250.25419
G1 F1085.4 X206.32 Y267.324 E250.46658
G1 F1068.2 X206.33 Y267.914 E250.62492
G0 F2700 X208.201 Y276.962
G1 F1800 X208.096 Y272.09 E251.40097
G1 X207.923 Y267.243 E252.17334
G1 X207.682 Y262.402 E252.94522
