;FLAVOR:Marlin
;TIME:9660
;Filament used: 42.3199m
;Layer height: 0.6
;MINX:104.679
;MINY:102.556
;MINZ:0.3
;MAXX:278.196
;MAXY:299.276
;MAXZ:25.7
;Generated with Cura_SteamEngine 5.3.1
M82 ;absolute extrusion mode
; X5SA Start Code
G21 ; Set units to millimeters
G90 ; Set all axis to Absolute
M82 ; Set extrusion to Absolute
M107 ; Disable all fans
M190 S60 ; Set bed temperature and wait
G28 ; Home all axis
; Uncomment the line below to enable ABL Mesh probing
;G29 ; Probe bed mesh for ABL
; For best results do not run nozzle heater while performing ABL
G1 Z5.0 ; Raise nozzle to prevent scratching of heat bed
G1 X0 Y0 ; Move nozzle to Home before heating
M109 S230.0 T0 ; Set nozzle temp and wait
G92 E0 ; Set Extruder position to zero
; Uncomment the following lines to enable nozzle purge line along left edge of bed
;G1 Z2.0 F3000 ; Raise Z axis
;G1 X1.1 Y20 Z0.2 F3600.0 ; Move to purge line start position
;G1 Y290 F1500.0 E15 ; Draw first purge line
;G1 X1.4 F3600.0 ; Move to side
;G1 Y20 F1500.0 E30 ; Draw second purge line
;G92 E0 ; Reset Extruder
;G1 Z2.0 F3000 ; Move Z Axis up little to prevent scratching of Heat Bed
;G1 X5 Y20 Z0.2 F3600.0 ; Move over to finish nozzle wipe
;G92 E0

G92 E0
G92 E0
G1 F2700 E-10
;LAYER_COUNT:43
;LAYER:0
M107
G1 F300 Z0.5
G0 F2700 X111.583 Y119.635 Z0.5
;TYPE:SKIRT
G1 F300 Z0.3
G1 F2700 E0
G1 F1800 X112.268 Y119.02 E0.1466
G1 X113.004 Y118.467 E0.29321
G1 X113.786 Y117.981 E0.43983
G1 X114.607 Y117.564 E0.58647
G1 X115.46 Y117.219 E0.733
G1 X116.341 Y116.95 E0.87969
G1 X117.241 Y116.759 E1.02621
G1 X118.155 Y116.646 E1.17287
G1 X118.696 Y116.617 E1.25915
G1 X119.314 Y116.604 E1.35759
G1 X152.39 Y116.605 E6.62493
G1 X153.105 Y116.616 E6.7388
G1 X154.024 Y116.67 E6.88541
G1 X154.586 Y116.743 E6.97566
G1 X155.1 Y116.824 E7.05852
G1 X157.655 Y117.188 E7.46951
G1 X160.162 Y117.473 E7.87132
G1 X162.7 Y117.689 E8.27696
G1 X165.202 Y117.831 E8.67604
G1 X167.748 Y117.903 E9.08165
G1 X170.257 Y117.903 E9.48121
G1 X172.814 Y117.831 E9.88857
G1 X175.305 Y117.69 E10.2859
G1 X177.857 Y117.473 E10.69377
G1 X180.328 Y117.193 E11.08979
G1 X182.883 Y116.83 E11.50076
G1 X185.342 Y116.408 E11.89808
G1 X187.85 Y115.905 E12.30543
G1 X190.067 Y115.409 E12.66722
G1 X190.495 Y115.322 E12.73677
G1 X191.551 Y115.131 E12.90766
G1 X192.211 Y115.033 E13.01392
G1 X193.206 Y114.917 E13.17345
G1 X193.822 Y114.864 E13.27191
G1 X194.774 Y114.809 E13.42377
G1 X195.206 Y114.793 E13.49261
G1 X196.75 Y114.768 E13.73852
G1 X198.472 Y114.768 E14.01275
G1 X201.097 Y114.731 E14.43082
G1 X203.605 Y114.624 E14.83058
G1 X206.122 Y114.446 E15.23242
G1 X208.646 Y114.196 E15.63633
G1 X211.154 Y113.875 E16.03898
G1 X213.616 Y113.488 E16.43587
G1 X216.167 Y113.014 E16.84907
G1 X218.565 Y112.499 E17.23966
G1 X221.081 Y111.881 E17.65224
G1 X223.483 Y111.22 E18.04898
G1 X225.917 Y110.475 E18.45434
G1 X228.342 Y109.657 E18.8619
G1 X230.659 Y108.802 E19.2552
G1 X233.056 Y107.84 E19.66652
G1 X235.361 Y106.837 E20.06683
G1 X237.007 Y106.074 E20.35575
G1 X239.256 Y105.003 E20.75244
G1 X239.947 Y104.704 E20.87234
G1 X241.098 Y104.253 E21.06921
G1 X241.76 Y104.018 E21.18107
G1 X242.794 Y103.69 E21.35382
G1 X243.443 Y103.507 E21.46121
G1 X244.546 Y103.233 E21.6422
G1 X245.243 Y103.084 E21.7557
G1 X246.321 Y102.892 E21.93008
G1 X246.986 Y102.796 E22.03707
G1 X248.053 Y102.675 E22.20808
G1 X248.699 Y102.621 E22.31132
G1 X249.685 Y102.57 E22.46855
G1 X250.322 Y102.556 E22.57001
G1 X251.394 Y102.565 E22.74073
G1 X252.086 Y102.594 E22.85103
G1 X253.21 Y102.677 E23.03052
G1 X253.901 Y102.751 E23.14119
G1 X255.006 Y102.906 E23.31888
G1 X255.692 Y103.025 E23.42976
G1 X256.851 Y103.266 E23.61828
G1 X257.596 Y103.449 E23.74044
G1 X258.59 Y103.732 E23.90503
G1 X259.127 Y103.898 E23.99454
G1 X260.266 Y104.297 E24.18673
G1 X260.778 Y104.492 E24.27398
G1 X261.961 Y104.995 E24.47869
G1 X262.537 Y105.264 E24.57993
G1 X263.482 Y105.74 E24.74843
G1 X263.837 Y105.927 E24.81233
G1 X264.338 Y106.21 E24.90397
G1 X265.129 Y106.682 E25.05065
G1 X265.58 Y106.965 E25.13544
G1 X265.931 Y107.2 E25.20271
G1 X266.826 Y107.824 E25.37646
G1 X267.382 Y108.239 E25.48695
G1 X268.264 Y108.944 E25.66676
G1 X268.787 Y109.39 E25.77622
G1 X269.59 Y110.122 E25.94926
G1 X270.085 Y110.604 E26.05929
G1 X270.859 Y111.408 E26.23701
G1 X271.332 Y111.933 E26.34954
G1 X272.056 Y112.793 E26.52857
G1 X272.446 Y113.286 E26.62867
G1 X272.993 Y114.02 E26.77445
G1 X273.364 Y114.55 E26.87748
G1 X273.983 Y115.496 E27.05751
G1 X274.336 Y116.075 E27.1655
G1 X274.855 Y116.991 E27.33316
G1 X275.18 Y117.613 E27.44492
G1 X275.692 Y118.675 E27.63268
G1 X275.97 Y119.302 E27.7419
G1 X276.367 Y120.283 E27.91043
G1 X276.609 Y120.944 E28.02253
G1 X276.957 Y122.001 E28.19974
G1 X277.128 Y122.564 E28.29344
G1 X277.241 Y122.985 E28.36286
G1 X277.495 Y124.011 E28.53118
G1 X277.629 Y124.631 E28.6322
G1 X277.805 Y125.583 E28.78637
G1 X277.905 Y126.235 E28.89142
G1 X278.048 Y127.415 E29.08071
G1 X278.111 Y128.144 E29.19723
G1 X278.173 Y129.469 E29.40847
G1 X278.194 Y130.769 E29.61552
G1 X278.194 Y154.717 E33.42923
G1 X278.183 Y155.427 E33.54231
G1 X278.129 Y156.346 E33.68891
G1 X278.006 Y157.196 E33.82568
G1 X277.792 Y158.348 E34.01228
G1 X277.34 Y160.983 E34.43803
G1 X276.98 Y163.514 E34.84515
G1 X276.699 Y165.995 E35.24277
G1 X276.485 Y168.517 E35.64584
G1 X276.342 Y171.041 E36.04843
G1 X276.271 Y173.578 E36.45261
G1 X276.271 Y176.09 E36.85264
G1 X276.344 Y178.641 E37.25905
G1 X276.486 Y181.144 E37.65829
G1 X276.702 Y183.681 E38.06377
G1 X276.987 Y186.188 E38.46558
G1 X277.345 Y188.7 E38.86966
G1 X277.851 Y191.656 E39.34725
G1 X277.931 Y192.209 E39.43623
G1 X278.042 Y193.156 E39.58807
G1 X278.096 Y193.726 E39.67925
G1 X278.159 Y194.852 E39.85885
G1 X278.196 Y196.741 E40.15973
G1 X278.195 Y220.498 E43.94302
G1 X278.185 Y221.199 E44.05466
G1 X278.132 Y222.118 E44.20126
G1 X277.977 Y223.141 E44.36603
G1 X277.392 Y226.043 E44.83747
G1 X276.966 Y228.54 E45.24086
G1 X276.608 Y231.058 E45.64588
G1 X276.324 Y233.575 E46.04925
G1 X276.11 Y236.09 E46.45121
G1 X275.969 Y238.595 E46.85077
G1 X275.898 Y241.138 E47.2559
G1 X275.9 Y243.651 E47.65609
G1 X275.973 Y246.196 E48.06155
G1 X276.116 Y248.715 E48.46334
G1 X276.33 Y251.228 E48.86498
G1 X276.62 Y253.766 E49.27179
G1 X276.976 Y256.26 E49.67298
G1 X277.493 Y259.274 E50.15997
G1 X277.574 Y259.833 E50.24992
G1 X277.687 Y260.797 E50.40449
G1 X277.742 Y261.432 E50.50599
G1 X277.8 Y262.457 E50.66948
G1 X277.816 Y262.885 E50.73769
G1 X277.837 Y264.185 E50.94474
G1 X277.837 Y288.086 E54.75096
G1 X277.827 Y288.813 E54.86675
G1 X277.774 Y289.732 E55.01334
G1 X277.642 Y290.643 E55.15993
G1 X277.431 Y291.539 E55.30652
G1 X277.144 Y292.414 E55.45317
G1 X276.781 Y293.26 E55.59978
G1 X276.347 Y294.072 E55.7464
G1 X275.843 Y294.843 E55.89309
G1 X275.275 Y295.567 E56.03963
G1 X274.646 Y296.239 E56.18621
G1 X273.961 Y296.854 E56.33281
G1 X273.225 Y297.407 E56.47942
G1 X272.444 Y297.895 E56.62607
G1 X271.624 Y298.313 E56.77265
G1 X270.77 Y298.658 E56.91932
G1 X269.89 Y298.927 E57.06586
G1 X268.989 Y299.12 E57.2126
G1 X268.076 Y299.233 E57.35911
G1 X267.526 Y299.263 E57.44682
G1 X266.908 Y299.276 E57.54526
G1 X233.829 Y299.275 E62.81308
G1 X233.125 Y299.264 E62.9252
G1 X232.206 Y299.209 E63.07181
G1 X231.295 Y299.075 E63.21845
G1 X230.4 Y298.863 E63.36492
G1 X229.526 Y298.574 E63.51152
G1 X228.379 Y298.058 E63.71181
G1 X225.714 Y296.664 E64.19077
G1 X223.482 Y295.577 E64.58612
G1 X221.164 Y294.531 E64.9911
G1 X218.77 Y293.531 E65.40427
G1 X216.475 Y292.646 E65.79598
G1 X214.09 Y291.804 E66.19877
G1 X211.646 Y291.017 E66.60765
G1 X209.259 Y290.323 E67.00352
G1 X206.791 Y289.68 E67.40967
G1 X204.292 Y289.105 E67.81803
G1 X201.879 Y288.621 E68.20996
G1 X199.331 Y288.185 E68.62162
G1 X196.852 Y287.83 E69.02043
G1 X194.369 Y287.549 E69.41837
G1 X191.813 Y287.331 E69.82689
G1 X189.313 Y287.189 E70.22565
G1 X186.73 Y287.115 E70.63716
G1 X185.423 Y287.106 E70.84531
G1 X179.639 Y287.106 E71.76641
G1 X178.788 Y287.095 E71.90194
G1 X177.869 Y287.042 E72.04853
G1 X176.958 Y286.909 E72.19515
G1 X176.062 Y286.698 E72.34174
G1 X175.188 Y286.41 E72.48829
G1 X174.342 Y286.047 E72.63489
G1 X173.53 Y285.612 E72.78159
G1 X172.76 Y285.108 E72.92814
G1 X172.036 Y284.539 E73.07478
G1 X171.364 Y283.91 E73.22136
G1 X170.749 Y283.224 E73.36808
G1 X170.196 Y282.488 E73.51469
G1 X169.709 Y281.707 E73.66126
G1 X169.292 Y280.886 E73.8079
G1 X169.052 Y280.315 E73.90654
G1 X168.462 Y278.788 E74.16723
G1 X167.475 Y276.355 E74.58536
G1 X166.468 Y274.06 E74.98447
G1 X165.385 Y271.773 E75.38744
G1 X164.244 Y269.528 E75.78848
G1 X163.032 Y267.3 E76.19239
G1 X161.761 Y265.116 E76.5948
G1 X160.416 Y262.948 E77.0011
G1 X159.045 Y260.871 E77.39742
G1 X157.583 Y258.789 E77.80256
G1 X156.067 Y256.751 E78.20706
G1 X154.501 Y254.767 E78.60957
G1 X152.874 Y252.823 E79.01327
G1 X151.217 Y250.953 E79.41116
G1 X149.46 Y249.078 E79.82036
G1 X147.712 Y247.315 E80.21572
G1 X145.866 Y245.557 E80.62168
G1 X143.972 Y243.853 E81.0274
G1 X142.074 Y242.24 E81.42406
G1 X140.068 Y240.629 E81.83378
G1 X138.08 Y239.125 E82.23076
G1 X136.027 Y237.661 E82.63231
G1 X133.89 Y236.225 E83.04233
G1 X131.774 Y234.889 E83.44084
G1 X129.615 Y233.611 E83.84038
G1 X127.374 Y232.368 E84.24848
G1 X125.15 Y231.214 E84.64749
G1 X122.881 Y230.119 E85.04871
G1 X121.052 Y229.297 E85.36804
G1 X120.458 Y229.019 E85.47248
G1 X120.099 Y228.842 E85.53622
G1 X119.081 Y228.316 E85.7187
G1 X118.456 Y227.966 E85.83278
G1 X117.528 Y227.404 E86.00555
G1 X117.004 Y227.065 E86.10493
G1 X116.235 Y226.535 E86.25366
G1 X115.723 Y226.159 E86.35483
G1 X114.858 Y225.483 E86.52965
G1 X114.552 Y225.235 E86.59238
G1 X114.132 Y224.872 E86.68078
G1 X113.437 Y224.245 E86.82984
G1 X112.974 Y223.802 E86.93189
G1 X112.159 Y222.972 E87.11713
G1 X111.653 Y222.419 E87.2365
G1 X110.98 Y221.629 E87.40177
G1 X110.636 Y221.206 E87.4886
G1 X109.878 Y220.198 E87.68944
G1 X109.562 Y219.754 E87.77623
G1 X108.878 Y218.71 E87.97499
G1 X108.546 Y218.161 E88.07716
G1 X107.937 Y217.083 E88.27433
G1 X107.593 Y216.42 E88.39328
G1 X107.187 Y215.566 E88.54387
G1 X106.934 Y214.992 E88.64376
G1 X106.49 Y213.895 E88.83223
G1 X106.241 Y213.214 E88.9477
G1 X105.906 Y212.19 E89.11927
G1 X105.724 Y211.58 E89.22065
G1 X105.433 Y210.448 E89.40678
G1 X105.314 Y209.935 E89.49064
G1 X105.067 Y208.632 E89.70184
G1 X104.967 Y207.983 E89.80641
G1 X104.834 Y206.888 E89.98207
G1 X104.774 Y206.212 E90.09015
G1 X104.716 Y205.193 E90.25269
G1 X104.7 Y204.761 E90.32153
G1 X104.679 Y203.45 E90.53033
G1 X104.679 Y179.505 E94.34356
G1 X104.69 Y178.796 E94.45648
G1 X104.745 Y177.877 E94.6031
G1 X104.878 Y176.966 E94.74971
G1 X105.068 Y176.152 E94.88282
G1 X105.82 Y173.279 E95.35576
G1 X106.38 Y170.838 E95.75459
G1 X106.89 Y168.294 E96.16778
G1 X107.303 Y165.878 E96.55811
G1 X107.664 Y163.338 E96.96667
G1 X107.948 Y160.825 E97.36941
G1 X108.162 Y158.309 E97.77153
G1 X108.301 Y155.844 E98.1647
G1 X108.384 Y151.895 E98.79371
G1 X108.385 Y127.743 E102.63991
G1 X108.395 Y127.058 E102.74901
G1 X108.449 Y126.139 E102.89561
G1 X108.581 Y125.228 E103.0422
G1 X108.793 Y124.332 E103.18883
G1 X109.081 Y123.458 E103.33537
G1 X109.445 Y122.612 E103.48204
G1 X109.88 Y121.801 E103.6286
G1 X110.384 Y121.03 E103.77528
G1 X110.664 Y120.674 E103.84741
G0 F1620 X110.953 Y120.306
G0 X111.583 Y119.635
G1 F2700 E93.84741
G1 F300 Z0.5
;MESH:tpu gearbox support.stl(5)
G0 F2700 X151.134 Y129.004 Z0.5
;TYPE:WALL-INNER
G1 F300 Z0.3
G1 F2700 E103.84741
G1 F1800 X151.134 Y129.004
G1 X120.784 Y129.004 E108.68063
G1 X120.785 Y146.418 E111.45381
G1 X120.951 Y145.988 E111.52721
G1 X121.384 Y145.051 E111.69159
G1 X121.947 Y144.021 E111.87852
G1 X122.599 Y143.009 E112.07023
G1 X123.384 Y141.979 E112.27647
G1 X124.164 Y141.101 E112.46349
G1 X124.998 Y140.285 E112.6493
G1 X125.815 Y139.59 E112.82012
G1 X126.743 Y138.905 E113.0038
G1 X127.853 Y138.209 E113.21244
G1 X128.908 Y137.653 E113.40236
G1 X129.974 Y137.19 E113.58744
G1 X131.086 Y136.795 E113.77536
G1 X132.22 Y136.485 E113.96258
G1 X133.376 Y136.256 E114.15025
G1 X134.533 Y136.112 E114.33592
G1 X135.589 Y136.054 E114.50434
G1 X136.911 Y136.078 E114.71491
G1 X138.059 Y136.187 E114.89855
G1 X139.106 Y136.358 E115.06749
G1 X140.248 Y136.624 E115.25422
G1 X141.513 Y137.023 E115.46545
G1 X142.472 Y137.407 E115.62996
G1 X143.531 Y137.916 E115.81708
G1 X144.664 Y138.569 E116.02533
G1 X145.627 Y139.227 E116.21107
G1 X146.553 Y139.963 E116.39944
G1 X147.423 Y140.761 E116.58744
G1 X148.143 Y141.522 E116.75427
G1 X148.899 Y142.437 E116.94329
G1 X149.568 Y143.377 E117.12702
G1 X150.185 Y144.394 E117.31646
G1 X150.771 Y145.545 E117.52214
G1 X151.134 Y146.411 E117.67168
G1 X151.134 Y130.392 E120.2227
G0 F1620 X151.134 Y129.004
G1 F2700 E110.2227
G0 X129.974 Y137.36
G0 X128.918 Y137.827
G0 X128.329 Y138.138
G0 X125.979 Y139.591
G0 X126.627 Y140.477
;TYPE:WALL-OUTER
G1 F2700 E120.2227
G1 F1800 X127.452 Y139.873 E120.38552
G1 X128.379 Y139.29 E120.55991
G1 X129.391 Y138.752 E120.74243
G1 X130.342 Y138.334 E120.90786
G1 X131.407 Y137.951 E121.0881
G1 X132.458 Y137.661 E121.26172
G1 X133.529 Y137.446 E121.43568
G1 X134.599 Y137.31 E121.60745
G1 X135.655 Y137.252 E121.77587
G1 X136.802 Y137.273 E121.95856
G1 X137.865 Y137.371 E122.12856
G1 X138.912 Y137.542 E122.29751
G1 X140.013 Y137.803 E122.4777
G1 X141.067 Y138.137 E122.65377
G1 X142.026 Y138.521 E122.81828
G1 X143.045 Y139.016 E122.99869
G1 X143.99 Y139.562 E123.17249
G1 X144.885 Y140.17 E123.3448
G1 X145.713 Y140.822 E123.51263
G1 X146.52 Y141.555 E123.68625
G1 X147.271 Y142.347 E123.86006
G1 X147.998 Y143.233 E124.04257
G1 X148.61 Y144.104 E124.2121
G1 X149.157 Y145.013 E124.38104
G1 X149.665 Y146.011 E124.55938
G1 X150.091 Y147.028 E124.73497
G1 X150.425 Y148.021 E124.90181
G1 X150.701 Y149.077 E125.07563
G1 F1711.6 X150.957 Y150.123 E125.25598
G1 F1671.8 X151.048 Y151.229 E125.44625
G1 F1729.4 X151.078 Y152.339 E125.6303
G1 F1747.6 X151.035 Y153.463 E125.81481
G1 F1751.8 X150.918 Y154.54 E125.99207
G1 F1754.7 X150.719 Y155.614 E126.17051
G1 F1753.2 X150.45 Y156.654 E126.34614
G1 F1754.7 X150.106 Y157.679 E126.52277
G1 X149.686 Y158.682 E126.70041
G1 X149.193 Y159.657 E126.87889
G1 F1753.2 X148.633 Y160.592 E127.05708
G1 F1749 X147.994 Y161.501 E127.23919
G1 F1747.6 X147.301 Y162.346 E127.41844
G1 F1749 X146.531 Y163.156 E127.60161
G1 F1750.4 X145.744 Y163.873 E127.77595
G1 F1749 X144.88 Y164.553 E127.95616
G1 F1751.8 X143.991 Y165.158 E128.13211
G1 F1754.7 X143.039 Y165.706 E128.31156
G1 F1753.2 X142.068 Y166.177 E128.488
G1 X141.071 Y166.576 E128.66358
G1 X140.032 Y166.909 E128.84196
G1 F1750.4 X138.924 Y167.174 E129.02853
G1 F1747.6 X137.892 Y167.343 E129.20006
G1 X136.816 Y167.443 E129.37731
G1 F1749 X135.678 Y167.464 E129.56386
G1 F1751.8 X134.583 Y167.405 E129.74329
G1 F1753.2 X133.517 Y167.268 E129.91901
G1 X132.425 Y167.047 E130.10117
G1 F1751.8 X131.4 Y166.764 E130.27516
G1 F1749 X130.382 Y166.401 E130.4523
G1 F1747.6 X129.359 Y165.951 E130.63561
G1 F1746.2 X128.402 Y165.444 E130.8134
G1 X127.457 Y164.852 E130.99646
G1 F1747.6 X126.589 Y164.215 E131.17306
G1 F1749 X125.766 Y163.514 E131.35024
G1 X124.976 Y162.738 E131.53173
G1 X124.27 Y161.936 E131.70685
G1 F1750.4 X123.612 Y161.074 E131.88444
G1 X123.013 Y160.156 E132.06394
G1 F1749 X122.485 Y159.205 E132.24222
G1 X122.016 Y158.196 E132.42458
G1 F1747.6 X121.641 Y157.202 E132.59884
G1 X121.332 Y156.172 E132.77523
G1 F1750.4 X121.084 Y155.047 E132.96388
G1 F1753.2 X120.93 Y153.984 E133.13949
G1 F1751.8 X120.853 Y152.921 E133.31389
G1 F1744.7 X120.848 Y151.789 E133.49987
G1 F1708.9 X120.906 Y150.696 E133.68347
G1 F1632.7 X121.018 Y149.667 E133.8652
G1 F1687.5 X121.346 Y148.545 E134.06377
G1 F1800 X121.64 Y147.556 E134.22808
G1 X122.024 Y146.532 E134.40224
G1 X122.493 Y145.517 E134.5803
G1 X123.02 Y144.563 E134.75386
G1 X123.605 Y143.663 E134.9248
G1 X124.284 Y142.773 E135.10307
G1 X125.007 Y141.955 E135.27693
G1 X125.581 Y141.389 E135.4053
G0 F1620 X125.743 Y141.229
G0 X126.627 Y140.477
G1 F2700 E125.4053
G0 X125.979 Y139.591
G0 X122.809 Y144.453
G0 X122.274 Y145.421
G0 X121.81 Y146.426
G0 X121.422 Y147.452
G0 X121.107 Y148.514
G0 X121.04 Y148.823
G0 X120.022 Y154.454
G0 X119.748 Y154.498
