;FLAVOR:Marlin
;TIME:2962
;Filament used: 12.4152m
;Layer height: 0.6
;MINX:35.984
;MINY:40.658
;MINZ:0.4
;MAXX:201.468
;MAXY:172.271
;MAXZ:23.2
;Generated with Cura_SteamEngine 5.3.1
M82 ;absolute extrusion mode
; START G-CODE BEGIN

M104 S230.0 ﻿T0
M140 S60.0

G28 ; Home all axes
G92 E0 ; Reset Extruder
M420 S1 ; Load Mesh

M109 S230.0 ﻿T0
M190 S60.0

G92 E0 ; Reset Extruder

G1 X0.6 Y20 Z0.3 F5000.0 ; Move to start position
G1 X0.6 Y200.0 Z0.3 F1500.0 E15 ; Draw the first line
G1 X0.9 Y200.0 Z0.3 F5000.0 ; Move to side a little
G1 X0.9 Y20 Z0.3 F1500.0 E30 ; Draw the second line
G92 E0 ; Reset Extruder
G1 Z2.0 F3000 ; Move Z Axis up little to prevent scratching of Heat Bed
G1 X5 Y20 Z0.3 F5000.0 ; Move over to prevent blob squish

; START G-CODE END
G92 E0
G92 E0
G1 F2100 E-6
;LAYER_COUNT:39
;LAYER:0
M107
;MESH:motor cushion v3.stl(2)
G0 F6000 X85.675 Y92.23 Z0.4
;TYPE:WALL-OUTER
G1 F2100 E0
G1 F799.6 X84.714 Y92.434 E0.32366
G1 F799.1 X84.166 Y92.531 E0.50712
G1 X83.102 Y92.69 E0.86175
G1 X82.575 Y92.751 E1.03663
G1 F799.6 X81.491 Y92.844 E1.39507
G1 F800 X81.024 Y92.869 E1.54907
G1 F799.1 X79.863 Y92.898 E1.9319
G1 X79.44 Y92.894 E2.07134
G1 F800 X78.219 Y92.848 E2.47367
G1 F800.9 X77.835 Y92.82 E2.60031
G1 F800 X76.567 Y92.691 E3.01999
G1 X76.271 Y92.652 E3.11829
G1 F797.3 X74.843 Y92.416 E3.59647
G1 F800 X73.438 Y92.097 E4.07087
G1 F800.9 X73.195 Y92.033 E4.15352
G1 F799.1 X71.692 Y91.586 E4.67042
G1 X70.174 Y91.031 E5.20321
G1 X68.736 Y90.401 E5.72073
G1 F800 X67.324 Y89.678 E6.24307
G1 X65.976 Y88.881 E6.75872
G1 F799.1 X64.65 Y87.982 E7.28681
G1 F798.7 X63.427 Y87.039 E7.79617
G1 F799.6 X62.14 Y85.91 E8.36021
G1 F801.3 X60.994 Y84.769 E8.89181
G1 F801.8 X59.906 Y83.538 E9.43157
G1 F800 X59.078 Y82.483 E9.87317
G1 F800.9 X58.913 Y82.26 E9.96441
G1 F800.4 X58.167 Y81.18 E10.39638
G1 F800.9 X57.972 Y80.879 E10.51434
G1 X57.335 Y79.818 E10.92138
G1 F800.4 X57.14 Y79.473 E11.05179
G1 F800 X56.595 Y78.421 E11.44192
G1 X56.41 Y78.038 E11.58197
G1 F800.4 X55.95 Y76.998 E11.95621
G1 F801.3 X55.756 Y76.526 E12.12396
G1 X55.386 Y75.526 E12.47447
G1 F801.8 X55.209 Y75.005 E12.65525
G1 F800.9 X54.906 Y74.001 E13.00019
G1 F800.4 X54.755 Y73.442 E13.19074
G1 F800 X54.526 Y72.469 E13.51988
G1 F799.1 X54.403 Y71.869 E13.72178
G1 X54.246 Y70.956 E14.02716
G1 F800.4 X54.146 Y70.251 E14.26149
G1 X54.048 Y69.333 E14.56531
G1 F799.6 X53.997 Y68.674 E14.78308
G1 F799.1 X53.956 Y67.813 E15.06722
G1 X53.942 Y67.009 E15.33229
G1 F800 X53.956 Y66.178 E15.60596
G1 X53.992 Y65.372 E15.87162
G1 X54.051 Y64.621 E16.11967
G1 F800.4 X54.144 Y63.763 E16.40368
G1 X54.245 Y63.059 E16.63773
G1 F800 X54.398 Y62.162 E16.93736
G1 X54.529 Y61.522 E17.15247
G1 F800.4 X54.749 Y60.588 E17.46825
G1 F800 X54.921 Y59.95 E17.68583
G1 F799.6 X55.202 Y59.021 E18.00559
G1 F800 X55.384 Y58.483 E18.1926
G1 X55.759 Y57.471 E18.54797
G1 F800.4 X55.957 Y56.988 E18.71976
G1 X56.399 Y55.992 E19.07836
G1 X56.614 Y55.548 E19.24071
G1 F800 X57.129 Y54.555 E19.60904
G1 F800.4 X57.343 Y54.175 E19.75256
G1 X57.962 Y53.142 E20.14887
G1 X58.168 Y52.824 E20.27356
G1 X58.873 Y51.798 E20.68324
G1 F800 X59.087 Y51.509 E20.80165
G1 F799.6 X59.862 Y50.521 E21.21535
G1 F800 X60.051 Y50.294 E21.31261
G1 X60.938 Y49.298 E21.75177
G1 X61.113 Y49.112 E21.83586
G1 F797.8 X62.179 Y48.053 E22.33201
G1 F798.2 X63.418 Y46.973 E22.87442
G1 F798.7 X64.683 Y46.001 E23.40059
G1 F800 X66.008 Y45.105 E23.92727
G1 F800.9 X67.348 Y44.312 E24.4394
G1 F800 X68.751 Y43.596 E24.95806
G1 F800.9 X70.274 Y42.934 E25.50426
G1 F801.3 X71.704 Y42.414 E26.00446
G1 X73.363 Y41.927 E26.57282
G1 F799.6 X74.737 Y41.613 E27.03717
G1 F799.1 X74.992 Y41.563 E27.12283
G1 X76.286 Y41.35 E27.55513
G1 F799.6 X76.601 Y41.307 E27.65987
G1 F799.1 X77.849 Y41.184 E28.07325
G1 F799.6 X78.206 Y41.159 E28.19116
G1 F800 X79.466 Y41.11 E28.60636
G1 F799.6 X79.839 Y41.106 E28.72925
G1 F800 X81.035 Y41.135 E29.12318
G1 F800.9 X81.482 Y41.159 E29.27042
G1 X82.604 Y41.256 E29.64083
G1 X83.087 Y41.311 E29.80072
G1 F800.4 X84.18 Y41.474 E30.16439
G1 F800 X84.688 Y41.565 E30.33433
G1 F799.1 X85.701 Y41.781 E30.67576
G1 X86.263 Y41.917 E30.86637
G1 F799.6 X87.247 Y42.191 E31.20289
G1 F800.4 X87.845 Y42.377 E31.40899
G1 X88.747 Y42.69 E31.72319
G1 F801.3 X89.365 Y42.924 E31.94042
G1 F800.9 X90.216 Y43.281 E32.24395
G1 F800.4 X90.854 Y43.569 E32.47431
G1 F800.9 X91.634 Y43.952 E32.76012
G1 X92.295 Y44.302 E33.00613
G1 F800 X93.021 Y44.717 E33.28148
G1 X93.707 Y45.136 E33.54617
G1 F800.4 X94.373 Y45.574 E33.80849
G1 F800.9 X95.05 Y46.047 E34.08013
G1 F801.3 X95.629 Y46.482 E34.31819
G1 X96.346 Y47.053 E34.6195
G1 X96.842 Y47.476 E34.83379
G1 X97.538 Y48.104 E35.14195
G1 F800.9 X98.025 Y48.574 E35.36456
G1 F800.4 X98.709 Y49.271 E35.68594
G1 X99.098 Y49.696 E35.87554
G1 F800 X99.778 Y50.483 E36.21802
G1 X100.119 Y50.905 E36.39667
G1 F800.4 X100.771 Y51.76 E36.75052
G1 F800.9 X101.08 Y52.196 E36.92629
G1 X101.687 Y53.103 E37.28525
G1 F801.3 X101.923 Y53.483 E37.4323
G1 F800.4 X102.518 Y54.507 E37.82204
G1 X102.699 Y54.842 E37.94735
G1 F800.9 X103.251 Y55.941 E38.35186
G1 X103.415 Y56.296 E38.48048
G1 F801.3 X103.909 Y57.451 E38.89343
G1 F801.8 X104.025 Y57.752 E38.99941
G1 F800.4 X104.453 Y58.959 E39.42086
G1 F800.9 X104.536 Y59.217 E39.51
G1 X104.91 Y60.528 E39.9584
G1 F801.3 X104.974 Y60.779 E40.04355
G1 F798.2 X105.298 Y62.27 E40.54708
G1 F799.6 X105.525 Y63.719 E41.03028
G1 F801.3 X105.684 Y65.382 E41.57945
G1 F800 X105.735 Y67.01 E42.11577
G1 F800.9 X105.687 Y68.604 E42.64029
G1 F802.2 X105.536 Y70.212 E43.17062
G1 F800.4 X105.298 Y71.737 E43.67856
G1 F800.9 X104.932 Y73.397 E44.23766
G1 F800.4 X104.534 Y74.793 E44.71538
G1 F798.7 X104.021 Y76.263 E45.2289
G1 F801.8 X103.929 Y76.5 E45.31243
G1 F800.9 X103.393 Y77.757 E45.76188
G1 X103.266 Y78.033 E45.86181
G1 F800.4 X102.712 Y79.138 E46.2686
G1 F801.3 X102.532 Y79.474 E46.39391
G1 X101.918 Y80.527 E46.7946
G1 F800.9 X101.698 Y80.882 E46.93197
G1 X101.056 Y81.843 E47.3121
G1 F801.3 X100.785 Y82.226 E47.46633
G1 F800.9 X100.103 Y83.121 E47.83643
G1 X99.788 Y83.511 E48.00132
G1 F800.4 X99.101 Y84.306 E48.3471
G1 F799.6 X98.742 Y84.697 E48.52198
G1 X98.015 Y85.442 E48.86492
G1 F800.9 X97.559 Y85.883 E49.07357
G1 F801.3 X96.832 Y86.538 E49.39525
G1 F800.9 X96.354 Y86.945 E49.60174
G1 F801.3 X95.632 Y87.52 E49.90515
G1 F801.8 X95.068 Y87.943 E50.13677
G1 F800.9 X94.335 Y88.456 E50.43104
G1 X93.713 Y88.866 E50.67607
G1 F801.3 X92.998 Y89.302 E50.95136
G1 X92.333 Y89.684 E51.20346
G1 X91.634 Y90.053 E51.4633
G1 F800.9 X90.884 Y90.422 E51.73822
G1 X90.206 Y90.729 E51.98301
G1 F802.2 X89.373 Y91.078 E52.27957
G1 F802.7 X88.734 Y91.32 E52.50382
G1 F801.3 X87.859 Y91.624 E52.80832
G1 F800.9 X87.234 Y91.817 E53.02346
G1 F800.4 X86.291 Y92.08 E53.34564
G1 X85.675 Y92.23 E53.55429
G1 F2100 E47.55429
;MESH:motor cushion v3.stl(1)
G0 F6000 X90.246 Y90.805
G0 X90.881 Y92.146
G0 X96.864 Y99.39
G0 X117.544 Y143.368
;TYPE:WALL-OUTER
G1 F2100 E53.55429
G1 F799.1 X118.338 Y143.354 E53.81606
G1 X119.152 Y143.316 E54.08468
G1 F799.6 X119.865 Y143.262 E54.32026
G1 F800.4 X120.782 Y143.164 E54.62375
G1 X121.487 Y143.064 E54.85809
G1 F799.1 X122.4 Y142.907 E55.16347
G1 X123.01 Y142.782 E55.36873
G1 F800 X123.974 Y142.555 E55.69483
G1 F800.9 X124.532 Y142.404 E55.88496
G1 F801.3 X125.543 Y142.099 E56.2321
G1 F801.8 X126.058 Y141.925 E56.41069
G1 F801.3 X127.058 Y141.554 E56.76132
G1 F800.9 X127.532 Y141.359 E56.9299
G1 F800 X128.569 Y140.9 E57.30331
G1 X128.957 Y140.712 E57.44527
G1 X130.006 Y140.169 E57.83422
G1 X130.361 Y139.969 E57.96838
G1 X131.411 Y139.338 E58.37175
G1 F800.4 X131.712 Y139.143 E58.48978
G1 X132.758 Y138.422 E58.90786
G1 F800 X133.007 Y138.237 E59.01
G1 F798.7 X134.153 Y137.337 E59.49061
G1 F799.1 X135.339 Y136.282 E60.01386
G1 F798.2 X136.533 Y135.07 E60.57532
G1 F798.7 X137.57 Y133.883 E61.09518
G1 F800 X138.509 Y132.666 E61.60132
G1 F800.9 X139.408 Y131.341 E62.12797
G1 F800.4 X140.214 Y129.978 E62.64908
G1 F800 X140.936 Y128.567 E63.17098
G1 F799.6 X141.563 Y127.135 E63.68601
G1 F800.9 X142.16 Y125.489 E64.2619
G1 F802.2 X142.599 Y123.998 E64.77227
G1 F802.7 X142.95 Y122.451 E65.29286
G1 F800.9 X143.184 Y121.031 E65.76621
G1 F801.3 X143.23 Y120.695 E65.87769
G1 X143.353 Y119.463 E66.2847
G1 F802.2 X143.38 Y119.09 E66.4075
G1 F801.3 X143.425 Y117.862 E66.81145
G1 F800 X143.429 Y117.446 E66.94843
G1 F799.6 X143.4 Y116.283 E67.33171
G1 X143.375 Y115.815 E67.48612
G1 X143.284 Y114.749 E67.8386
G1 F800 X143.221 Y114.208 E68.01794
G1 F800.4 X143.063 Y113.144 E68.37193
G1 X142.965 Y112.596 E68.55513
G1 X142.761 Y111.635 E68.87844
G1 F801.3 X142.611 Y111.019 E69.08685
G1 F801.8 X142.343 Y110.055 E69.41558
G1 X142.156 Y109.452 E69.623
G1 F801.3 X141.859 Y108.596 E69.92085
G1 F801.8 X141.609 Y107.937 E70.15241
G1 X141.26 Y107.104 E70.44914
G1 F800.9 X140.953 Y106.426 E70.69393
G1 X140.578 Y105.664 E70.97327
G1 F801.3 X140.221 Y104.989 E71.22428
G1 X139.829 Y104.305 E71.48344
G1 X139.39 Y103.586 E71.76037
G1 F800.9 X138.991 Y102.981 E71.99874
G1 X138.474 Y102.242 E72.29538
G1 X138.051 Y101.678 E72.52726
G1 F800.4 X137.483 Y100.964 E72.82751
G1 X137.078 Y100.489 E73.03294
G1 X136.429 Y99.77 E73.35169
G1 X135.968 Y99.29 E73.57071
G1 X135.255 Y98.591 E73.8993
G1 X134.856 Y98.226 E74.07727
G1 X134.042 Y97.522 E74.43144
G1 F801.3 X133.641 Y97.198 E74.60091
G1 X132.757 Y96.525 E74.96613
G1 X132.378 Y96.256 E75.11891
G1 X131.416 Y95.613 E75.49928
G1 F800.9 X131.067 Y95.397 E75.63428
G1 F800.4 X130.005 Y94.778 E76.03881
G1 F800.9 X129.669 Y94.598 E76.16418
G1 F800.4 X128.564 Y94.044 E76.57097
G1 X128.288 Y93.917 E76.67096
G1 X127.1 Y93.41 E77.09603
G1 F800.9 X126.794 Y93.29 E77.20414
G1 F797.8 X125.432 Y92.807 E77.6813
G1 F799.1 X123.79 Y92.343 E78.24377
G1 F799.6 X122.269 Y92.012 E78.7566
G1 F800 X120.718 Y91.771 E79.27344
G1 F801.8 X119.135 Y91.624 E79.79576
G1 F801.3 X117.548 Y91.575 E80.3177
G1 F799.6 X115.964 Y91.623 E80.8398
G1 X114.305 Y91.778 E81.38875
G1 F799.1 X112.812 Y92.01 E81.88681
G1 F798.2 X111.214 Y92.357 E82.42645
G1 X109.748 Y92.774 E82.92943
G1 F800.9 X109.49 Y92.857 E83.01857
G1 F800.4 X108.273 Y93.289 E83.44356
G1 X107.983 Y93.401 E83.54587
G1 F800 X106.827 Y93.895 E83.95981
G1 F799.6 X106.473 Y94.058 E84.08821
G1 F800 X105.386 Y94.604 E84.48875
G1 F800.9 X105.039 Y94.791 E84.6184
G1 F800.4 X104.015 Y95.387 E85.00831
G1 X103.635 Y95.623 E85.15552
G1 F800 X102.727 Y96.23 E85.51516
G1 F799.6 X102.29 Y96.54 E85.69168
G1 X101.439 Y97.19 E86.04448
G1 X101.013 Y97.532 E86.22446
G1 F799.1 X100.223 Y98.216 E86.56892
G1 X99.802 Y98.602 E86.7572
G1 X99.105 Y99.285 E87.07889
G1 F799.6 X98.643 Y99.763 E87.2979
G1 X98.007 Y100.468 E87.61072
G1 F799.1 X97.575 Y100.974 E87.83004
G1 F799.6 X97.032 Y101.657 E88.1175
G1 F800.9 X96.58 Y102.26 E88.36537
G1 F800.4 X96.09 Y102.96 E88.64657
G1 F800 X95.668 Y103.603 E88.89982
G1 X95.243 Y104.298 E89.16806
G1 F799.6 X94.833 Y105.015 E89.44018
G1 X94.489 Y105.664 E89.68217
G1 X94.102 Y106.452 E89.9714
G1 F800 X93.812 Y107.094 E90.20337
G1 X93.455 Y107.945 E90.50724
G1 X93.221 Y108.563 E90.72483
G1 X92.909 Y109.46 E91.03755
G1 X92.725 Y110.056 E91.24293
G1 X92.449 Y111.047 E91.58166
G1 X92.312 Y111.609 E91.77214
G1 F799.6 X92.097 Y112.619 E92.11234
G1 X92.006 Y113.13 E92.28335
G1 F800 X91.843 Y114.222 E92.6469
G1 F800.4 X91.786 Y114.721 E92.81218
G1 X91.69 Y115.829 E93.17818
G1 X91.666 Y116.271 E93.32386
G1 F799.6 X91.637 Y117.468 E93.71833
G1 X91.641 Y117.835 E93.83925
G1 F800.4 X91.69 Y119.089 E94.25225
G1 F800 X91.715 Y119.462 E94.37534
G1 F798.7 X91.84 Y120.702 E94.7864
G1 F798.2 X91.881 Y121.018 E94.89156
G1 F798.7 X92.093 Y122.314 E95.32469
G1 F799.6 X92.143 Y122.574 E95.41192
G1 F797.3 X92.495 Y124.093 E95.92705
G1 F798.7 X92.941 Y125.595 E96.44383
G1 F800.9 X93.444 Y126.982 E96.9291
G1 F801.3 X94.121 Y128.547 E97.48963
G1 F800.4 X94.838 Y129.952 E98.00873
G1 X95.631 Y131.295 E98.522
G1 F800.9 X96.575 Y132.687 E99.07519
G1 F800 X97.493 Y133.877 E99.57007
G1 X98.635 Y135.179 E100.14033
G1 X99.643 Y136.196 E100.61182
G1 F800.4 X99.838 Y136.38 E100.70006
G1 F800 X100.815 Y137.25 E101.13082
G1 X101.052 Y137.448 E101.23251
G1 F799.6 X102.04 Y138.223 E101.64621
G1 F800 X102.329 Y138.437 E101.76462
G1 X103.355 Y139.142 E102.17452
G1 F799.6 X103.674 Y139.349 E102.29981
G1 X104.697 Y139.962 E102.69272
G1 F800 X105.087 Y140.182 E102.84016
G1 X106.079 Y140.696 E103.20804
G1 F800.4 X106.525 Y140.912 E103.37113
G1 X107.519 Y141.353 E103.72899
G1 X108.002 Y141.551 E103.90078
G1 F800 X108.998 Y141.92 E104.25052
G1 X109.552 Y142.108 E104.44316
G1 X110.507 Y142.395 E104.77151
G1 F800.4 X111.12 Y142.561 E104.98051
G1 F800 X112.045 Y142.779 E105.29343
G1 F799.6 X112.696 Y142.913 E105.51241
G1 X113.59 Y143.065 E105.81117
G1 F800 X114.294 Y143.166 E106.04535
G1 X115.152 Y143.259 E106.32953
G1 F799.6 X115.904 Y143.318 E106.57804
G1 X116.716 Y143.354 E106.84582
G1 X117.544 Y143.368 E107.11865
G1 F2100 E101.11865
;MESH:motor cushion v3.stl
G0 F6000 X117.544 Y143.361
G0 X115.912 Y143.262
G0 X114.26 Y143.067
G0 X113.347 Y144.618
G0 X85.761 Y160.242
G0 X76.212 Y167.782
;TYPE:WALL-OUTER
G1 F2100 E107.11865
G1 F800.9 X75.486 Y168.226 E107.39856
G1 X74.796 Y168.621 E107.66006
G1 X74.122 Y168.977 E107.91077
G1 X73.372 Y169.346 E108.18569
G1 X72.692 Y169.654 E108.43122
G1 F800.4 X71.863 Y170.002 E108.7271
G1 X71.212 Y170.248 E108.95613
G1 X70.345 Y170.549 E109.25816
G1 F800.9 X69.735 Y170.738 E109.4682
G1 X68.778 Y171.004 E109.7949
G1 F800.4 X68.163 Y171.154 E110.00323
G1 F800 X67.202 Y171.358 E110.32671
G1 X66.654 Y171.456 E110.51002
G1 F799.6 X65.59 Y171.614 E110.8644
G1 F799.1 X65.063 Y171.675 E111.03929
G1 F799.6 X63.979 Y171.768 E111.39773
G1 F800 X63.512 Y171.793 E111.55172
G1 F799.1 X62.352 Y171.822 E111.93423
G1 X61.926 Y171.818 E112.07466
G1 F799.6 X60.707 Y171.773 E112.47654
G1 F800.4 X60.325 Y171.745 E112.60259
G1 X59.111 Y171.622 E113.00416
G1 X58.76 Y171.576 E113.12065
G1 F800 X57.499 Y171.37 E113.54138
G1 X57.212 Y171.313 E113.63772
G1 X55.878 Y171.008 E114.08831
G1 F801.8 X54.264 Y170.54 E114.64042
G1 F800 X52.663 Y169.955 E115.20168
G1 F799.6 X51.225 Y169.326 E115.71878
G1 F800 X49.84 Y168.618 E116.23096
G1 F799.6 X48.457 Y167.801 E116.76017
G1 X47.15 Y166.915 E117.28038
G1 X45.908 Y165.957 E117.79715
G1 F800 X44.628 Y164.834 E118.35784
G1 F800.9 X43.513 Y163.728 E118.87439
G1 F802.2 X42.46 Y162.545 E119.39444
G1 F800.4 X41.555 Y161.393 E119.87655
G1 X41.374 Y161.148 E119.97679
G1 X40.655 Y160.105 E120.39369
G1 X40.459 Y159.803 E120.51217
G1 X39.823 Y158.742 E120.91927
G1 X39.628 Y158.397 E121.04968
G1 F800 X39.083 Y157.345 E121.43981
G1 X38.898 Y156.962 E121.57986
G1 F800.4 X38.438 Y155.923 E121.9538
G1 F801.3 X38.244 Y155.451 E122.12155
G1 X37.874 Y154.451 E122.47206
G1 X37.696 Y153.928 E122.65367
G1 F800.9 X37.394 Y152.925 E122.99819
G1 X37.243 Y152.367 E123.18833
G1 F800.4 X37.014 Y151.393 E123.5176
G1 F800 X36.897 Y150.822 E123.70953
G1 F799.1 X36.735 Y149.881 E124.02428
G1 F799.6 X36.637 Y149.178 E124.25813
G1 F800 X36.537 Y148.258 E124.56285
G1 F799.6 X36.485 Y147.598 E124.78096
G1 F799.1 X36.444 Y146.736 E125.06544
G1 F798.7 X36.43 Y145.934 E125.33
G1 F799.6 X36.444 Y145.102 E125.60414
G1 F800.4 X36.48 Y144.296 E125.86966
G1 F800 X36.541 Y143.528 E126.12334
G1 X36.633 Y142.687 E126.40191
G1 F800.4 X36.734 Y141.981 E126.63661
G1 F800 X36.886 Y141.086 E126.93554
G1 X37.017 Y140.446 E127.15064
G1 F800.4 X37.237 Y139.512 E127.46642
G1 F800 X37.409 Y138.875 E127.68368
G1 F799.6 X37.69 Y137.945 E128.00376
G1 F800 X37.872 Y137.407 E128.19077
G1 X38.247 Y136.395 E128.54614
G1 F800.4 X38.445 Y135.912 E128.71793
G1 X38.887 Y134.916 E129.07653
G1 X39.102 Y134.472 E129.23888
G1 F800 X39.616 Y133.48 E129.60677
G1 F799.6 X39.83 Y133.099 E129.75073
G1 X40.45 Y132.067 E130.14738
G1 F800 X40.656 Y131.748 E130.27241
G1 X41.361 Y130.722 E130.68232
G1 X41.575 Y130.433 E130.80073
G1 F799.6 X42.35 Y129.445 E131.21443
G1 F800 X42.539 Y129.219 E131.31143
G1 X43.418 Y128.231 E131.74687
G1 F800.4 X43.602 Y128.036 E131.83511
G1 F800 X44.619 Y127.028 E132.3066
G1 X45.916 Y125.891 E132.87453
G1 F798.7 X47.171 Y124.924 E133.39709
