;FLAVOR:Marlin
;TIME:3897
;Filament used: 11.4901m
;Layer height: 0.52
;MINX:42.895
;MINY:50.543
;MINZ:0.4
;MAXX:188.886
;MAXY:173.205
;MAXZ:3
;Generated with Cura_SteamEngine 5.3.1
M82 ;absolute extrusion mode
; START G-CODE BEGIN

M104 S230.0 ﻿T0
M140 S60.0

G28 ; Home all axes
G92 E0 ; Reset Extruder
M420 S1 ; Load Mesh

M109 S230.0 ﻿T0
M190 S60.0

G92 E0 ; Reset Extruder

G1 X0.6 Y20 Z0.3 F5000.0 ; Move to start position
G1 X0.6 Y200.0 Z0.3 F1500.0 E15 ; Draw the first line
G1 X0.9 Y200.0 Z0.3 F5000.0 ; Move to side a little
G1 X0.9 Y20 Z0.3 F1500.0 E30 ; Draw the second line
G92 E0 ; Reset Extruder
G1 Z2.0 F3000 ; Move Z Axis up little to prevent scratching of Heat Bed
G1 X5 Y20 Z0.3 F5000.0 ; Move over to prevent blob squish

; START G-CODE END
G92 E0
G92 E0
G1 F2100 E-6
;LAYER_COUNT:6
;LAYER:0
M107
;MESH:motor spacer.stl(2)
G0 F6000 X50.807 Y58.039 Z0.4
;TYPE:WALL-INNER
G1 F2100 E0
G1 F805.4 X51.613 Y58.006 E0.26385
G1 F811.3 X52.225 Y58.027 E0.46268
G1 F789 X52.578 Y58.057 E0.58096
G0 F6000 X54.262 Y59.347
G0 X54.787 Y59.829
G0 X55.223 Y60.392
G0 X55.562 Y61.016
G0 X55.749 Y61.564
G0 X56.258 Y64.089
G1 F744.2 X56.015 Y64.75 E0.83024
G0 F6000 X57.606 Y62.982
G0 X58.135 Y62.491
G0 X58.73 Y62.087
G0 X59.377 Y61.774
G0 X60.068 Y61.56
G0 X65.002 Y61.182
G1 F889.4 X65.182 Y60.643 E0.99854
G1 X65.323 Y60.297 E1.10919
G1 X65.614 Y59.753 E1.29191
G1 X66.015 Y59.139 E1.5091
G1 X64.592 Y59.139 E1.93054
G1 F929.6 X63.981 Y59.068 E2.10484
G1 F1036.7 X62.936 Y58.978 E2.37135
G1 F1135.6 X62.381 Y58.947 E2.50029
G1 F1181.3 X61.903 Y58.93 E2.60694
G1 F1209.1 X60.902 Y58.921 E2.82504
G1 X60.374 Y58.93 E2.94009
G1 F1177.4 X59.801 Y58.951 E3.06837
G1 F1132.1 X59.342 Y58.978 E3.17536
G1 F1036 X58.282 Y59.07 E3.44591
G1 F929 X57.685 Y59.139 E3.61631
G1 F889.4 X56.262 Y59.139 E4.03775
G1 X56.663 Y59.753 E4.25494
G1 X56.954 Y60.297 E4.43766
G1 X57.094 Y60.643 E4.5482
G1 X57.275 Y61.182 E4.7166
G1 X58.007 Y60.685 E4.97864
G1 F929 X58.605 Y60.477 E5.15816
G1 F1010.5 X59.067 Y60.354 E5.28279
G1 F1079.5 X59.533 Y60.249 E5.39935
G1 F1132.1 X59.908 Y60.186 E5.48784
G1 F1177.4 X60.462 Y60.125 E5.61253
G1 F1209.1 X60.902 Y60.103 E5.70851
G1 F1218.3 X61.375 Y60.103 E5.81078
G1 F1209.1 X61.815 Y60.125 E5.90677
G1 F1181.3 X62.291 Y60.178 E6.01357
G1 F1135.6 X62.745 Y60.249 E6.12016
G1 F1079.5 X63.204 Y60.353 E6.235
G1 F1011.2 X63.66 Y60.474 E6.3579
G1 F929.6 X64.217 Y60.666 E6.52485
G1 F889.4 X64.54 Y60.861 E6.63659
G1 X65.002 Y61.182 E6.8032
G0 F6000 X66.02 Y64.092
G1 F809.4 X66.095 Y63.733 E6.92255
G1 F1022 X66.228 Y63.257 E7.04994
G1 F1200 X66.206 Y62.985 E7.10985
G1 X66.212 Y62.326 E7.25451
G1 X66.339 Y61.614 E7.41328
G1 X66.568 Y60.954 E7.56663
G1 X66.851 Y60.427 E7.69794
G1 X67.009 Y60.187 E7.76102
G1 X67.276 Y59.842 E7.85678
G1 X67.484 Y59.615 E7.92437
G1 X67.813 Y59.314 E8.02225
G1 X68.04 Y59.138 E8.08531
G1 X68.401 Y58.9 E8.18022
G1 X68.664 Y58.758 E8.24584
G1 X69.075 Y58.577 E8.34442
G1 F1125 X69.34 Y58.401 E8.41891
G1 F941.8 X69.719 Y58.131 E8.54906
G1 F818.2 X69.857 Y58.039 E8.60246
G1 X69.7 Y57.978 E8.65669
G1 F941.8 X69.267 Y57.809 E8.7867
G1 F1125 X68.897 Y57.729 E8.87534
G1 F1200 X53.374 Y57.729 E12.2829
G1 F1069 X53.013 Y57.877 E12.37904
G1 F860.2 X52.578 Y58.057 E12.5232
G1 X52.956 Y58.337 E12.66725
G1 F1069 X53.198 Y58.576 E12.75106
G1 F1200 X53.606 Y58.753 E12.84869
G1 X53.876 Y58.9 E12.91617
G1 X54.239 Y59.139 E13.01158
G1 X54.464 Y59.314 E13.07415
G1 X54.793 Y59.615 E13.17203
G1 X55.001 Y59.842 E13.23962
G1 X55.268 Y60.187 E13.33538
G1 X55.426 Y60.427 E13.39846
G1 X55.72 Y60.975 E13.53497
G1 X55.96 Y61.697 E13.70199
G1 X56.073 Y62.42 E13.86263
G1 X56.071 Y62.985 E13.98666
G1 X56.049 Y63.256 E14.04634
G1 F1021.3 X56.183 Y63.733 E14.17414
G1 F809.4 X56.258 Y64.089 E14.29254
G1 X56.544 Y63.862 E14.41136
G1 F1021.3 X56.951 Y63.575 E14.53982
G1 F1200 X57.104 Y63.35 E14.59955
G1 X57.497 Y62.867 E14.73624
G1 X58.044 Y62.363 E14.89951
G1 X58.63 Y61.962 E15.05538
G1 X59.189 Y61.683 E15.19253
G1 X59.445 Y61.583 E15.25286
G1 X60.028 Y61.404 E15.38673
G1 X60.638 Y61.312 E15.52215
G1 X60.902 Y61.294 E15.58024
G1 X61.375 Y61.294 E15.68407
G1 X61.639 Y61.312 E15.74216
G1 X62.112 Y61.383 E15.84715
G1 X62.377 Y61.443 E15.9068
G1 X62.825 Y61.581 E16.0097
G1 X63.078 Y61.68 E16.06934
G1 X63.641 Y61.953 E16.20669
G1 X64.134 Y62.29 E16.33778
G1 X64.355 Y62.468 E16.40007
G1 X64.78 Y62.868 E16.52819
G1 X65.173 Y63.35 E16.66471
G1 X65.326 Y63.576 E16.72462
G1 F1022 X65.732 Y63.862 E16.85263
G1 F809.4 X66.02 Y64.092 E16.97257
G1 F743.4 X66.261 Y64.747 E17.21987
G0 F6000 X66.367 Y62.394
G0 X66.483 Y61.693
G0 X66.715 Y61.016
G0 X67.054 Y60.392
G0 X67.49 Y59.829
G0 X67.786 Y59.557
G0 X69.857 Y58.039
G1 F805.4 X70.663 Y58.006 E17.48372
G1 F811.3 X71.275 Y58.027 E17.68255
G1 F789 X71.628 Y58.057 E17.80083
G0 F6000 X72.991 Y59.101
G0 X76.206 Y62.044
G1 F1350.8 X76.276 Y62.418 E17.87503
G1 F1269.8 X76.312 Y62.91 E17.97736
G1 F1196 X76.313 Y63.341 E18.07229
G1 F1128.5 X76.267 Y63.932 E18.21066
G1 F2100 E12.21066
G0 F6000 X75.859 Y92.183
G0 X74.844 Y96.826
G0 X74.612 Y97.503
G0 X74.273 Y98.127
G0 X73.837 Y98.69
G0 X73.413 Y99.079
G0 X71.456 Y100.396
G1 F2100 E18.21066
G1 F918.4 X71.972 Y100.542 E18.36447
G1 F1073 X72.427 Y100.597 E18.47699
G1 F1200 X72.986 Y100.514 E18.60104
G1 X73.529 Y100.377 E18.72398
G1 X74.058 Y100.19 E18.84714
G1 X74.565 Y99.949 E18.97037
G1 X75.016 Y99.679 E19.08576
G1 X75.469 Y99.342 E19.2097
G1 X75.885 Y98.965 E19.33294
G1 X76.247 Y98.566 E19.4512
G1 X76.587 Y98.108 E19.57642
G1 X76.859 Y97.654 E19.69259
G1 X77.104 Y97.135 E19.81858
G1 X77.283 Y96.633 E19.93557
G1 X77.423 Y96.072 E20.0625
G1 X77.499 Y95.559 E20.17634
G1 X77.531 Y94.928 E20.31503
G1 X77.531 Y63.423 E27.23091
G1 X77.499 Y62.793 E27.36939
G1 X77.422 Y62.272 E27.485
G1 X77.265 Y61.667 E27.6222
G1 F997.9 X76.892 Y61.346 E27.7521
G1 F865.9 X76.665 Y60.802 E27.93143
G1 F890.5 X76.423 Y60.353 E28.0823
G1 F919 X76.116 Y59.894 E28.24059
G1 F952.4 X75.803 Y59.507 E28.37826
G1 F989 X75.398 Y59.095 E28.53214
G1 F1009.1 X74.96 Y58.771 E28.67436
G1 X74.512 Y58.504 E28.8105
G1 X73.999 Y58.26 E28.95879
G1 X73.507 Y58.084 E29.09519
G1 X72.968 Y57.95 E29.24018
G1 X72.432 Y57.874 E29.3815
G1 F907.9 X71.829 Y58.002 E29.56034
G1 F800.4 X71.628 Y58.057 E29.62892
G1 F829 X72.022 Y58.277 E29.77231
G1 F944.9 X72.293 Y58.471 E29.86522
G1 F1009.1 X72.737 Y58.666 E29.99181
G1 X72.988 Y58.806 E30.06684
G1 X73.444 Y59.105 E30.20918
G1 X73.919 Y59.531 E30.37573
G1 X74.101 Y59.723 E30.44479
G1 F989 X74.602 Y60.362 E30.66106
G1 F951.1 X74.873 Y60.793 E30.80207
G1 F918.4 X74.997 Y61.035 E30.88006
G1 F891.6 X75.276 Y61.74 E31.10406
G1 F941.8 X75.187 Y61.984 E31.17671
G1 F1100.1 X75.097 Y62.228 E31.23898
G1 F1200 X75.118 Y62.398 E31.27658
G1 X75.122 Y63.122 E31.43552
G1 X75.022 Y63.714 E31.56731
G1 F1201 X74.952 Y63.984 E31.62849
G1 X74.811 Y64.401 E31.72504
G1 F1200 X74.688 Y64.68 E31.79197
G1 X74.475 Y65.072 E31.8899
G1 X74.318 Y65.312 E31.95286
G1 X74.051 Y65.657 E32.04862
G1 X73.843 Y65.884 E32.11621
G1 X73.513 Y66.185 E32.21426
G1 X73.288 Y66.36 E32.27683
G1 X72.925 Y66.599 E32.37224
G1 X72.655 Y66.746 E32.43972
G1 X72.247 Y66.923 E32.53735
G1 X71.971 Y67.018 E32.60142
G1 X71.55 Y67.125 E32.69678
G1 X71.278 Y67.172 E32.75737
G1 X70.809 Y67.211 E32.86068
G1 X70.517 Y67.211 E32.92478
G1 X70.074 Y67.175 E33.02235
G1 X69.778 Y67.126 E33.08821
G1 X69.359 Y67.02 E33.18308
G1 X69.075 Y66.922 E33.24903
G1 X68.664 Y66.741 E33.34762
G1 X68.401 Y66.599 E33.41323
G1 X68.04 Y66.361 E33.50814
G1 X67.813 Y66.185 E33.5712
G1 X67.398 Y65.806 E33.69457
G1 X67.001 Y65.302 E33.83541
G1 F1105.1 X66.762 Y65.124 E33.90644
G1 F892.7 X66.366 Y64.83 E34.05197
G1 F767.2 X66.261 Y64.747 E34.09792
G1 X66.235 Y64.878 E34.14378
G1 F892.7 X66.135 Y65.361 E34.28932
G1 F1105.1 X66.074 Y65.654 E34.36066
G1 F1200 X66.109 Y66.125 E34.46434
G1 X66.113 Y92.261 E40.20163
G1 X66.075 Y92.866 E40.3347
G1 F1064.3 X66.181 Y93.172 E40.41485
G1 F889.4 X66.238 Y93.426 E40.49195
G1 F781.3 X66.295 Y93.681 E40.58004
G1 X66.506 Y93.528 E40.66791
G1 F889.4 X66.717 Y93.374 E40.74528
G1 F1064.3 X67.001 Y93.217 E40.82559
G1 F1200 X67.401 Y92.711 E40.96718
G1 X67.813 Y92.334 E41.08977
G1 X68.04 Y92.158 E41.15283
G1 X68.401 Y91.92 E41.24775
G1 X68.664 Y91.778 E41.31336
G1 X69.075 Y91.597 E41.41194
G1 X69.36 Y91.499 E41.4781
G1 X69.78 Y91.393 E41.57318
G1 X70.074 Y91.344 E41.63861
G1 X70.516 Y91.308 E41.73596
G1 X70.81 Y91.308 E41.8005
G1 X71.277 Y91.347 E41.90337
G1 X71.548 Y91.394 E41.96375
G1 X71.97 Y91.501 E42.05931
G1 X72.247 Y91.596 E42.1236
G1 X72.655 Y91.773 E42.22122
G1 X72.925 Y91.92 E42.28871
G1 X73.288 Y92.159 E42.38411
G1 X73.513 Y92.334 E42.44669
G1 X73.843 Y92.635 E42.54474
G1 X74.051 Y92.862 E42.61232
G1 X74.318 Y93.207 E42.70809
G1 X74.475 Y93.447 E42.77104
G1 X74.688 Y93.839 E42.86897
G1 X74.811 Y94.118 E42.93591
G1 F1201 X74.952 Y94.535 E43.03246
G1 X75.025 Y94.82 E43.09698
G1 F1200 X75.121 Y95.389 E43.22365
G1 X75.122 Y96.12 E43.38412
G1 X75.005 Y96.842 E43.54468
G1 X74.77 Y97.542 E43.70677
G1 X74.413 Y98.207 E43.87245
G1 X74.051 Y98.678 E44.00286
G1 X73.843 Y98.904 E44.07028
G1 X73.396 Y99.311 E44.20299
G1 X72.801 Y99.7 E44.35904
G1 X72.247 Y99.944 E44.49192
G1 F1092.6 X71.797 Y100.203 E44.6171
G1 F932.6 X71.456 Y100.396 E44.72777
G1 F889.4 X70.663 Y100.429 E44.96284
G1 F896.1 X70.057 Y100.408 E45.14109
G1 F869.6 X69.719 Y100.38 E45.24383
G0 F6000 X65.97 Y99.247
G1 F929.6 X65.645 Y98.749 E45.41234
G1 X65.317 Y98.146 E45.60684
G1 X65.015 Y97.285 E45.86539
G1 X64.517 Y97.632 E46.03738
G1 X64.252 Y97.793 E46.12524
G1 F980.3 X63.633 Y98.007 E46.30124
G1 F1077.8 X63.184 Y98.126 E46.41477
G1 F1153.8 X62.728 Y98.229 E46.52149
G1 F1213.1 X62.361 Y98.29 E46.60228
G1 F1264.3 X61.828 Y98.352 E46.71408
G1 F1299.6 X61.378 Y98.375 E46.80541
G1 F1311.5 X60.899 Y98.375 E46.90162
G1 F1299.6 X60.45 Y98.352 E46.99274
G1 F1267.6 X59.984 Y98.298 E47.09023
G1 F1218.3 X59.56 Y98.231 E47.18305
G1 F1154.8 X59.087 Y98.124 E47.29367
G1 F1076.2 X58.622 Y98.001 E47.4114
G1 F978.9 X57.988 Y97.781 E47.59198
G1 F929.6 X57.259 Y97.289 E47.8412
G1 X57.061 Y97.867 E48.01432
G1 X56.925 Y98.211 E48.11914
G1 X56.632 Y98.749 E48.29273
G1 X56.307 Y99.247 E48.46123
G1 X57.653 Y99.248 E48.84263
G1 F978.9 X58.319 Y99.325 E49.02304
G1 F1076.2 X58.9 Y99.38 E49.16589
G1 F1182.3 X59.897 Y99.445 E49.3885
G1 F1267.6 X60.366 Y99.463 E49.48603
G1 F1299.6 X61.378 Y99.473 E49.69116
G1 X61.913 Y99.463 E49.79962
G1 F1264.3 X62.461 Y99.442 E49.91388
G1 F1178.4 X63.372 Y99.381 E50.11799
G1 F1077.8 X63.934 Y99.328 E50.25594
G1 F980.3 X64.624 Y99.248 E50.44261
G1 F929.6 X65.97 Y99.247 E50.82401
G0 F6000 X69.719 Y100.38
G1 F927.8 X69.332 Y100.145 E50.95255
G1 F1098.4 X69.074 Y99.943 E51.03114
G1 F1199 X68.664 Y99.761 E51.12969
G1 F1200 X68.401 Y99.619 E51.1953
G1 X68.041 Y99.381 E51.29003
G1 X67.813 Y99.204 E51.3534
G1 X67.484 Y98.904 E51.45113
G1 X67.276 Y98.677 E51.51872
G1 X67.009 Y98.332 E51.61448
G1 X66.851 Y98.092 E51.67756
G1 X66.561 Y97.548 E51.81289
G1 X66.332 Y96.866 E51.97081
G1 X66.212 Y96.19 E52.12152
G1 X66.206 Y95.534 E52.26553
G1 F1141 X66.167 Y95.252 E52.33125
G1 F935.7 X66.028 Y94.775 E52.47113
G1 F776.7 X65.974 Y94.554 E52.54829
G1 X65.792 Y94.691 E52.62555
G1 F935.7 X65.38 Y94.974 E52.76627
G1 F1141 X65.173 Y95.169 E52.83192
G1 F1200 X64.781 Y95.652 E52.96847
G1 X64.234 Y96.155 E53.1316
G1 X63.633 Y96.568 E53.29167
G1 X63.073 Y96.84 E53.42834
G1 X62.821 Y96.939 E53.48777
G1 X62.252 Y97.113 E53.61838
G1 X61.652 Y97.206 E53.75167
G1 X61.378 Y97.226 E53.81197
G1 X60.899 Y97.226 E53.91712
G1 X60.626 Y97.206 E53.97721
G1 X60.163 Y97.135 E54.08004
G1 X59.911 Y97.078 E54.13675
G1 X59.448 Y96.937 E54.243
G1 X59.188 Y96.835 E54.30431
G1 X58.633 Y96.564 E54.43989
G1 X58 Y96.125 E54.60899
G1 X57.462 Y95.618 E54.77127
G1 X57.105 Y95.168 E54.89736
G1 F1136.5 X56.887 Y94.966 E54.96624
G1 F932.6 X56.485 Y94.691 E55.10381
G1 F776.7 X56.303 Y94.555 E55.18087
G1 X56.249 Y94.775 E55.25769
G1 F935.7 X56.11 Y95.253 E55.39784
G1 F1141 X56.071 Y95.534 E55.46333
G1 F1200 X56.072 Y96.101 E55.5878
G1 X55.96 Y96.819 E55.74732
G1 X55.725 Y97.532 E55.91212
G1 X55.426 Y98.092 E56.05147
G1 X55.268 Y98.332 E56.11455
G1 X55.001 Y98.677 E56.21031
G1 X54.793 Y98.904 E56.2779
G1 X54.464 Y99.204 E56.37563
G1 X54.238 Y99.38 E56.43851
G1 X53.876 Y99.619 E56.53374
G1 X53.606 Y99.766 E56.60122
G1 X53.197 Y99.944 E56.69914
G1 F1143.8 X52.935 Y100.096 E56.7689
G1 F1027.8 X52.671 Y100.246 E56.84672
G1 F918.4 X52.406 Y100.396 E56.93406
G1 X52.699 Y100.479 E57.02141
G1 F1027.8 X52.993 Y100.562 E57.0997
G1 F1143.8 X53.338 Y100.622 E57.18035
G1 F1199 X68.932 Y100.621 E60.60635
G1 F1098.4 X69.287 Y100.513 E60.69534
G1 F927.8 X69.719 Y100.38 E60.82367
G0 F6000 X68.015 Y99.172
G0 X67.49 Y98.69
G0 X67.054 Y98.127
G0 X66.715 Y97.503
G0 X66.585 Y97.12
G0 X65.974 Y94.554
G1 F736.6 X66.295 Y93.681 E61.15632
G0 F6000 X68.015 Y92.367
G0 X68.611 Y91.977
G0 X69.264 Y91.692
G0 X69.955 Y91.516
G0 X70.663 Y91.458
G0 X71.371 Y91.516
G0 X72.062 Y91.691
G0 X72.716 Y91.977
G0 X76.269 Y94.614
G1 F1121.5 X76.309 Y94.107 E61.27577
G1 F1178.4 X76.331 Y93.667 E61.37426
G1 F1200 X76.331 Y64.852 E67.69963
G1 F1175.5 X76.306 Y64.412 E67.79839
G1 F1117.1 X76.267 Y63.932 E67.91195
G1 X76.112 Y64.38 E68.02373
G1 F1175.5 X75.946 Y64.789 E68.12264
G1 F1200 X75.742 Y65.254 E68.23411
G1 X75.529 Y65.646 E68.33204
G1 X75.268 Y66.047 E68.43707
G1 X74.999 Y66.391 E68.53293
G1 X74.653 Y66.769 E68.64542
G1 X74.323 Y67.07 E68.74347
G1 X73.948 Y67.362 E68.8478
G1 X73.585 Y67.601 E68.94321
G1 X73.135 Y67.846 E69.05568
G1 X72.727 Y68.023 E69.15331
G1 X72.266 Y68.181 E69.26029
G1 X71.846 Y68.288 E69.35543
G1 X71.393 Y68.367 E69.45637
G1 X70.907 Y68.407 E69.56342
G1 X70.419 Y68.407 E69.67054
G1 X69.976 Y68.371 E69.76811
G1 X69.484 Y68.289 E69.8776
G1 X69.065 Y68.183 E69.97248
G1 X68.592 Y68.021 E70.08223
G1 X68.181 Y67.84 E70.18081
G1 X67.743 Y67.602 E70.29024
G1 X67.314 Y67.32 E70.40293
G1 X67.314 Y91.199 E75.64478
G1 X67.743 Y90.917 E75.75748
G1 X68.181 Y90.679 E75.8669
G1 X68.592 Y90.498 E75.96548
G1 X69.066 Y90.336 E76.07544
G1 X69.486 Y90.23 E76.17053
G1 X69.977 Y90.148 E76.27981
G1 X70.419 Y90.112 E76.37716
G1 X70.907 Y90.112 E76.48428
G1 X71.392 Y90.152 E76.59111
G1 X71.843 Y90.23 E76.69158
G1 X72.265 Y90.337 E76.78715
G1 X72.727 Y90.496 E76.8944
G1 X73.135 Y90.673 E76.99203
G1 X73.585 Y90.918 E77.1045
G1 X73.948 Y91.157 E77.19991
G1 X74.323 Y91.449 E77.30424
G1 X74.653 Y91.75 E77.40229
G1 X74.999 Y92.128 E77.51478
G1 X75.268 Y92.472 E77.61064
G1 X75.529 Y92.873 E77.71567
G1 X75.742 Y93.265 E77.8136
G1 X75.946 Y93.73 E77.92507
G1 F1178.4 X76.109 Y94.14 E78.0237
G1 F1121.5 X76.269 Y94.614 E78.1412
G1 F1123.2 X76.302 Y95.053 E78.24445
G1 F1189.1 X76.312 Y95.443 E78.33087
G1 F1250 X76.283 Y95.847 E78.41623
G0 F6000 X73.837 Y92.849
G0 X73.312 Y92.367
G0 X72.716 Y91.977
G0 X72.062 Y91.691
G0 X71.371 Y91.516
G0 X70.663 Y91.458
G0 X69.955 Y91.516
G0 X69.264 Y91.692
G0 X68.611 Y91.977
G0 X68.015 Y92.367
G0 X64.142 Y96.028
G0 X63.547 Y96.433
G0 X62.898 Y96.745
G0 X62.211 Y96.957
G0 X61.499 Y97.065
G0 X60.778 Y97.065
G0 X60.067 Y96.957
G0 X59.377 Y96.745
G0 X58.73 Y96.432
G0 X56.303 Y94.555
G1 F736.6 X55.979 Y93.675 E78.7516
G0 F6000 X55.91 Y96.125
G0 X55.794 Y96.826
G0 X55.562 Y97.503
G0 X55.223 Y98.127
G0 X54.787 Y98.69
G0 X54.363 Y99.079
G0 X52.406 Y100.396
G1 F889.4 X51.613 Y100.429 E78.98666
G1 F896.1 X51.007 Y100.408 E79.16491
G1 F869.6 X50.669 Y100.38 E79.26765
G0 F6000 X48.965 Y99.172
G0 X48.669 Y98.9
G0 X45.995 Y95.857
G1 F1250 X45.966 Y95.441 E79.35553
G1 F1188.1 X45.975 Y95.053 E79.44158
G1 F1123.2 X46.008 Y94.614 E79.54482
G0 F6000 X48.004 Y98.127
G0 X48.44 Y98.69
G0 X48.736 Y98.962
G0 X50.669 Y100.38
G1 F927.8 X50.282 Y100.147 E79.67307
G1 F1096.7 X50.024 Y99.945 E79.75178
G1 F1197 X49.463 Y99.692 E79.88721
G1 F1200 X48.871 Y99.302 E80.04283
G1 X48.434 Y98.904 E80.17258
G1 X48.226 Y98.678 E80.24
G1 X47.864 Y98.207 E80.3704
G1 X47.505 Y97.541 E80.53649
G1 X47.272 Y96.843 E80.69802
G1 X47.156 Y96.121 E80.85855
G1 X47.156 Y95.389 E81.01923
G1 X47.252 Y94.82 E81.1459
G1 F1201 X47.325 Y94.534 E81.21064
G1 X47.466 Y94.118 E81.30699
