;FLAVOR:Marlin
;TIME:10872
;Filament used: 38.2785m
;Layer height: 0.52
;MINX:48.42
;MINY:43.741
;MINZ:0.4
;MAXX:174.094
;MAXY:154.474
;MAXZ:50.84
;Generated with Cura_SteamEngine 5.3.1
M82 ;absolute extrusion mode
; START G-CODE BEGIN

M104 S230.0 ﻿T0
M140 S60.0

G28 ; Home all axes
G92 E0 ; Reset Extruder
M420 S1 ; Load Mesh

M109 S230.0 ﻿T0
M190 S60.0

G92 E0 ; Reset Extruder

G1 X0.6 Y20 Z0.3 F5000.0 ; Move to start position
G1 X0.6 Y200.0 Z0.3 F1500.0 E15 ; Draw the first line
G1 X0.9 Y200.0 Z0.3 F5000.0 ; Move to side a little
G1 X0.9 Y20 Z0.3 F1500.0 E30 ; Draw the second line
G92 E0 ; Reset Extruder
G1 Z2.0 F3000 ; Move Z Axis up little to prevent scratching of Heat Bed
G1 X5 Y20 Z0.3 F5000.0 ; Move over to prevent blob squish

; START G-CODE END
G92 E0
G92 E0
G1 F2100 E-6
;LAYER_COUNT:98
;LAYER:0
M107
;MESH:motor spacer.stl(2)
G0 F6000 X49.734 Y55.865 Z0.4
;TYPE:WALL-INNER
G1 F2100 E0
G1 F1400.8 X49.734 Y58.831 E0.55776
G1 F1382 X49.745 Y59.129 E0.61461
G0 F6000 X49.814 Y59.775
G0 X57.544 Y64.24
G0 X65.274 Y59.775
G0 X65.343 Y59.129
G1 F1384.6 X65.355 Y58.831 E0.67135
G1 F1400.8 X65.355 Y55.864 E1.2293
G0 F6000 X65.291 Y59.031
G0 X64.069 Y80.327
G1 F1200 X64.069 Y62.048 E5.24185
G1 X59.045 Y64.951 E6.51558
G1 X58.706 Y65.12 E6.59873
G1 X58.376 Y65.236 E6.67551
G1 X58.063 Y65.309 E6.74606
G1 X57.77 Y65.345 E6.81087
G1 X57.318 Y65.345 E6.91009
G1 X57.025 Y65.308 E6.97492
G1 X56.712 Y65.236 E7.04542
G1 X56.382 Y65.12 E7.12221
G1 X56.043 Y64.951 E7.20536
G1 X51.02 Y62.049 E8.47879
G1 X51.02 Y80.326 E12.4909
G1 X56.043 Y77.425 E13.76421
G1 X56.382 Y77.256 E13.84736
G1 X56.712 Y77.14 E13.92415
G1 X57.025 Y77.068 E13.99465
G1 X57.318 Y77.031 E14.05948
G1 X57.77 Y77.031 E14.1587
G1 X58.063 Y77.067 E14.22351
G1 X58.376 Y77.14 E14.29406
G1 X58.706 Y77.256 E14.37084
G1 X59.045 Y77.425 E14.454
G1 X64.069 Y80.327 E15.72761
G0 F6000 X65.274 Y82.599
G0 X65.355 Y83.544
G1 F1292.6 X65.269 Y82.554 E15.93012
G1 F1200 X65.269 Y60.81 E20.70329
G1 F1209.1 X65.278 Y59.82 E20.919
G1 F1289.2 X65.343 Y59.129 E21.06081
G1 X65.158 Y59.786 E21.20028
G1 F1209.1 X64.54 Y60.39 E21.38855
G1 F1200 X58.445 Y63.912 E22.93382
G1 X58.044 Y64.083 E23.02952
G1 X57.68 Y64.148 E23.11069
G1 X57.408 Y64.149 E23.1704
G1 X57.044 Y64.083 E23.2516
G1 X56.643 Y63.912 E23.3473
G1 X50.547 Y60.39 E24.89276
G1 F1209.1 X49.931 Y59.785 E25.08088
G1 F1286.9 X49.745 Y59.129 E25.22045
G1 X49.809 Y59.82 E25.3625
G1 F1209.1 X49.82 Y60.81 E25.57821
G1 F1200 X49.818 Y82.554 E30.35139
G1 F1292.6 X49.734 Y83.544 E30.55386
G1 X49.924 Y82.584 E30.75329
G1 F1200 X50.547 Y81.985 E30.943
G1 X56.643 Y78.464 E32.48836
G1 X57.045 Y78.293 E32.58425
G1 X57.408 Y78.227 E32.66524
G1 X57.68 Y78.228 E32.72495
G1 X58.043 Y78.293 E32.80591
G1 X58.31 Y78.386 E32.86797
G1 X64.54 Y81.985 E34.44736
G1 X65.166 Y82.583 E34.6374
G1 F1292.6 X65.355 Y83.544 E34.83699
G1 F1400.8 X65.355 Y86.502 E35.39325
G0 F6000 X65.274 Y82.599
G0 X57.544 Y78.137
G0 X49.814 Y82.599
G0 X49.734 Y86.51
G1 F1400.8 X49.734 Y83.544 E35.95101
G1 F2100 E29.95101
G0 F6000 X49.814 Y82.599
G0 X57.544 Y78.137
G0 X65.274 Y82.599
G0 X65.251 Y88.811
G0 X64.463 Y89.906
;TYPE:WALL-OUTER
G1 F2100 E35.95101
G1 F874.8 X65.374 Y89.906 E36.22532
G1 X65.677 Y89.772 E36.32508
G1 X65.895 Y89.515 E36.42655
G1 X66.098 Y88.653 E36.6932
G1 F862.3 X66.182 Y87.871 E36.93347
G1 F847.1 X66.201 Y87.341 E37.0984
G1 F890 X66.302 Y87.06 E37.18678
G1 F940.6 X66.304 Y87.018 E37.19856
G1 F1054.9 X66.469 Y86.502 E37.33383
G1 F1200 X66.469 Y55.864 E44.05939
G1 F1059.6 X66.31 Y55.366 E44.18935
G1 F948 X66.309 Y55.324 E44.20102
G1 F892.2 X66.201 Y55.027 E44.29433
G1 F845.6 X66.183 Y54.515 E44.45393
G1 F861.8 X66.097 Y53.717 E44.69928
G1 F874.8 X65.897 Y52.861 E44.96396
G1 X65.677 Y52.603 E45.06606
G1 X65.371 Y52.471 E45.1664
G1 X64.464 Y52.47 E45.4395
G1 X64.464 Y53.867 E45.86014
G1 F861.8 X64.488 Y54.593 E46.08219
G1 F845.6 X64.494 Y55.065 E46.22924
G1 F892.2 X64.4 Y55.366 E46.32234
G1 F1059.6 X64.241 Y55.864 E46.45231
G1 F1200 X64.241 Y58.914 E47.12183
G1 X64.149 Y59.151 E47.17764
G1 X63.94 Y59.351 E47.24114
G1 X57.777 Y62.907 E48.80307
G1 X57.498 Y62.952 E48.86511
G1 X57.311 Y62.907 E48.90733
G1 X51.147 Y59.351 E50.46945
G1 X50.94 Y59.151 E50.53264
G1 X50.848 Y58.914 E50.58845
G1 X50.848 Y55.865 E51.25775
G1 F1057.3 X50.686 Y55.359 E51.39013
G1 F891.1 X50.595 Y55.066 E51.48082
G1 F846.6 X50.6 Y54.579 E51.63237
G1 F861.8 X50.625 Y53.874 E51.84801
G1 F874.3 X50.625 Y52.469 E52.27132
G1 X49.709 Y52.469 E52.54729
G1 X49.412 Y52.604 E52.64559
G1 X49.194 Y52.859 E52.74666
G1 X48.991 Y53.722 E53.01377
G1 F861.8 X48.907 Y54.501 E53.25327
G1 F846.6 X48.888 Y55.026 E53.41674
G1 F891.1 X48.783 Y55.316 E53.50792
G1 F944.3 X48.782 Y55.359 E53.51992
G1 F1057.3 X48.62 Y55.865 E53.65229
G1 F1200 X48.62 Y86.51 E60.37939
G1 F1058.8 X48.78 Y87.009 E60.50976
G1 F947.4 X48.78 Y87.051 E60.52143
G1 F892.2 X48.887 Y87.347 E60.61436
G1 F846.1 X48.905 Y87.854 E60.77232
G1 F861.8 X48.992 Y88.66 E61.02012
G1 F874.8 X49.164 Y89.396 E61.24771
G1 X49.308 Y89.672 E61.34144
G1 X49.523 Y89.837 E61.42305
G1 X49.84 Y89.905 E61.52067
G1 X50.625 Y89.906 E61.75703
G1 X50.625 Y88.51 E62.17738
G1 F861.8 X50.6 Y87.776 E62.40187
G1 F846.1 X50.594 Y87.309 E62.54728
G1 F892.2 X50.688 Y87.009 E62.64011
G1 F1058.8 X50.848 Y86.51 E62.77048
G1 F1200 X50.848 Y83.544 E63.42156
G1 X50.94 Y83.224 E63.49465
G1 X51.147 Y83.024 E63.55784
G1 X57.311 Y79.469 E65.11985
G1 X57.498 Y79.424 E65.16207
G1 X57.777 Y79.469 E65.22411
G1 X63.94 Y83.024 E66.78593
G1 X64.149 Y83.223 E66.84928
G1 X64.241 Y83.544 E66.92258
G1 X64.241 Y86.502 E67.57191
G1 F1054.9 X64.406 Y87.018 E67.70719
G1 F890 X64.494 Y87.301 E67.7949
G1 F847.1 X64.488 Y87.793 E67.94792
G1 F862.3 X64.464 Y88.502 E68.16464
G1 F874.8 X64.463 Y89.906 E68.58739
G0 F6000 X65.251 Y88.811
G0 X65.274 Y82.599
G0 X63.665 Y78.414
G0 X62.965 Y78.414
;TYPE:SKIN
G1 F1200 X59.612 Y76.476 E69.43753
G1 X59.099 Y76.224 E69.563
G1 X58.716 Y76.09 E69.65207
G1 X58.22 Y75.975 E69.76384
G1 X57.861 Y75.931 E69.84323
G1 X57.564 Y75.92 E69.90847
G1 X57.201 Y75.933 E69.98821
G1 X56.802 Y75.987 E70.0766
G1 X56.446 Y76.068 E70.15674
G1 X55.916 Y76.256 E70.28019
G1 X55.51 Y76.458 E70.37973
G1 X52.125 Y78.413 E71.23782
G1 X52.125 Y63.964 E74.40962
G1 X55.509 Y65.918 E75.26741
G1 X55.915 Y66.12 E75.36696
G1 X56.445 Y66.308 E75.49041
G1 X56.801 Y66.389 E75.57055
G1 X57.233 Y66.446 E75.6662
G1 X57.521 Y66.456 E75.72946
G1 X57.861 Y66.445 E75.80414
G1 X58.22 Y66.401 E75.88353
G1 X58.651 Y66.305 E75.98047
G1 X59.106 Y66.148 E76.08612
G1 X59.605 Y65.903 E76.20815
G1 X62.965 Y63.961 E77.06007
G1 X62.965 Y78.414 E80.23274
G0 F6000 X63.665 Y78.414
G0 X63.599 Y79.362
G0 X57.544 Y78.137
G0 X53.938 Y78.174
G0 X53.288 Y77.047
G1 F1200 X52.724 Y76.483 E80.40783
G0 F6000 X51.424 Y76.483
G0 X51.49 Y79.361
G0 X55.014 Y77.552
G0 X54.363 Y76.425
G1 F1200 X52.724 Y74.786 E80.91665
G0 F6000 X51.424 Y74.786
G0 X51.424 Y73.089
G0 X52.724 Y73.089
G1 F1200 X55.452 Y75.816 E81.76339
G0 F6000 X56.029 Y76.981
G0 X56.96 Y76.669
G0 X56.725 Y75.393
G1 F1200 X52.724 Y71.392 E83.00547
G0 F6000 X51.424 Y71.392
G0 X51.424 Y69.695
G0 X52.724 Y69.695
G1 F1200 X58.433 Y75.403 E84.77764
G0 F6000 X58.14 Y76.671
G0 X61.083 Y78.135
G0 X61.735 Y77.008
G1 F1200 X52.724 Y67.998 E87.57489
G0 F6000 X51.424 Y67.998
G0 X51.424 Y66.301
G0 X52.724 Y66.301
G1 F1200 X62.365 Y75.941 E90.56773
G0 F6000 X63.665 Y75.941
G0 X63.665 Y74.244
G0 X62.365 Y74.244
G1 F1200 X53.669 Y65.548 E93.26735
G0 F6000 X54.32 Y64.424
G0 X56.975 Y65.709
G0 X56.811 Y66.994
G1 F1200 X62.365 Y72.547 E94.99139
G0 F6000 X63.665 Y72.547
G0 X63.665 Y70.85
G0 X62.365 Y70.85
G1 F1200 X58.472 Y66.957 E96.19995
G0 F6000 X58.181 Y65.695
G0 X59.145 Y65.351
G0 X59.725 Y66.513
G1 F1200 X62.365 Y69.153 E97.01952
G0 F6000 X63.665 Y69.153
G0 X63.665 Y67.456
G0 X62.365 Y67.456
G1 F1200 X60.809 Y65.9 E97.50257
G0 F6000 X60.159 Y64.774
G0 X61.234 Y64.153
G0 X61.883 Y65.277
G1 F1200 X62.365 Y65.759 E97.65221
G0 F6000 X64.269 Y65.759
G1 F2100 E91.65221
;MESH:motor spacer.stl
G0 F6000 X66.249 Y58.51
G0 X67.734 Y58.51
G0 X74.029 Y58.51
G0 X75.514 Y58.51
G0 X76.42 Y58.51
;TYPE:WALL-INNER
G1 F2100 E97.65221
G1 F1382 X76.409 Y58.212 E97.70905
G1 F1400.8 X76.409 Y55.246 E98.26681
G0 F6000 X76.489 Y59.156
G0 X84.219 Y63.621
G0 X91.949 Y59.156
G0 X92.03 Y55.245
G1 F1400.8 X92.03 Y58.212 E98.82477
G1 F1384.6 X92.018 Y58.51 E98.88151
G0 F6000 X90.744 Y79.708
G1 F1200 X90.744 Y61.429 E102.89406
G1 X85.72 Y64.332 E104.16778
G1 X85.381 Y64.501 E104.25093
G1 X85.051 Y64.617 E104.32772
G1 X84.738 Y64.69 E104.39827
G1 X84.445 Y64.726 E104.46307
G1 X83.993 Y64.726 E104.5623
G1 X83.7 Y64.689 E104.62713
G1 X83.387 Y64.617 E104.69763
G1 X83.057 Y64.501 E104.77441
G1 X82.718 Y64.332 E104.85757
G1 X77.695 Y61.43 E106.13099
G1 X77.695 Y79.707 E110.1431
G1 X82.718 Y76.806 E111.41642
G1 X83.057 Y76.637 E111.49957
G1 X83.387 Y76.521 E111.57636
G1 X83.7 Y76.449 E111.64686
G1 X83.993 Y76.412 E111.71169
G1 X84.445 Y76.412 E111.81091
G1 X84.738 Y76.448 E111.87571
G1 X85.051 Y76.521 E111.94627
G1 X85.381 Y76.637 E112.02305
G1 X85.72 Y76.806 E112.1062
G1 X90.744 Y79.708 E113.37982
G0 F6000 X91.949 Y81.98
G0 X92.03 Y82.925
G1 F1292.6 X91.944 Y81.935 E113.58233
G1 F1200 X91.944 Y60.191 E118.3555
G1 F1209.1 X91.953 Y59.201 E118.5712
G1 F1289.2 X92.018 Y58.51 E118.71302
G1 X91.833 Y59.167 E118.85249
G1 F1209.1 X91.215 Y59.771 E119.04076
G1 F1200 X85.12 Y63.293 E120.58603
G1 X84.719 Y63.464 E120.68173
G1 X84.355 Y63.529 E120.7629
G1 X84.083 Y63.53 E120.82261
G1 X83.719 Y63.464 E120.90381
G1 X83.318 Y63.293 E120.99951
G1 X77.222 Y59.771 E122.54497
G1 F1209.1 X76.606 Y59.166 E122.73308
G1 F1286.9 X76.42 Y58.51 E122.87266
G1 X76.484 Y59.201 E123.01471
G1 F1209.1 X76.495 Y60.191 E123.23042
G1 F1200 X76.493 Y81.935 E128.00359
G1 F1292.6 X76.409 Y82.925 E128.20606
G1 X76.599 Y81.965 E128.40549
G1 F1200 X77.222 Y81.366 E128.59521
G1 X83.318 Y77.845 E130.14056
G1 X83.72 Y77.674 E130.23646
G1 X84.083 Y77.608 E130.31745
G1 X84.355 Y77.609 E130.37716
G1 X84.718 Y77.674 E130.45811
G1 X84.985 Y77.767 E130.52018
G1 X91.215 Y81.366 E132.09957
G1 X91.841 Y81.964 E132.28961
G1 F1292.6 X92.03 Y82.925 E132.4892
G1 F1400.8 X92.03 Y85.882 E133.04527
G0 F6000 X91.949 Y81.98
G0 X84.219 Y77.518
G0 X76.489 Y81.98
G0 X76.409 Y85.892
G1 F1400.8 X76.409 Y82.925 E133.60322
G1 F2100 E127.60322
G0 F6000 X76.489 Y81.98
G0 X84.219 Y77.518
G0 X91.949 Y81.98
G0 X91.925 Y88.193
G0 X91.139 Y89.286
;TYPE:WALL-OUTER
G1 F2100 E133.60322
G1 F874.8 X92.059 Y89.286 E133.88024
G1 X92.349 Y89.154 E133.97618
G1 X92.57 Y88.901 E134.07733
G1 X92.771 Y88.04 E134.34355
G1 F862.3 X92.857 Y87.25 E134.58632
G1 F847.1 X92.876 Y86.721 E134.75093
G1 F890 X92.976 Y86.441 E134.83893
G1 F939.9 X92.978 Y86.399 E134.85072
G1 F1054.2 X93.144 Y85.882 E134.9864
G1 F1200 X93.144 Y55.245 E141.71174
G1 F1059.6 X92.985 Y54.747 E141.8417
G1 F948 X92.984 Y54.705 E141.85338
G1 F892.2 X92.876 Y54.408 E141.94668
G1 F845.6 X92.858 Y53.897 E142.10598
G1 F861.8 X92.77 Y53.09 E142.35412
G1 F874.8 X92.57 Y52.238 E142.61763
G1 X92.355 Y51.989 E142.71669
G1 X92.059 Y51.852 E142.8149
G1 X91.138 Y51.852 E143.09222
G1 X91.138 Y53.241 E143.51045
G1 F861.8 X91.163 Y53.975 E143.73495
G1 F845.6 X91.169 Y54.446 E143.88169
G1 F892.2 X91.075 Y54.747 E143.97479
G1 F1059.6 X90.916 Y55.245 E144.10475
G1 F1200 X90.916 Y58.295 E144.77428
G1 X90.824 Y58.532 E144.83009
G1 X90.615 Y58.732 E144.89359
G1 X84.452 Y62.288 E146.45552
G1 X84.173 Y62.333 E146.51756
G1 X83.986 Y62.288 E146.55978
G1 X77.822 Y58.732 E148.1219
G1 X77.615 Y58.532 E148.18509
G1 X77.523 Y58.295 E148.24089
G1 X77.523 Y55.246 E148.9102
G1 F1057.3 X77.361 Y54.74 E149.04258
G1 F891.1 X77.27 Y54.447 E149.13327
G1 F846.6 X77.275 Y53.961 E149.28451
G1 F861.8 X77.3 Y53.255 E149.50045
G1 F874.3 X77.3 Y51.851 E149.92346
G1 X76.381 Y51.851 E150.20034
G1 X76.089 Y51.985 E150.29714
G1 X75.87 Y52.236 E150.3975
G1 X75.666 Y53.104 E150.66614
G1 F861.8 X75.582 Y53.883 E150.90564
G1 F846.6 X75.563 Y54.407 E151.0688
G1 F891.1 X75.458 Y54.697 E151.15998
G1 F944.3 X75.457 Y54.74 E151.17198
G1 F1057.3 X75.295 Y55.246 E151.30435
G1 F1200 X75.295 Y85.892 E158.03166
G1 F1059.6 X75.454 Y86.39 E158.16163
G1 F948 X75.454 Y86.432 E158.1733
G1 F892.7 X75.562 Y86.729 E158.26655
G1 F846.1 X75.58 Y87.239 E158.42543
G1 F861.8 X75.667 Y88.041 E158.67202
G1 F874.8 X75.867 Y88.897 E158.93671
G1 X76.086 Y89.151 E159.03769
G1 X76.379 Y89.286 E159.13483
G1 X77.3 Y89.287 E159.41215
G1 X77.3 Y87.89 E159.83279
G1 F861.8 X77.275 Y87.161 E160.05576
G1 F846.1 X77.269 Y86.691 E160.20211
G1 F892.7 X77.364 Y86.39 E160.29524
G1 F1059.6 X77.523 Y85.892 E160.4252
G1 F1200 X77.523 Y82.925 E161.07651
G1 X77.615 Y82.605 E161.1496
G1 X77.822 Y82.405 E161.21278
G1 X83.986 Y78.85 E162.77479
G1 X84.173 Y78.805 E162.81702
G1 X84.452 Y78.85 E162.87905
G1 X90.615 Y82.405 E164.44088
G1 X90.824 Y82.604 E164.50422
G1 X90.916 Y82.925 E164.57753
G1 X90.916 Y85.882 E165.22664
G1 F1054.2 X91.082 Y86.399 E165.36232
G1 F890 X91.169 Y86.681 E165.44967
G1 F847.1 X91.163 Y87.171 E165.60207
G1 F862.3 X91.138 Y87.889 E165.82154
G1 F874.8 X91.139 Y89.286 E166.24219
G0 F6000 X91.925 Y88.193
G0 X91.949 Y81.98
G0 X90.34 Y77.795
G0 X89.64 Y77.795
;TYPE:SKIN
G1 F1200 X86.287 Y75.857 E167.09233
G1 X85.774 Y75.605 E167.21779
G1 X85.391 Y75.471 E167.30686
G1 X84.895 Y75.356 E167.41863
G1 X84.536 Y75.312 E167.49803
G1 X84.239 Y75.301 E167.56327
G1 X83.876 Y75.314 E167.64301
G1 X83.477 Y75.368 E167.73139
G1 X83.121 Y75.449 E167.81154
G1 X82.591 Y75.637 E167.93498
G1 X82.185 Y75.839 E168.03453
G1 X78.8 Y77.794 E168.89262
G1 X78.8 Y63.345 E172.06442
G1 X82.184 Y65.299 E172.92221
G1 X82.59 Y65.501 E173.02176
G1 X83.12 Y65.689 E173.1452
G1 X83.476 Y65.77 E173.22535
G1 X83.908 Y65.827 E173.321
G1 X84.196 Y65.837 E173.38426
G1 X84.536 Y65.826 E173.45894
G1 X84.895 Y65.782 E173.53833
G1 X85.326 Y65.686 E173.63526
G1 X85.781 Y65.529 E173.74092
G1 X86.28 Y65.284 E173.86295
G1 X89.64 Y63.342 E174.71486
G1 X89.64 Y77.795 E177.88754
G0 F6000 X90.34 Y77.795
G0 X90.274 Y78.743
G0 X84.219 Y77.518
G0 X80.525 Y77.606
G0 X79.874 Y76.479
G1 F1200 X79.399 Y76.005 E178.03484
G0 F6000 X78.099 Y76.005
G0 X78.165 Y78.742
G0 X81.6 Y76.985
G0 X80.949 Y75.858
G1 F1200 X79.399 Y74.308 E178.51603
G0 F6000 X78.099 Y74.308
G0 X78.099 Y72.611
G0 X79.399 Y72.611
G1 F1200 X82.033 Y75.245 E179.33374
G0 F6000 X82.61 Y76.409
G0 X83.569 Y76.065
G0 X83.281 Y74.796
G1 F1200 X79.399 Y70.914 E180.53888
G0 F6000 X78.099 Y70.914
G0 X78.099 Y69.217
G0 X79.399 Y69.217
G1 F1200 X84.939 Y74.756 E182.25859
G0 F6000 X84.78 Y76.046
G0 X87.429 Y77.325
G0 X88.08 Y76.2
G1 F1200 X79.399 Y67.52 E184.95339
G0 F6000 X78.099 Y67.52
G0 X78.099 Y65.823
G0 X79.399 Y65.823
G1 F1200 X89.039 Y75.463 E187.94607
G0 F6000 X90.34 Y75.463
G0 X90.34 Y73.766
G0 X89.039 Y73.766
G1 F1200 X80.012 Y64.739 E190.74845
G0 F6000 X80.664 Y63.613
G0 X83.609 Y65.083
G0 X83.32 Y66.349
G1 F1200 X89.039 Y72.069 E192.52403
G0 F6000 X90.34 Y72.069
G0 X90.34 Y70.371
G0 X89.039 Y70.371
G1 F1200 X85.031 Y66.363 E193.76829
G0 F6000 X84.803 Y65.089
G0 X85.725 Y64.78
G0 X86.305 Y65.941
G1 F1200 X89.039 Y68.674 E194.61689
G0 F6000 X90.34 Y68.674
G0 X90.34 Y66.977
G0 X89.039 Y66.977
G1 F1200 X87.394 Y65.333 E195.12741
G0 F6000 X86.744 Y64.207
G0 X87.819 Y63.585
G0 X88.469 Y64.71
G1 F1200 X89.039 Y65.28 E195.30437
G0 F6000 X90.944 Y65.28
G1 F2100 E189.30437
;MESH:motor spacer.stl(1)
G0 F6000 X92.924 Y71.926
G0 X98.779 Y72.025
G0 X102.144 Y71.926
;TYPE:WALL-INNER
G1 F2100 E195.30437
G1 F1399.4 X105.143 Y71.926 E195.86888
G0 F6000 X106.087 Y72.006
G0 X110.552 Y79.736
G0 X108.361 Y86.26
G1 F1200 X126.638 Y86.26 E199.881
G1 X123.737 Y81.237 E201.15431
G1 X123.568 Y80.898 E201.23746
G1 X123.452 Y80.568 E201.31425
G1 X123.38 Y80.255 E201.38475
G1 X123.343 Y79.962 E201.44958
G1 X123.343 Y79.51 E201.5488
G1 X123.38 Y79.217 E201.61363
G1 X123.452 Y78.904 E201.68414
G1 X123.568 Y78.574 E201.76092
G1 X123.737 Y78.235 E201.84407
G1 X126.638 Y73.212 E203.11739
G1 X108.361 Y73.212 E207.1295
G1 X111.263 Y78.235 E208.40293
G1 X111.432 Y78.574 E208.48608
G1 X111.548 Y78.904 E208.56286
G1 X111.62 Y79.217 E208.63337
