;FLAVOR:Marlin
;TIME:7184
;Filament used: 27.1061m
;Layer height: 0.6
;MINX:80.142
;MINY:98.757
;MINZ:0.32
;MAXX:222.022
;MAXY:200.982
;MAXZ:31.52
;Generated with Cura_SteamEngine 5.3.1
M140 S60
M105
M190 S60
M104 S230
M105
M109 S230
M82 ;absolute extrusion mode
G28 ; home all axes
G92 X-5.0 Y-10.0 ; set home offsets
M92 E136.8 ; Set E Steps to 136.8
G1 X0 Y0 Z0.2 F3000 ; get ready to prime
G92 E0 ; reset extrusion distance
G92 E0
G92 E0
G1 F1500 E-6.5
;LAYER_COUNT:53
;LAYER:0
M107
G0 F6000 X84.582 Y157.833 Z0.32
;TYPE:SUPPORT-INTERFACE
G1 F1500 E0
G1 F1200 X94.127 Y167.378 E1.4367
G1 X91.929 Y169.577 E1.76761
G1 X82.385 Y160.029 E3.20446
G1 X84.582 Y157.833 E3.53507
G1 F1500 E-2.96493
G0 F6000 X85.335 Y157.08
G0 X95.617 Y167.378
G0 X116.676 Y195.809
G0 X117.126 Y196.774
G1 F1500 E3.53507
G1 F1200 X149.325 Y181.76 E7.31634
G1 X154.445 Y180.761 E7.87155
G1 X124.322 Y194.811 E11.4092
G1 X123 Y197.087 E11.68934
G1 X117.487 Y197.568 E12.27833
G1 X116.777 Y197.356 E12.3572
G1 X117.126 Y196.774 E12.42942
G1 F1500 E5.92942
G0 F6000 X116.676 Y195.809
G0 X148.946 Y119.994
G0 X148.743 Y118.949
G1 F1500 E12.42942
G1 F1200 X179.801 Y104.466 E16.07674
G1 X179.369 Y102.693 E16.27097
G1 X183.909 Y102.297 E16.75601
G1 X183.914 Y102.298 E16.75655
G1 X185.673 Y102.144 E16.94448
G1 X186.129 Y102.238 E16.99403
G1 X186.251 Y102.845 E17.05993
G1 X153.86 Y117.953 E20.86395
G1 X148.743 Y118.949 E21.41878
G1 F1500 E14.91878
G0 F6000 X148.946 Y119.994
G0 X208.305 Y131.579
G0 X209.058 Y132.332
G1 F1500 E21.41878
G1 F1200 X210.593 Y130.797 E21.64983
G1 X211.257 Y130.135 E21.74962
G1 X220.8 Y139.68 E23.18617
G1 X220.138 Y140.344 E23.28596
G1 X218.604 Y141.878 E23.51686
G1 X209.058 Y132.332 E24.9537
G1 F1500 E18.4537
G0 F6000 X211.745 Y134.454
G1 F1500 E24.9537
G1 F1200 X213.376 Y132.822 E25.19927
G1 F1500 E18.69927
G0 F6000 X214.412 Y131.785
G0 X217.806 Y135.18
G0 X216.77 Y136.217
G1 F1500 E25.19927
G1 F1200 X215.139 Y137.848 E25.44477
G1 F1500 E18.94477
G0 F6000 X214.104 Y138.884
G0 X217.498 Y142.278
G0 X218.533 Y141.242
G1 F1500 E25.44477
G1 F1200 X220.164 Y139.611 E25.69026
G1 F1500 E19.19026
G0 F6000 X221.2 Y138.574
G0 X211.257 Y128.645
G0 X185.241 Y104.491
G0 X184.621 Y103.162
G1 F1500 E25.69026
G1 F1200 X184.137 Y102.678 E25.76311
G1 F1500 E19.26311
G0 F6000 X182.263 Y102.841
G1 F1500 E25.76311
G1 F1200 X179.599 Y105.505 E26.16409
G0 F6000 X179.992 Y105.322
G1 F1200 X179.648 Y104.978 E26.21587
G1 F1500 E19.71587
G0 F6000 X178.571 Y103.876
G0 X178.058 Y101.754
G0 X185.736 Y101.071
G0 X187.028 Y101.342
G0 X187.449 Y103.452
G0 X175.983 Y108.809
G0 X175.363 Y107.48
G1 F1500 E26.21587
G1 F1200 X175.019 Y107.137 E26.26757
G1 F1500 E19.76757
G0 F6000 X174.401 Y105.811
G0 X178.571 Y103.876
G0 X178.058 Y101.754
G0 X185.736 Y101.071
G0 X187.028 Y101.342
G0 X187.449 Y103.452
G0 X171.353 Y110.968
G0 X170.734 Y109.64
G1 F1500 E26.26757
G1 F1200 X170.39 Y109.296 E26.31935
G1 F1500 E19.81935
G0 F6000 X167.825 Y110.491
G1 F1500 E26.31935
G1 F1200 X166.877 Y111.44 E26.46212
G0 F6000 X166.105 Y111.799
G1 F1200 X165.76 Y111.454 E26.51405
G1 F1500 E20.01405
G0 F6000 X165.142 Y110.128
G0 X146.363 Y118.895
G0 X146.851 Y120.392
G0 X154.192 Y118.973
G0 X162.095 Y115.286
G0 X161.476 Y113.958
G1 F1500 E26.51405
G1 F1200 X161.131 Y113.613 E26.56598
G1 F1500 E20.06598
G0 F6000 X160.513 Y112.286
G0 X146.363 Y118.895
G0 X146.851 Y120.392
G0 X154.192 Y118.973
G0 X157.466 Y117.446
G0 X156.846 Y116.117
G1 F1500 E26.56598
G1 F1200 X156.502 Y115.773 E26.61776
G1 F1500 E20.11776
G0 F6000 X155.105 Y116.423
G1 F1500 E26.61776
G1 F1200 X154.154 Y117.374 E26.7609
G1 F1500 E20.2609
G0 F6000 X154.773 Y118.702
G0 X150.449 Y180.456
G0 X150.729 Y181.893
G1 F1500 E26.7609
G1 F1200 X150.432 Y182.19 E26.8056
G1 F1500 E20.3056
G0 F6000 X148.943 Y182.884
G1 F1500 E26.8056
G1 F1200 X148.599 Y182.54 E26.85738
G1 F1500 E20.35738
G0 F6000 X147.98 Y181.212
G0 X148.993 Y180.739
G0 X156.339 Y179.317
G0 X156.827 Y180.814
G0 X144.934 Y186.372
G0 X144.314 Y185.043
G1 F1500 E26.85738
G1 F1200 X143.969 Y184.699 E26.90923
G1 F1500 E20.40923
G0 F6000 X143.35 Y183.371
G0 X148.993 Y180.739
G0 X156.339 Y179.317
G0 X156.827 Y180.814
G0 X140.305 Y188.531
G0 X139.685 Y187.202
G1 F1500 E26.90923
G1 F1200 X139.34 Y186.857 E26.96116
G0 F6000 X138.66 Y187.173
G1 F1200 X137.71 Y188.124 E27.10423
G1 F1500 E20.60423
G0 F6000 X135.055 Y189.361
G1 F1500 E27.10423
G1 F1200 X134.71 Y189.016 E27.15616
G1 F1500 E20.65616
G0 F6000 X134.091 Y187.688
G0 X116.382 Y195.948
G0 X115.182 Y197.975
G0 X117.378 Y198.645
G0 X123.641 Y198.094
G0 X124.8 Y196.101
G0 X131.046 Y192.849
G0 X130.427 Y191.521
G1 F1500 E27.15616
G1 F1200 X130.08 Y191.174 E27.20839
G1 F1500 E20.70839
G0 F6000 X129.461 Y189.847
G0 X125.324 Y191.776
G0 X125.943 Y193.103
G1 F1500 E27.20839
G1 F1200 X124.987 Y194.059 E27.35228
G0 F6000 X125.451 Y193.333
G1 F1200 X125.797 Y193.68 E27.40444
G1 F1500 E20.90444
G0 F6000 X123.336 Y195.71
G1 F1500 E27.40444
G1 F1200 X122.3 Y196.746 E27.56038
G1 X122.093 Y196.763
G1 X120.821 Y195.492 E27.75176
G1 F1500 E21.25176
G0 F6000 X120.202 Y194.165
G0 X94.171 Y168.84
G0 X93.134 Y167.804
G1 F1500 E27.75176
G1 F1200 X84.154 Y158.825 E29.10334
G0 F6000 X85.279 Y159.096
G1 F1200 X83.649 Y160.726 E29.34868
G1 F1500 E22.84868
G0 F6000 X82.613 Y161.763
G0 X86.006 Y165.158
G0 X87.042 Y164.121
G1 F1500 E29.34868
G1 F1200 X88.674 Y162.49 E29.59425
G1 F1500 E23.09425
G0 F6000 X89.709 Y161.454
G0 X93.103 Y164.848
G0 X92.068 Y165.884
G1 F1500 E29.59425
G1 F1200 X90.436 Y167.516 E29.8399
G1 F1500 E23.3399
;MESH:Fat fork 30.stl(2)
G0 F6000 X89.4 Y168.553
G0 X91.929 Y171.067
G0 X95.617 Y167.378
G0 X93.296 Y164.659
G0 X94.332 Y163.622
G0 X95.259 Y161.72
;TYPE:WALL-INNER
G1 F1500 E29.8399
G1 F1200 X138.369 Y118.61 E36.32874
G1 X138.718 Y118.353 E36.37487
G1 X139.045 Y118.172 E36.41465
G1 X162.106 Y107.42 E39.12275
G1 X148.289 Y108.627 E40.59893
G1 X146.143 Y108.89 E40.82904
G1 X144.117 Y109.283 E41.04869
G1 X142.079 Y109.829 E41.27325
G1 X140.094 Y110.513 E41.49671
G1 X138.202 Y111.315 E41.71543
G1 X136.295 Y112.286 E41.94319
G1 X134.532 Y113.344 E42.16202
G1 X132.802 Y114.554 E42.38672
G1 X131.169 Y115.874 E42.6102
G1 X129.623 Y117.317 E42.83529
G1 X90.24 Y156.701 E48.76322
G1 X95.259 Y161.72 E49.51867
G0 F6000 X95.259 Y162.852
G1 F1200 X138.897 Y119.213 E56.08706
G1 X139.149 Y119.026 E56.12046
G1 X139.383 Y118.898 E56.14885
G1 X166.555 Y106.228 E59.33977
G1 X148.205 Y107.831 E61.30025
G1 X146.017 Y108.099 E61.53486
G1 X143.937 Y108.503 E61.76038
G1 X141.845 Y109.064 E61.9909
G1 X139.807 Y109.765 E62.22028
G1 X137.864 Y110.589 E62.44491
G1 X135.907 Y111.585 E62.67862
G1 X134.096 Y112.673 E62.90348
G1 X132.32 Y113.915 E63.13414
G1 X130.644 Y115.27 E63.36353
G1 X129.067 Y116.741 E63.59305
G1 X89.109 Y156.701 E69.60761
G1 X95.259 Y162.852 E70.53337
G0 F6000 X95.258 Y163.319
G0 X95.259 Y163.983
G1 F1200 X139.453 Y119.795 E77.18492
G1 X139.623 Y119.668 E77.20751
G1 X171.004 Y105.036 E80.89269
G1 X148.122 Y107.035 E83.33735
G1 X145.892 Y107.308 E83.57647
G1 X143.757 Y107.723 E83.80795
G1 X141.611 Y108.298 E84.04441
G1 X139.521 Y109.018 E84.27969
G1 X137.526 Y109.863 E84.51028
G1 X135.519 Y110.885 E84.74999
G1 X133.66 Y112.001 E84.98076
G1 X131.839 Y113.275 E85.2173
G1 X130.119 Y114.666 E85.45274
G1 X128.511 Y116.166 E85.68678
G1 X87.978 Y156.701 E91.78789
G1 X95.259 Y163.983 E92.88388
G0 F6000 X95.258 Y163.319
G0 X95.258 Y164.449
G0 X95.259 Y165.115
;TYPE:WALL-OUTER
G1 F1200 X139.999 Y120.376 E99.61799
G1 X175.453 Y103.844 E103.78152
G1 X148.038 Y106.239 E106.71048
G1 X145.767 Y106.518 E106.954
G1 X143.577 Y106.943 E107.19144
G1 X141.377 Y107.532 E107.43384
G1 X139.234 Y108.27 E107.67507
G1 X137.188 Y109.137 E107.91157
G1 X135.131 Y110.185 E108.15728
G1 X133.224 Y111.329 E108.39397
G1 X131.357 Y112.635 E108.63647
G1 X129.594 Y114.062 E108.87787
G1 X127.955 Y115.59 E109.11636
G1 X86.846 Y156.701 E115.30417
G1 X95.259 Y165.115 E116.57055
G0 F6000 X95.258 Y164.449
G0 X94.962 Y160.997
G0 X95.259 Y160.701
;TYPE:SKIN
G1 F1200 X91.259 Y156.701 E117.17263
G1 X130.131 Y117.826 E123.02379
G1 X131.638 Y116.421 E123.24308
G1 X133.216 Y115.144 E123.45914
G1 X134.943 Y113.937 E123.68339
G1 X136.645 Y112.915 E123.89469
G1 X138.493 Y111.973 E124.11545
G1 X140.351 Y111.187 E124.33017
G1 X142.285 Y110.521 E124.54787
G1 X144.289 Y109.985 E124.76866
G1 X146.246 Y109.604 E124.98086
G1 X148.313 Y109.35 E125.20251
G1 X158.091 Y108.496 E126.24717
G1 X138.744 Y117.518 E128.5192
G1 X138.35 Y117.733 E128.56698
G1 X137.956 Y118.02 E128.61886
G1 X137.757 Y118.204 E128.6477
G1 X95.259 Y160.701 E135.04435
G0 F6000 X95.452 Y159.94
G1 F1200 X92.017 Y156.506 E135.5613
G0 F6000 X92.583 Y155.94
G1 F1200 X96.018 Y159.374 E136.07826
G0 F6000 X96.583 Y158.809
G1 F1200 X93.149 Y155.374 E136.59521
G0 F6000 X93.714 Y154.809
G1 F1200 X97.149 Y158.243 E137.11217
G0 F6000 X97.715 Y157.677
G1 F1200 X94.28 Y154.243 E137.62912
G0 F6000 X94.846 Y153.677
G1 F1200 X98.28 Y157.112 E138.14608
G0 F6000 X98.846 Y156.546
G1 F1200 X95.412 Y153.111 E138.66303
G0 F6000 X95.977 Y152.546
G1 F1200 X99.412 Y155.98 E139.17999
G0 F6000 X99.977 Y155.414
G1 F1200 X96.543 Y151.98 E139.69687
G0 F6000 X97.109 Y151.414
G1 F1200 X100.543 Y154.849 E140.21382
G0 F6000 X101.109 Y154.283
G1 F1200 X97.674 Y150.849 E140.73078
G0 F6000 X98.24 Y150.283
G1 F1200 X101.674 Y153.717 E141.24766
G0 F6000 X102.24 Y153.152
G1 F1200 X98.806 Y149.717 E141.76461
G0 F6000 X99.371 Y149.152
G1 F1200 X102.806 Y152.586 E142.28157
G0 F6000 X103.371 Y152.02
G1 F1200 X99.937 Y148.586 E142.79844
G0 F6000 X100.503 Y148.02
G1 F1200 X103.937 Y151.455 E143.3154
G0 F6000 X104.503 Y150.889
G1 F1200 X101.068 Y147.455 E143.83235
G0 F6000 X101.634 Y146.889
G1 F1200 X105.068 Y150.323 E144.34923
G0 F6000 X105.634 Y149.758
G1 F1200 X102.2 Y146.323 E144.86619
G0 F6000 X102.765 Y145.758
G1 F1200 X106.2 Y149.192 E145.38314
G0 F6000 X106.766 Y148.626
G1 F1200 X103.331 Y145.192 E145.9001
G0 F6000 X103.897 Y144.626
G1 F1200 X107.331 Y148.061 E146.41705
G0 F6000 X107.897 Y147.495
G1 F1200 X104.463 Y144.06 E146.93401
G0 F6000 X105.028 Y143.495
G1 F1200 X108.463 Y146.929 E147.45096
G0 F6000 X109.028 Y146.364
G1 F1200 X105.594 Y142.929 E147.96792
G0 F6000 X106.16 Y142.363
G1 F1200 X109.594 Y145.798 E148.48487
G0 F6000 X110.16 Y145.232
G1 F1200 X106.725 Y141.798 E149.00183
G0 F6000 X107.291 Y141.232
G1 F1200 X110.725 Y144.666 E149.51871
G0 F6000 X111.291 Y144.101
G1 F1200 X107.857 Y140.666 E150.03566
G0 F6000 X108.422 Y140.101
G1 F1200 X111.857 Y143.535 E150.55261
G0 F6000 X112.422 Y142.969
G1 F1200 X108.988 Y139.535 E151.06949
G0 F6000 X109.554 Y138.969
G1 F1200 X112.988 Y142.404 E151.58645
G0 F6000 X113.554 Y141.838
G1 F1200 X110.119 Y138.404 E152.1034
G0 F6000 X110.685 Y137.838
G1 F1200 X114.119 Y141.272 E152.62028
G0 F6000 X114.685 Y140.707
G1 F1200 X111.25 Y137.272 E153.13731
G0 F6000 X111.816 Y136.706
G1 F1200 X115.251 Y140.141 E153.65434
G0 F6000 X115.817 Y139.575
G1 F1200 X112.381 Y136.14 E154.17145
G0 F6000 X112.947 Y135.574
G1 F1200 X116.383 Y139.01 E154.68863
G0 F6000 X116.949 Y138.445
G1 F1200 X113.513 Y135.009 E155.20581
G0 F6000 X114.078 Y134.443
G1 F1200 X117.514 Y137.879 E155.72299
G0 F6000 X118.08 Y137.313
G1 F1200 X114.644 Y133.877 E156.24017
G0 F6000 X115.21 Y133.312
G1 F1200 X118.646 Y136.748 E156.75735
G0 F6000 X119.211 Y136.182
G1 F1200 X115.776 Y132.746 E157.27446
G0 F6000 X116.341 Y132.18
G1 F1200 X119.777 Y135.616 E157.79164
G0 F6000 X120.343 Y135.051
G1 F1200 X116.907 Y131.615 E158.30882
G0 F6000 X117.473 Y131.049
G1 F1200 X120.908 Y134.485 E158.82592
G0 F6000 X121.474 Y133.919
G1 F1200 X118.038 Y130.483 E159.3431
G0 F6000 X118.604 Y129.918
G1 F1200 X122.04 Y133.353 E159.86021
G0 F6000 X122.605 Y132.788
G1 F1200 X119.17 Y129.352 E160.37731
G0 F6000 X119.735 Y128.786
G1 F1200 X123.171 Y132.222 E160.89449
G0 F6000 X123.737 Y131.656
G1 F1200 X120.301 Y128.221 E161.4116
G0 F6000 X120.867 Y127.655
G1 F1200 X124.303 Y131.091 E161.92878
G0 F6000 X124.868 Y130.525
G1 F1200 X121.432 Y127.089 E162.44596
G0 F6000 X121.998 Y126.524
G1 F1200 X125.434 Y129.959 E162.96307
G0 F6000 X126 Y129.394
G1 F1200 X122.564 Y125.958 E163.48025
G0 F6000 X123.129 Y125.392
G1 F1200 X126.565 Y128.828 E163.99743
G0 F6000 X127.131 Y128.262
G1 F1200 X123.695 Y124.826 E164.51461
G0 F6000 X124.261 Y124.261
G1 F1200 X127.697 Y127.697 E165.03179
G0 F6000 X128.262 Y127.131
G1 F1200 X124.826 Y123.695 E165.54897
G0 F6000 X125.392 Y123.129
G1 F1200 X128.828 Y126.565 E166.06615
G0 F6000 X129.394 Y126
G1 F1200 X125.958 Y122.564 E166.58333
G0 F6000 X126.524 Y121.998
G1 F1200 X129.959 Y125.434 E167.10043
G0 F6000 X130.525 Y124.868
G1 F1200 X127.089 Y121.432 E167.61761
G0 F6000 X127.655 Y120.867
G1 F1200 X131.091 Y124.303 E168.1348
G0 F6000 X131.656 Y123.737
G1 F1200 X128.221 Y120.301 E168.6519
G0 F6000 X128.786 Y119.735
G1 F1200 X132.222 Y123.171 E169.16908
G0 F6000 X132.788 Y122.605
G1 F1200 X129.352 Y119.17 E169.68619
G0 F6000 X129.918 Y118.604
G1 F1200 X133.353 Y122.04 E170.20329
G0 F6000 X133.919 Y121.474
G1 F1200 X130.486 Y118.041 E170.72002
G0 F6000 X131.072 Y117.495
G1 F1200 X134.485 Y120.908 E171.23374
G0 F6000 X135.051 Y120.343
G1 F1200 X131.657 Y116.949 E171.7446
G0 F6000 X132.266 Y116.427
G1 F1200 X135.616 Y119.777 E172.24883
G0 F6000 X136.182 Y119.211
G1 F1200 X132.891 Y115.92 E172.74419
G0 F6000 X133.52 Y115.418
G1 F1200 X136.748 Y118.646 E173.23006
G0 F6000 X137.313 Y118.08
G1 F1200 X134.186 Y114.953 E173.70073
G0 F6000 X134.853 Y114.488
G1 F1200 X137.917 Y117.552 E174.16192
G0 F6000 X138.626 Y117.13
G1 F1200 X135.541 Y114.045 E174.62627
G0 F6000 X136.248 Y113.62
G1 F1200 X139.397 Y116.77 E175.10033
G0 F6000 X140.169 Y116.41
G1 F1200 X136.961 Y113.202 E175.58319
G0 F6000 X137.711 Y112.821
G1 F1200 X140.941 Y116.051 E176.06936
G0 F6000 X141.712 Y115.691
G1 F1200 X138.46 Y112.439 E176.55885
G0 F6000 X139.243 Y112.09
G1 F1200 X142.484 Y115.331 E177.04668
G0 F6000 X143.255 Y114.971
G1 F1200 X140.038 Y111.753 E177.53097
G0 F6000 X140.852 Y111.437
G1 F1200 X144.027 Y114.612 E178.00886
G0 F6000 X144.799 Y114.252
G1 F1200 X141.695 Y111.147 E178.47615
G0 F6000 X142.544 Y110.865
G1 F1200 X145.57 Y113.892 E178.93169
G0 F6000 X146.342 Y113.532
G1 F1200 X143.437 Y110.627 E179.36895
G0 F6000 X144.329 Y110.388
G1 F1200 X147.114 Y113.173 E179.78814
G0 F6000 X147.885 Y112.813
G1 F1200 X145.273 Y110.201 E180.18129
G0 F6000 X146.22 Y110.016
G1 F1200 X148.657 Y112.453 E180.54811
G0 F6000 X149.428 Y112.093
G1 F1200 X147.222 Y109.887 E180.88015
G0 F6000 X147.123 Y109.072
G0 X148.131 Y108.948
G0 X148.23 Y109.764
G1 F1200 X150.2 Y111.733 E181.17659
G0 F6000 X150.972 Y111.374
G1 F1200 X149.265 Y109.668 E181.43345
G0 F6000 X149.195 Y108.85
G0 X150.236 Y108.759
G0 X150.306 Y109.576
G1 F1200 X151.743 Y111.014 E181.64982
G0 F6000 X152.515 Y110.654
G1 F1200 X151.347 Y109.486 E181.82563
G0 F6000 X151.277 Y108.668
G0 X152.317 Y108.577
G0 X152.387 Y109.395
G1 F1200 X153.286 Y110.294 E181.96094
G0 F6000 X154.058 Y109.935
G1 F1200 X153.428 Y109.304 E182.05585
G0 F6000 X153.358 Y108.486
G0 X154.398 Y108.395
G0 X154.468 Y109.214
G1 F1200 X154.83 Y109.575 E182.11026
G0 F6000 X155.473 Y110.955
G1 F1500 E175.61026
;MESH:Fat fork 30.stl
G0 F6000 X139.75 Y120.032
G0 X140.614 Y121.264
G0 X162.571 Y178.447
G0 X163.435 Y179.679
G0 X141.078 Y192.292
;TYPE:WALL-INNER
G1 F1500 E182.11026
G1 F1200 X154.937 Y191.079 E183.59094
G1 X157.042 Y190.821 E183.81666
G1 X159.068 Y190.426 E184.03635
G1 X161.106 Y189.882 E184.26086
G1 X163.09 Y189.199 E184.48418
G1 X164.986 Y188.395 E184.70337
G1 X166.889 Y187.426 E184.93066
G1 X168.663 Y186.362 E185.15083
G1 X170.364 Y185.17 E185.37189
G1 X172.023 Y183.828 E185.599
G1 X173.561 Y182.394 E185.82281
G1 X212.945 Y143.009 E191.75089
G1 X207.926 Y137.99 E192.50634
G1 X164.818 Y181.098 E198.99488
G1 X164.471 Y181.359 E199.0411
G1 X164.14 Y181.538 E199.08115
G1 X141.078 Y192.292 E201.78944
G0 F6000 X136.629 Y193.484
G1 F1200 X154.979 Y191.879 E203.74993
G1 X157.168 Y191.612 E203.98464
G1 X159.248 Y191.206 E204.21019
G1 X161.34 Y190.647 E204.44066
G1 X163.377 Y189.946 E204.66994
G1 X165.324 Y189.121 E204.895
G1 X167.277 Y188.127 E205.12824
