;FLAVOR:Marlin
;TIME:3998
;Filament used: 18.7711m
;Layer height: 0.6
;MINX:180.859
;MINY:174.509
;MINZ:0.3
;MAXX:219.141
;MAXY:228.955
;MAXZ:50.9
;Generated with Cura_SteamEngine 5.3.1
M82 ;absolute extrusion mode
; X5SA Start Code
G21 ; Set units to millimeters
G90 ; Set all axis to Absolute
M82 ; Set extrusion to Absolute
M107 ; Disable all fans
M190 S60 ; Set bed temperature and wait
G28 ; Home all axis
; Uncomment the line below to enable ABL Mesh probing
;G29 ; Probe bed mesh for ABL
; For best results do not run nozzle heater while performing ABL
G1 Z5.0 ; Raise nozzle to prevent scratching of heat bed
G1 X0 Y0 ; Move nozzle to Home before heating
M109 S230.0 T0 ; Set nozzle temp and wait
G92 E0 ; Set Extruder position to zero
; Uncomment the following lines to enable nozzle purge line along left edge of bed
;G1 Z2.0 F3000 ; Raise Z axis
;G1 X1.1 Y20 Z0.2 F3600.0 ; Move to purge line start position
;G1 Y290 F1500.0 E15 ; Draw first purge line
;G1 X1.4 F3600.0 ; Move to side
;G1 Y20 F1500.0 E30 ; Draw second purge line
;G92 E0 ; Reset Extruder
;G1 Z2.0 F3000 ; Move Z Axis up little to prevent scratching of Heat Bed
;G1 X5 Y20 Z0.2 F3600.0 ; Move over to finish nozzle wipe
;G92 E0

G92 E0
G92 E0
G1 F2700 E-10
;LAYER_COUNT:85
;LAYER:0
M107
G1 F300 Z0.5
;MESH:motor spacer.stl(1)
G0 F2700 X204.905 Y185.734 Z0.5
;TYPE:WALL-INNER
G1 F300 Z0.3
G1 F2700 E0
G1 F1800 X204.905 Y185.734
G1 X204.687 Y185.3 E0.07734
G1 X204.531 Y184.877 E0.14914
G1 X204.427 Y184.472 E0.21573
G1 X204.358 Y183.999 E0.29185
G1 X204.343 Y183.633 E0.35019
G1 X204.358 Y183.267 E0.40852
G1 X204.427 Y182.794 E0.48464
G1 X204.531 Y182.389 E0.55123
G1 X204.687 Y181.966 E0.62303
G1 X204.905 Y181.532 E0.70037
G1 X206.766 Y178.309 E1.29305
G1 X193.234 Y178.309 E3.44802
G1 X195.095 Y181.532 E4.04069
G1 X195.313 Y181.966 E4.11804
G1 X195.469 Y182.389 E4.18984
G1 X195.573 Y182.794 E4.25642
G1 X195.642 Y183.267 E4.33255
G1 X195.657 Y183.633 E4.39088
G1 X195.642 Y183.999 E4.44922
G1 X195.573 Y184.472 E4.52534
G1 X195.469 Y184.877 E4.59193
G1 X195.313 Y185.3 E4.66372
G1 X195.095 Y185.734 E4.74107
G1 X193.234 Y188.957 E5.33375
G1 X206.766 Y188.957 E7.48871
G1 X205.599 Y186.936 E7.86036
G0 F1620 X204.905 Y185.734
G0 F2700 X194.397 Y183.034
G1 F1800 X194.44 Y183.307 E7.90437
G1 X194.457 Y183.633 E7.95635
G1 X194.44 Y183.959 E8.00834
G1 X194.397 Y184.232 E8.05235
G1 X194.323 Y184.522 E8.10001
G1 X194.212 Y184.824 E8.15125
G1 X194.056 Y185.134 E8.20652
G1 X191.156 Y190.157 E9.13017
G1 X208.844 Y190.157 E11.94698
G1 X205.944 Y185.134 E12.87063
G1 X205.788 Y184.824 E12.9259
G1 X205.677 Y184.522 E12.97714
G1 X205.603 Y184.232 E13.0248
G1 X205.56 Y183.959 E13.06881
G1 X205.543 Y183.633 E13.1208
G1 X205.56 Y183.307 E13.17278
G1 X205.603 Y183.034 E13.21679
G1 X205.677 Y182.744 E13.26446
G1 X205.788 Y182.442 E13.31569
G1 X205.944 Y182.132 E13.37096
G1 X208.844 Y177.109 E14.29462
G1 X191.156 Y177.109 E17.11142
G1 X193.846 Y181.768 E17.96815
G0 F1620 X194.056 Y182.132
G0 X194.212 Y182.442
G0 X194.323 Y182.744
G0 X194.397 Y183.034
G0 F2700 X188.942 Y191.387
G0 X188.893 Y191.358
G1 F1800 X211.106 Y191.358 E21.50556
G1 X210.649 Y190.883 E21.61053
G1 X206.907 Y184.402 E22.80231
G1 X206.749 Y183.897 E22.88657
G1 X206.749 Y183.369 E22.97066
G1 X206.907 Y182.864 E23.05492
G1 X210.649 Y176.383 E24.2467
G1 X211.107 Y175.908 E24.35178
G1 X188.894 Y175.908 E27.88919
G1 X189.351 Y176.383 E27.99416
G1 X193.093 Y182.864 E29.18594
G1 X193.251 Y183.369 E29.2702
G1 X193.251 Y183.897 E29.35429
G1 X193.093 Y184.402 E29.43855
G1 X189.715 Y190.252 E30.51432
G0 F1620 X189.351 Y190.883
G0 X188.893 Y191.358
G1 F2700 E20.51432
G0 X188.942 Y191.387
G0 X216.529 Y190.883
G0 X216.53 Y190.771
;TYPE:WALL-OUTER
G1 F2700 E30.51432
G1 F1367.1 X215.84 Y190.777 E30.659
G1 F1361.9 X212.209 Y190.777 E31.42324
G1 F1550.6 X211.889 Y190.491 E31.50258
G1 F1800 X211.689 Y190.283 E31.54853
G1 X207.977 Y183.855 E32.73061
G1 X207.945 Y183.686 E32.758
G1 X207.973 Y183.419 E32.80075
G1 X211.689 Y176.983 E33.98425
G1 F1746.2 X211.869 Y176.743 E34.0335
G1 F1503.1 X212.071 Y176.494 E34.09465
G1 F1355.9 X215.845 Y176.49 E34.89249
G1 F1368 X216.537 Y176.496 E35.0375
G1 F1391.8 X217.172 Y176.516 E35.16835
G1 F1409 X218.647 Y176.517 E35.46842
G1 X218.725 Y176.473 E35.48664
G1 X218.774 Y176.385 E35.50713
G1 X218.774 Y175.464 E35.6945
G1 X218.691 Y175.341 E35.72469
G1 X217.993 Y175.136 E35.87269
G1 X217.296 Y174.991 E36.01752
G1 F1391.8 X216.601 Y174.926 E36.16129
G1 F1368 X215.861 Y174.902 E36.31644
G1 F1355.9 X211.933 Y174.907 E37.14683
G1 F1422.9 X211.613 Y174.826 E37.21333
G1 F1594.1 X211.293 Y174.745 E37.27269
G1 F1746.2 X210.376 Y174.709 E37.42334
G1 F1800 X188.708 Y174.708 E40.87396
G1 F1666.7 X188.25 Y174.805 E40.95448
G1 F1449.7 X187.791 Y174.902 E41.04724
G1 F1361.1 X184.129 Y174.902 E41.81848
G1 F1367.1 X183.438 Y174.923 E41.96344
G1 F1390 X182.718 Y174.989 E42.11255
G1 F1407.2 X182.012 Y175.135 E42.25941
G1 X181.303 Y175.343 E42.40992
G1 X181.227 Y175.459 E42.43817
G1 X181.228 Y176.384 E42.6266
G1 X181.316 Y176.515 E42.65875
G1 X182.842 Y176.515 E42.9696
G1 F1390 X183.47 Y176.496 E43.09917
G1 F1367.1 X184.161 Y176.489 E43.24407
G1 F1361.1 X187.791 Y176.49 E44.00858
G1 F1550.6 X188.111 Y176.775 E44.08779
G1 F1800 X188.311 Y176.983 E44.13374
G1 X192.023 Y183.411 E45.31582
G1 X192.055 Y183.58 E45.34321
G1 X192.027 Y183.847 E45.38597
G1 X188.311 Y190.283 E46.56947
G1 F1746.2 X188.131 Y190.523 E46.61872
G1 F1503.1 X187.929 Y190.772 E46.67986
G1 F1355.9 X184.154 Y190.777 E47.47791
G1 F1367.1 X183.463 Y190.769 E47.62281
G1 F1390.9 X182.828 Y190.75 E47.75374
G1 F1409 X181.318 Y190.749 E48.06093
G1 X181.226 Y190.881 E48.09367
G1 X181.226 Y191.803 E48.28124
G1 X181.309 Y191.926 E48.31143
G1 X182.007 Y192.13 E48.45937
G1 X182.703 Y192.275 E48.60401
G1 F1390.9 X183.399 Y192.341 E48.74809
G1 F1367.1 X184.154 Y192.365 E48.90648
G1 F1355.9 X188.067 Y192.359 E49.7337
G1 F1422.9 X188.387 Y192.44 E49.8002
G1 F1594.1 X188.707 Y192.521 E49.85956
G1 F1746.2 X189.624 Y192.557 E50.01021
G1 F1800 X211.292 Y192.558 E53.46083
G1 F1666.7 X211.75 Y192.461 E53.54134
G1 F1450.6 X212.209 Y192.364 E53.63405
G1 F1361.9 X215.871 Y192.364 E54.40481
G1 F1367.1 X216.593 Y192.342 E54.55626
G1 F1390 X217.254 Y192.281 E54.69316
G1 F1407.2 X217.988 Y192.131 E54.84577
G1 X218.692 Y191.925 E54.99519
G1 X218.773 Y191.808 E55.02418
G1 X218.773 Y190.883 E55.21261
G1 X218.683 Y190.752 E55.24499
G1 X217.161 Y190.751 E55.55503
G1 F1390 X216.53 Y190.771 E55.68522
G0 F2700 X216.529 Y190.883
G0 X211.727 Y190.817
G0 X203.873 Y183.085
;TYPE:SKIN
G1 F1200 X203.844 Y183.603 E55.76784
G1 X203.866 Y184.114 E55.8493
G1 X203.933 Y184.551 E55.9197
G1 X204.063 Y185.058 E56.00305
G1 X204.213 Y185.46 E56.07138
G1 X204.483 Y186.005 E56.16824
G1 X205.843 Y188.358 E56.60104
G1 X205.786 Y188.457 E56.61923
G1 X194.214 Y188.457 E58.46207
G1 X194.157 Y188.358 E58.48026
G1 X195.517 Y186.005 E58.91306
G1 X195.787 Y185.46 E59.00992
G1 X195.937 Y185.058 E59.07825
G1 X196.067 Y184.551 E59.1616
G1 X196.131 Y184.149 E59.22643
G1 X196.156 Y183.663 E59.30392
G1 X196.134 Y183.152 E59.38538
G1 X196.066 Y182.712 E59.45628
G1 X195.937 Y182.208 E59.53913
G1 X195.787 Y181.806 E59.60746
G1 X195.517 Y181.261 E59.70431
G1 X194.157 Y178.908 E60.13712
G1 X194.214 Y178.809 E60.15531
G1 X205.786 Y178.809 E61.99814
G1 X205.843 Y178.908 E62.01634
G1 X204.483 Y181.261 E62.44914
G1 X204.24 Y181.751 E62.53624
G0 F1080 X204.213 Y181.806
G0 X204.063 Y182.208
G0 X203.934 Y182.712
G0 X203.873 Y183.085
G0 F2700 X203.769 Y180.01
G1 F1200 X203.819 Y180.009 E62.5442
G1 X203.434 Y180.675 E62.66671
G1 X203.2 Y181.138 E62.74932
G1 X202.072 Y180.01 E63.00336
G1 X200.374 Y180.01 E63.27377
G1 X202.767 Y182.402 E63.81259
G1 X202.673 Y182.99 E63.90742
G1 X202.643 Y183.571 E64.00007
G1 X202.661 Y183.993 E64.06733
G1 X198.677 Y180.01 E64.96447
G1 X196.98 Y180.01 E65.23471
G1 X203.307 Y186.336 E66.65952
G1 X203.434 Y186.589 E66.7046
G1 X203.819 Y187.256 E66.82725
G1 X202.529 Y187.256 E67.03268
G1 X197.079 Y181.806 E68.26009
G1 X197.246 Y182.497 E68.3733
G1 X197.325 Y182.993 E68.45328
G1 X197.358 Y183.782 E68.57904
G1 X200.832 Y187.256 E69.36143
G1 X199.135 Y187.256 E69.63168
G1 X197.141 Y185.261 E70.08086
G1 X196.876 Y185.972 E70.2017
G1 X196.633 Y186.451 E70.28723
G1 X197.438 Y187.256 E70.46853
G1 X196.797 Y187.256 E70.57061
G0 F1080 X196.179 Y187.256
G0 X196.564 Y186.589
G1 F2700 E60.57061
G1 F300 Z0.5
;MESH:motor spacer.stl
G0 F2700 X196.564 Y186.589 Z0.5
G0 X204.687 Y218.163
;TYPE:WALL-INNER
G1 F300 Z0.3
G1 F2700 E70.57061
G1 F1800 X204.905 Y217.729 E70.64795
G1 X206.766 Y214.506 E71.24063
G1 X193.234 Y214.506 E73.39559
G1 X195.095 Y217.729 E73.98827
G1 X195.313 Y218.163 E74.06562
G1 X195.469 Y218.586 E74.13741
G1 X195.573 Y218.991 E74.204
G1 X195.642 Y219.464 E74.28013
G1 X195.657 Y219.83 E74.33846
G1 X195.642 Y220.196 E74.39679
G1 X195.573 Y220.669 E74.47292
G1 X195.469 Y221.074 E74.5395
G1 X195.313 Y221.497 E74.6113
G1 X195.095 Y221.931 E74.68865
G1 X193.234 Y225.154 E75.28132
G1 X206.766 Y225.154 E77.43629
G1 X204.905 Y221.931 E78.02897
G1 X204.687 Y221.497 E78.10631
G1 X204.531 Y221.074 E78.17811
G1 X204.427 Y220.669 E78.2447
G1 X204.358 Y220.196 E78.32082
G1 X204.343 Y219.83 E78.37915
G1 X204.357 Y219.506 E78.4308
G0 F1620 X204.358 Y219.464
G0 X204.427 Y218.991
G0 X204.531 Y218.586
G0 X204.687 Y218.163
G0 F2700 X194.397 Y219.231
G1 F1800 X194.44 Y219.504 E78.47481
G1 X194.457 Y219.83 E78.5268
G1 X194.44 Y220.156 E78.57878
G1 X194.397 Y220.429 E78.62279
G1 X194.323 Y220.719 E78.67046
G1 X194.212 Y221.021 E78.72169
G1 X194.056 Y221.331 E78.77696
G1 X191.156 Y226.354 E79.70061
G1 X208.844 Y226.354 E82.51742
G1 X205.944 Y221.331 E83.44108
G1 X205.788 Y221.021 E83.49634
G1 X205.677 Y220.719 E83.54758
G1 X205.603 Y220.429 E83.59524
G1 X205.56 Y220.156 E83.63925
G1 X205.543 Y219.83 E83.69124
G1 X205.56 Y219.504 E83.74322
G1 X205.603 Y219.231 E83.78724
G1 X205.677 Y218.941 E83.8349
G1 X205.788 Y218.639 E83.88614
G1 X205.944 Y218.329 E83.9414
G1 X208.844 Y213.306 E84.86506
G1 X191.156 Y213.306 E87.68186
G1 X193.846 Y217.965 E88.5386
G0 F1620 X194.056 Y218.329
G0 X194.212 Y218.639
G0 X194.323 Y218.941
G0 X194.397 Y219.231
G0 F2700 X206.907 Y220.599
G1 F1800 X206.749 Y220.094 E88.62286
G1 X206.749 Y219.566 E88.70694
G1 X206.907 Y219.061 E88.79121
G1 X210.649 Y212.58 E89.98299
G1 X211.107 Y212.105 E90.08807
G1 X188.894 Y212.105 E93.62548
G1 X189.351 Y212.58 E93.73045
G1 X193.093 Y219.061 E94.92222
G1 X193.251 Y219.566 E95.00649
G1 X193.251 Y220.094 E95.09057
G1 X193.093 Y220.599 E95.17484
G1 X189.351 Y227.08 E96.36661
G1 X188.893 Y227.555 E96.47169
G1 X211.106 Y227.555 E100.0091
G1 X210.649 Y227.08 E100.11407
G1 X207.601 Y221.801 E101.08482
G0 F1620 X206.907 Y220.599
G1 F2700 E91.08482
G0 X206.656 Y219.83
G0 X210.738 Y212.63
G0 X211.689 Y213.18
;TYPE:WALL-OUTER
G1 F2700 E101.08482
G1 F1746.2 X211.869 Y212.94 E101.13406
G1 F1503.1 X212.071 Y212.691 E101.19521
G1 F1355.9 X215.845 Y212.687 E101.99305
G1 F1368 X216.537 Y212.693 E102.13806
G1 F1391.8 X217.172 Y212.713 E102.26891
G1 F1409 X218.682 Y212.714 E102.57611
G1 X218.774 Y212.582 E102.60884
G1 X218.774 Y211.657 E102.79702
G1 X218.721 Y211.546 E102.82205
G1 X217.994 Y211.333 E102.97617
G1 X217.296 Y211.188 E103.1212
G1 F1391.8 X216.601 Y211.123 E103.26497
G1 F1368 X215.861 Y211.099 E103.42011
G1 F1355.9 X211.933 Y211.104 E104.25051
G1 F1422.9 X211.613 Y211.023 E104.31701
G1 F1594.1 X211.293 Y210.942 E104.37636
G1 F1746.2 X210.376 Y210.906 E104.52701
G1 F1800 X188.708 Y210.905 E107.97763
G1 F1666.7 X188.25 Y211.002 E108.05815
G1 F1449.7 X187.791 Y211.099 E108.15092
G1 F1361.1 X184.129 Y211.099 E108.92216
G1 F1367.1 X183.438 Y211.12 E109.06711
G1 F1390 X182.718 Y211.186 E109.21622
G1 F1407.2 X182.011 Y211.332 E109.36328
G1 X181.281 Y211.546 E109.51825
G1 X181.228 Y211.655 E109.54293
G1 X181.228 Y212.582 E109.73177
G1 X181.318 Y212.712 E109.76398
G1 X182.842 Y212.712 E110.07443
G1 F1390 X183.47 Y212.693 E110.204
G1 F1367.1 X184.161 Y212.686 E110.34889
G1 F1361.1 X187.791 Y212.687 E111.1134
G1 F1550.6 X188.111 Y212.972 E111.19262
G1 F1800 X188.311 Y213.18 E111.23857
G1 X192.023 Y219.608 E112.42065
G1 X192.055 Y219.777 E112.44804
G1 X192.027 Y220.044 E112.49079
G1 X188.311 Y226.48 E113.67429
G1 F1746.2 X188.131 Y226.72 E113.72354
G1 F1503.1 X187.929 Y226.969 E113.78469
G1 F1355.9 X184.154 Y226.974 E114.58274
G1 F1367.1 X183.463 Y226.966 E114.72763
G1 F1390.9 X182.828 Y226.947 E114.85856
G1 F1409 X181.318 Y226.946 E115.16576
G1 X181.226 Y227.078 E115.19849
G1 X181.226 Y228 E115.38606
G1 X181.309 Y228.123 E115.41625
G1 X182.007 Y228.327 E115.56419
G1 X182.703 Y228.472 E115.70883
G1 F1390.9 X183.399 Y228.538 E115.85292
G1 F1367.1 X184.154 Y228.562 E116.0113
G1 F1355.9 X188.067 Y228.556 E116.83853
G1 F1422.9 X188.387 Y228.637 E116.90502
G1 F1594.1 X188.707 Y228.718 E116.96438
G1 F1746.2 X189.624 Y228.754 E117.11503
G1 F1800 X211.292 Y228.755 E120.56565
G1 F1666.7 X211.75 Y228.658 E120.64617
G1 F1450.6 X212.209 Y228.561 E120.73887
G1 F1361.9 X215.871 Y228.561 E121.50963
G1 F1367.1 X216.593 Y228.539 E121.66109
G1 F1390 X217.254 Y228.478 E121.79798
G1 F1407.2 X217.988 Y228.328 E121.9506
G1 X218.692 Y228.122 E122.10002
G1 X218.773 Y228.005 E122.12901
G1 X218.773 Y227.08 E122.31743
G1 X218.683 Y226.949 E122.34981
G1 X217.161 Y226.948 E122.65985
G1 F1390 X216.53 Y226.968 E122.79005
G1 F1367.1 X215.84 Y226.974 E122.93473
G1 F1361.9 X212.209 Y226.974 E123.69897
G1 F1550.6 X211.889 Y226.688 E123.77831
G1 F1800 X211.689 Y226.48 E123.82426
G1 X207.977 Y220.052 E125.00634
G1 X207.945 Y219.883 E125.03373
G1 X207.973 Y219.616 E125.07648
G1 X210.995 Y214.382 E126.03895
G0 F1620 X211.689 Y213.18
G0 F2700 X210.738 Y212.63
G0 X194.214 Y224.654
;TYPE:SKIN
G1 F1200 X194.157 Y224.555 E126.05714
G1 X195.517 Y222.202 E126.48994
G1 X195.787 Y221.657 E126.5868
G1 X195.937 Y221.255 E126.65513
G1 X196.067 Y220.748 E126.73848
G1 X196.131 Y220.346 E126.80331
G1 X196.156 Y219.86 E126.8808
G1 X196.134 Y219.349 E126.96226
G1 X196.066 Y218.909 E127.03316
G1 X195.937 Y218.405 E127.11601
G1 X195.787 Y218.003 E127.18434
G1 X195.517 Y217.458 E127.28119
G1 X194.157 Y215.105 E127.714
G1 X194.214 Y215.006 E127.73219
G1 X205.786 Y215.006 E129.57502
G1 X205.843 Y215.105 E129.59322
G1 X204.483 Y217.458 E130.02602
G1 X204.213 Y218.003 E130.12288
G1 X204.063 Y218.405 E130.19121
G1 X203.934 Y218.909 E130.27405
G1 X203.873 Y219.282 E130.33424
G1 X203.844 Y219.8 E130.41686
G1 X203.866 Y220.311 E130.49832
G1 X203.933 Y220.748 E130.56872
G1 X204.063 Y221.255 E130.65207
G1 X204.213 Y221.657 E130.7204
G1 X204.483 Y222.202 E130.81726
G1 X205.843 Y224.555 E131.25006
G1 X205.786 Y224.654 E131.26825
G1 X195.602 Y224.654 E132.89005
G0 F1080 X194.214 Y224.654
G0 F2700 X196.299 Y223.452
M104 S230
G1 F1200 X196.18 Y223.452 E132.909
G1 X196.565 Y222.786 E133.03151
G1 X196.821 Y222.277 E133.12224
G1 X197.996 Y223.452 E133.38687
G1 X199.693 Y223.452 E133.65711
G1 X197.237 Y220.996 E134.21024
G1 X197.325 Y220.474 E134.29454
G1 X197.355 Y219.891 E134.3875
G1 X197.334 Y219.396 E134.4664
G1 X201.39 Y223.452 E135.37986
G1 X203.087 Y223.452 E135.65011
G1 X196.623 Y216.988 E137.10589
G1 X196.565 Y216.871 E137.12668
G1 X196.179 Y216.206 E137.24913
G1 X197.538 Y216.206 E137.46555
G1 X202.9 Y221.568 E138.67314
G1 X202.752 Y220.96 E138.77279
G1 X202.672 Y220.443 E138.85611
G1 X202.637 Y219.608 E138.9892
G1 X199.235 Y216.206 E139.75537
G1 X200.932 Y216.206 E140.02562
G1 X202.875 Y218.149 E140.4632
G1 X203.123 Y217.49 E140.57534
G1 X203.388 Y216.965 E140.66899
G1 X202.629 Y216.206 E140.83993
G1 X203.201 Y216.205 E140.93102
G0 F1080 X203.819 Y216.205
G0 X203.434 Y216.872
G1 F2700 E130.93102
G1 F300 Z0.5
;MESH:NONMESH
G0 F2700 X203.434 Y216.872 Z0.5
G0 X205.753 Y183.389
;TIME_ELAPSED:53.427552
;LAYER:1
M106 S85
;MESH:motor spacer.stl(1)
G0 F3450 X205.753 Y183.389 Z1.1
;TYPE:WALL-INNER
G1 F300 Z0.9
G1 F2700 E140.93102
G1 F1800 X205.799 Y183.074 E141.00217
G1 X205.868 Y182.804 E141.06445
G1 X205.972 Y182.521 E141.13184
G1 X206.117 Y182.232 E141.20411
G1 X209.191 Y176.909 E142.57798
G1 X190.809 Y176.909 E146.68651
G1 X193.883 Y182.232 E148.06038
