;FLAVOR:Marlin
;TIME:12788
;Filament used: 44.1515m
;Layer height: 0.6
;MINX:14.917
;MINY:52.747
;MINZ:0.4
;MAXX:220.095
;MAXY:151.744
;MAXZ:31.6
;Generated with Cura_SteamEngine 5.3.1
M82 ;absolute extrusion mode
; START G-CODE BEGIN

M104 S230.0 ﻿T0
M140 S60.0

G28 ; Home all axes
G92 E0 ; Reset Extruder
M420 S1 ; Load Mesh

M109 S230.0 ﻿T0
M190 S60.0

G92 E0 ; Reset Extruder

G1 X0.6 Y20 Z0.3 F5000.0 ; Move to start position
G1 X0.6 Y200.0 Z0.3 F1500.0 E15 ; Draw the first line
G1 X0.9 Y200.0 Z0.3 F5000.0 ; Move to side a little
G1 X0.9 Y20 Z0.3 F1500.0 E30 ; Draw the second line
G92 E0 ; Reset Extruder
G1 Z2.0 F3000 ; Move Z Axis up little to prevent scratching of Heat Bed
G1 X5 Y20 Z0.3 F5000.0 ; Move over to prevent blob squish

; START G-CODE END
G92 E0
G92 E0
G1 F2100 E-10
;LAYER_COUNT:53
;LAYER:0
M107
G0 F6000 X16.77 Y131.505 Z0.4
;TYPE:SUPPORT-INTERFACE
G1 F2100 E0
G1 F1200 X22.65 Y131.504 E1.29076
G1 X22.65 Y134.997 E2.05753
G1 X16.77 Y134.997 E3.34829
G1 X16.77 Y131.505 E4.11484
G1 F2100 E-5.88516
G0 F6000 X212.35 Y131.505
G1 F2100 E4.11484
G1 F1200 X218.23 Y131.504 E5.4056
G1 X218.23 Y134.997 E6.17238
G1 X212.35 Y134.997 E7.46314
G1 X212.35 Y131.505 E8.22969
G0 F6000 X213.363 Y131.904
G1 F1200 X216.055 Y134.597 E9.06556
G1 F2100 E-0.93444
G0 F6000 X214.295 Y131.904
G1 F2100 E9.06556
G1 F1200 X212.749 Y133.45 E9.5455
G1 F2100 E-0.4545
G0 F6000 X211.285 Y133.45
G0 X175.303 Y151.744
G0 X59.697 Y151.744
G0 X23.715 Y133.879
G0 X22.249 Y133.879
G1 F2100 E9.5455
G1 F1200 X21.532 Y134.596 E9.76809
G1 F2100 E-0.23191
G0 F6000 X19.196 Y134.596
G1 F2100 E9.76809
G1 F1200 X17.169 Y132.569 E10.39736
G1 X17.169 Y132.17
G1 X17.437 Y131.903 E10.48041
G1 F2100 E0.48041
;MESH:Colin Butrym Robot Body.STL
G0 F6000 X61.17 Y131.903
G0 X62.626 Y148.815
G0 X172.85 Y149.291
;TYPE:WALL-INNER
G1 F2100 E10.48041
G1 F1200 X172.851 Y98.953 E21.53045
G1 X172.93 Y97.94 E21.75349
G1 X173.183 Y96.89 E21.99058
G1 X173.584 Y95.916 E22.2218
G1 X174.156 Y94.98 E22.4626
G1 X174.861 Y94.152 E22.70132
G1 X175.685 Y93.448 E22.93923
G1 X176.625 Y92.877 E23.18066
G1 X177.605 Y92.477 E23.41302
G1 X178.504 Y92.254 E23.61634
G1 X178.787 Y92.209 E23.67925
G1 X179.727 Y92.14 E23.88615
G1 X203.365 Y92.146 E29.07509
G1 X204.978 Y92.272 E29.43025
G1 X206.583 Y92.653 E29.79236
G1 X206.854 Y92.741 E29.85491
G1 X208.375 Y93.372 E30.21639
G1 X209.88 Y94.295 E30.60394
G1 X211.241 Y95.456 E30.99664
G1 X212.303 Y96.7 E31.3557
G1 X212.468 Y96.928 E31.41748
G1 X213.246 Y98.196 E31.74404
G1 X213.374 Y98.447 E31.80589
G1 X213.947 Y99.831 E32.13471
G1 X214.035 Y100.101 E32.19705
G1 F1144.7 X214.266 Y100.815 E32.36975
G1 F1046.5 X214.497 Y101.53 E32.55888
G1 F1015.5 X214.529 Y101.828 E32.63663
G1 F1048.8 X214.616 Y103.309 E33.00924
G1 F1073 X214.62 Y127.561 E38.96294
G1 F1074.6 X215.96 Y127.561 E39.29141
G1 X215.96 Y103.456 E45.2002
G1 F1050.3 X215.929 Y101.774 E45.62211
G1 F1015.5 X215.913 Y101.363 E45.72881
G1 F1046.5 X215.971 Y100.615 E45.91765
G1 F1144.7 X216.03 Y99.866 E46.09055
G1 F1200 X216.03 Y96.917 E46.73791
G1 X215.932 Y95.655 E47.01577
G1 X215.655 Y94.489 E47.27885
G1 X215.205 Y93.385 E47.54056
G1 X214.584 Y92.358 E47.80401
G1 X213.815 Y91.44 E48.06689
G1 X212.914 Y90.656 E48.32907
G1 X211.908 Y90.021 E48.59022
G1 X210.792 Y89.54 E48.85698
G1 X209.593 Y89.231 E49.12878
G1 X182.134 Y84.39 E55.24946
G1 X180.479 Y83.958 E55.62493
G1 X179.027 Y83.332 E55.97203
G1 X178.778 Y83.201 E56.03379
G1 X177.41 Y82.331 E56.38967
G1 X176.084 Y81.179 E56.77526
G1 X174.965 Y79.848 E57.15698
G1 X174.049 Y78.329 E57.54636
G1 X173.386 Y76.709 E57.9306
G1 X172.98 Y75.002 E58.31577
G1 X172.852 Y73.329 E58.6841
G1 X172.85 Y54.013 E62.92429
G1 X62.151 Y54.013 E87.22459
G1 X62.151 Y73.248 E91.44699
G1 X62.014 Y75.024 E91.83801
G1 X61.613 Y76.713 E92.21908
G1 X60.958 Y78.315 E92.59901
G1 X60.037 Y79.842 E92.99046
G1 X58.916 Y81.18 E93.37364
G1 X57.589 Y82.331 E93.75924
G1 X56.222 Y83.201 E94.11494
G1 X55.974 Y83.331 E94.17641
G1 X54.525 Y83.958 E94.52299
G1 X52.868 Y84.389 E94.89883
G1 X25.407 Y89.231 E101.01998
G1 X24.207 Y89.54 E101.29199
G1 X23.091 Y90.021 E101.55876
G1 X22.086 Y90.656 E101.81972
G1 X21.185 Y91.44 E102.0819
G1 X20.416 Y92.358 E102.34478
G1 X19.795 Y93.385 E102.60823
G1 X19.345 Y94.488 E102.86973
G1 X19.066 Y95.663 E103.13484
G1 X18.97 Y96.916 E103.4107
G1 X18.971 Y99.866 E104.05827
G1 F1144.7 X19.029 Y100.614 E104.23092
G1 F1047.3 X19.088 Y101.363 E104.4199
G1 F1015.5 X19.071 Y101.773 E104.52635
G1 F1050.3 X19.04 Y103.467 E104.95127
G1 F1074.6 X19.04 Y127.561 E110.85736
G1 X20.38 Y127.561 E111.18583
G1 F1073.8 X20.384 Y103.32 E117.1324
G1 F1048.8 X20.471 Y101.828 E117.50777
G1 F1015.5 X20.502 Y101.53 E117.58549
G1 F1047.3 X20.733 Y100.816 E117.77425
G1 F1144.7 X20.965 Y100.101 E117.94723
G1 F1200 X21.052 Y99.831 E118.0095
G1 X21.626 Y98.447 E118.33841
G1 X21.754 Y98.196 E118.40026
G1 X22.531 Y96.928 E118.72671
G1 X22.697 Y96.7 E118.78862
G1 X23.759 Y95.456 E119.14767
G1 X25.12 Y94.295 E119.54037
G1 X26.618 Y93.377 E119.92604
G1 X28.29 Y92.683 E120.32343
G1 X30.02 Y92.272 E120.71377
G1 X31.624 Y92.147 E121.06694
G1 X55.309 Y92.141 E126.2662
G1 X56.203 Y92.208 E126.463
G1 X56.482 Y92.252 E126.525
G1 X57.393 Y92.475 E126.73088
G1 X58.366 Y92.871 E126.96148
G1 X59.28 Y93.426 E127.19622
G1 X60.042 Y94.068 E127.41494
G1 X60.23 Y94.258 E127.47362
G1 X60.836 Y94.967 E127.67836
G1 X61.4 Y95.888 E127.91543
G1 X61.82 Y96.901 E128.15616
G1 X62.071 Y97.954 E128.39378
G1 X62.149 Y98.933 E128.60937
G1 X62.15 Y149.291 E139.6638
G1 X172.85 Y149.291 E163.96432
G1 F2100 E153.96432
G0 F6000 X62.02 Y149.421
G0 X60.95 Y150.491
;TYPE:WALL-OUTER
G1 F2100 E163.96432
G1 F1200 X174.05 Y150.491 E188.79168
G1 X174.051 Y98.975 E200.10032
G1 X174.118 Y98.131 E200.28617
G1 X174.336 Y97.243 E200.48689
G1 X174.664 Y96.45 E200.67527
G1 X175.119 Y95.704 E200.86709
G1 X175.692 Y95.026 E201.06195
G1 X176.368 Y94.442 E201.25805
G1 X177.144 Y93.961 E201.45847
G1 X177.973 Y93.619 E201.65532
G1 X178.833 Y93.409 E201.84965
G1 X179.727 Y93.34 E202.04649
G1 X203.271 Y93.342 E207.21479
G1 X204.811 Y93.463 E207.55389
G1 X206.353 Y93.832 E207.90194
G1 X207.801 Y94.434 E208.24618
G1 X209.173 Y95.27 E208.59886
G1 X210.365 Y96.285 E208.94254
G1 X211.419 Y97.513 E209.29778
G1 X212.247 Y98.864 E209.64562
G1 X212.857 Y100.333 E209.99478
G1 X213.228 Y101.885 E210.34507
G1 X213.348 Y103.409 E210.68065
G1 X213.35 Y128.831 E216.26121
G1 X217.23 Y128.831 E217.11294
G1 X217.23 Y96.871 E224.1287
G1 X217.121 Y95.469 E224.43739
G1 X216.801 Y94.121 E224.74152
G1 X216.281 Y92.845 E225.04399
G1 X215.563 Y91.658 E225.34852
G1 X214.674 Y90.597 E225.65237
G1 X213.632 Y89.69 E225.95563
G1 X212.47 Y88.956 E226.25733
G1 X211.182 Y88.401 E226.5652
G1 X209.847 Y88.057 E226.86783
G1 X182.37 Y83.211 E232.99258
G1 X180.904 Y82.831 E233.32503
G1 X179.46 Y82.212 E233.66991
G1 X178.125 Y81.367 E234.01674
G1 X176.948 Y80.34 E234.35964
G1 X175.961 Y79.168 E234.69599
G1 X175.131 Y77.801 E235.04705
G1 X174.533 Y76.341 E235.39339
G1 X174.176 Y74.841 E235.73186
G1 X174.051 Y73.282 E236.07518
G1 X174.05 Y52.813 E240.56848
G1 X60.951 Y52.813 E265.39562
G1 X60.949 Y73.295 E269.89176
G1 X60.833 Y74.786 E270.22005
G1 X60.467 Y76.341 E270.57073
G1 X59.874 Y77.792 E270.91482
G1 X59.063 Y79.133 E271.25884
G1 X58.05 Y80.343 E271.60525
G1 X56.875 Y81.367 E271.94739
G1 X55.541 Y82.209 E272.29367
G1 X54.097 Y82.831 E272.63881
G1 X52.59 Y83.219 E272.98041
G1 X25.153 Y88.057 E279.09622
G1 X23.818 Y88.401 E279.39884
G1 X22.53 Y88.956 E279.70671
G1 X21.368 Y89.69 E280.00842
G1 X20.326 Y90.597 E280.31167
G1 X19.437 Y91.658 E280.61553
G1 X18.719 Y92.845 E280.92006
G1 X18.199 Y94.121 E281.22253
G1 X17.877 Y95.478 E281.52868
G1 X17.77 Y96.87 E281.83515
G1 X17.77 Y128.831 E288.85113
G1 X21.65 Y128.831 E289.70286
G1 X21.651 Y103.42 E295.281
G1 X21.771 Y101.885 E295.61899
G1 X22.143 Y100.333 E295.96933
G1 X22.753 Y98.864 E296.31849
G1 X23.581 Y97.513 E296.66633
G1 X24.635 Y96.285 E297.02157
G1 X25.823 Y95.273 E297.36415
G1 X27.176 Y94.443 E297.71259
G1 X28.632 Y93.839 E298.05862
G1 X30.176 Y93.467 E298.40725
G1 X31.718 Y93.343 E298.74684
G1 X55.317 Y93.342 E303.92722
G1 X56.155 Y93.408 E304.11174
G1 X57.024 Y93.617 E304.30794
G1 X57.85 Y93.959 E304.50419
G1 X58.62 Y94.435 E304.70291
G1 X59.284 Y95.001 E304.89443
G1 X59.862 Y95.675 E305.08934
G1 X60.326 Y96.431 E305.28406
G1 X60.672 Y97.268 E305.48288
G1 X60.875 Y98.102 E305.6713
G1 X60.95 Y98.99 E305.86692
G1 X60.95 Y150.491 E317.17226
G0 F6000 X62.02 Y149.421
G0 X63.254 Y148.887
G0 X63.254 Y148.187
;TYPE:SKIN
G1 F1200 X63.25 Y98.852 E328.00213
G1 X63.161 Y97.752 E328.24439
G1 X62.86 Y96.527 E328.52129
G1 X62.474 Y95.588 E328.74416
G1 X62.322 Y95.276 E328.82034
G1 X61.725 Y94.308 E329.07
G1 X61.044 Y93.509 E329.30045
G1 X60.783 Y93.249 E329.38133
G1 X60.05 Y92.626 E329.5925
G1 X59.767 Y92.429 E329.66819
G1 X58.836 Y91.87 E329.90657
G1 X57.948 Y91.504 E330.11741
G1 X57.635 Y91.393 E330.19031
G1 X56.753 Y91.18 E330.38949
G1 X56.281 Y91.106 E330.49437
G1 X55.388 Y91.039 E330.69095
G1 X35.852 Y91.038 E334.97943
G1 F1110.3 X35.587 Y90.941 E335.04638
G1 F965.1 X35.322 Y90.844 E335.1234
G1 F853.6 X35.057 Y90.747 E335.21049
G1 F818.2 X34.491 Y90.77 E335.39287
G1 F842.1 X33.925 Y90.795 E335.57009
G1 F866.9 X33.36 Y90.82 E335.74194
G1 F893.9 X32.794 Y90.844 E335.90889
G1 F921.9 X32.229 Y90.869 E336.07049
G1 F952.4 X31.663 Y90.894 E336.22719
G1 F999.3 X29.819 Y91.087 E336.71593
G1 F1014.1 X28.103 Y91.466 E337.17242
G1 F987.7 X27.799 Y91.546 E337.25626
G1 F946.1 X26.949 Y91.845 E337.50714
G1 F886.7 X26.099 Y92.144 E337.77482
G1 F847.1 X25.779 Y92.287 E337.88382
G1 F820.5 X25.427 Y92.469 E338.01104
G1 F800 X24.538 Y92.971 E338.34721
G1 F782.6 X24.098 Y93.279 E338.52799
G1 F773.4 X23.486 Y93.805 E338.80286
G1 F789.5 X22.892 Y94.357 E339.07343
G1 F816.3 X22.642 Y94.651 E339.19796
G1 F837.2 X22.416 Y94.941 E339.31364
G1 F845.6 X21.675 Y95.806 E339.66847
G1 X21.37 Y96.226 E339.83018
G1 X20.607 Y97.473 E340.28561
G1 X20.326 Y98.013 E340.47525
G1 X20.325 Y96.978 E340.79768
G1 X20.411 Y95.873 E341.14297
G1 X20.641 Y94.899 E341.45474
G1 X21.006 Y94.003 E341.75615
G1 F824.7 X21.559 Y93.174 E342.07443
G1 F789.5 X22.217 Y92.444 E342.40235
G1 F773.4 X22.942 Y91.813 E342.72973
G1 F775.9 X23.754 Y91.29 E343.05766
G1 F793 X24.671 Y90.861 E343.39398
G1 F835.8 X25.644 Y90.547 E343.71623
G1 F892.7 X26.532 Y90.34 E343.98527
G1 F948.6 X27.421 Y90.133 E344.23874
G1 F1004.9 X29.577 Y89.714 E344.81449
G1 F1002.1 X31.418 Y89.434 E345.304
G1 F957.4 X31.998 Y89.358 E345.46494
G1 F926 X32.579 Y89.281 E345.63166
G1 F896.6 X33.16 Y89.204 E345.80384
G1 F869 X33.741 Y89.128 E345.98145
G1 F843.1 X34.322 Y89.051 E346.16457
G1 F818.6 X34.903 Y88.974 E346.35315
G1 F853.6 X35.145 Y88.832 E346.43974
G1 F965.1 X35.39 Y88.69 E346.51703
G1 F1110.3 X35.635 Y88.548 E346.58422
G1 F1200 X53.08 Y85.473 E350.47273
G1 X54.893 Y85.004 E350.88381
G1 X56.633 Y84.248 E351.30027
G1 X58.064 Y83.345 E351.67171
G1 X58.375 Y83.116 E351.75649
G1 X59.547 Y82.098 E352.09726
G1 X59.798 Y81.845 E352.1755
G1 X60.801 Y80.653 E352.51747
G1 X61.01 Y80.37 E352.5947
G1 X61.954 Y78.797 E352.99741
G1 X62.602 Y77.212 E353.3733
G1 X62.722 Y76.83 E353.46119
G1 X63.115 Y75.152 E353.83951
G1 X63.252 Y73.383 E354.229
G1 X63.255 Y55.117 E358.23869
G1 X171.746 Y55.117 E382.0543
G1 X171.748 Y73.37 E386.06114
G1 X171.886 Y75.174 E386.45831
G1 X172.282 Y76.847 E386.83571
G1 X172.372 Y77.143 E386.90362
G1 X173.069 Y78.84 E387.30634
G1 X174.054 Y80.476 E387.72554
G1 X175.308 Y81.968 E388.15337
G1 X176.751 Y83.228 E388.5739
G1 X178.293 Y84.198 E388.9738
G1 X178.56 Y84.333 E389.03947
G1 X180.119 Y85.007 E389.41231
G1 X181.914 Y85.474 E389.81946
G1 X199.355 Y88.548 E393.70707
G1 F1110.3 X199.599 Y88.69 E393.77405
G1 F965.8 X199.844 Y88.832 E393.85129
G1 F854.6 X200.089 Y88.974 E393.93857
G1 F819.1 X200.65 Y89.047 E394.12051
G1 F842.6 X201.211 Y89.121 E394.29741
G1 F867.5 X201.772 Y89.195 E394.46924
G1 F894.4 X202.333 Y89.269 E394.6359
G1 F922.5 X202.894 Y89.343 E394.79748
G1 F952.4 X203.455 Y89.417 E394.95399
G1 F999.3 X205.422 Y89.715 E395.47842
G1 F1015.5 X207.152 Y90.046 E395.93531
G1 F987 X207.637 Y90.148 E396.06759
G1 F946.1 X208.519 Y90.354 E396.31977
G1 F892.2 X209.402 Y90.56 E396.58747
G1 F836.2 X210.327 Y90.861 E396.89389
G1 F793.4 X211.248 Y91.292 E397.23151
G1 F776.3 X212.049 Y91.809 E397.55502
G1 F773.8 X212.79 Y92.45 E397.88857
G1 F789.5 X213.44 Y93.173 E398.21297
G1 F824.7 X213.989 Y93.998 E398.52948
G1 F845.6 X214.361 Y94.905 E398.83488
G1 X214.589 Y95.869 E399.14348
G1 X214.674 Y96.96 E399.48439
G1 X214.675 Y98.02 E399.81462
G1 X214.396 Y97.477 E400.0048
G1 X213.627 Y96.223 E400.46307
G1 X213.366 Y95.86 E400.60235
G1 X212.578 Y94.934 E400.98114
G1 F837.2 X212.358 Y94.651 E401.09393
G1 F816.8 X212.107 Y94.356 E401.21884
G1 F789.5 X211.521 Y93.81 E401.48609
G1 F773.8 X210.897 Y93.275 E401.76591
G1 F776.3 X210.599 Y93.064 E401.88981
G1 F779.6 X210.333 Y92.897 E401.99593
G1 F793.4 X209.571 Y92.467 E402.28643
G1 F821.4 X209.216 Y92.284 E402.41451
G1 F847.6 X208.902 Y92.142 E402.52162
G1 F885.1 X208.117 Y91.866 E402.76927
G1 F939.3 X207.331 Y91.589 E403.00298
G1 F981.6 X206.923 Y91.472 E403.11689
G1 F1012.7 X205.18 Y91.087 E403.58122
G1 F999.3 X203.326 Y90.893 E404.07261
G1 F952.4 X202.761 Y90.869 E404.22902
G1 F922.5 X202.196 Y90.844 E404.39052
G1 F894.4 X201.63 Y90.819 E404.55738
G1 F867.5 X201.065 Y90.795 E404.7291
G1 F842.6 X200.499 Y90.77 E404.90622
G1 F819.1 X199.934 Y90.745 E405.0881
G1 F854.6 X199.669 Y90.841 E405.17498
G1 F965.8 X199.404 Y90.938 E405.25195
G1 F1110.3 X199.139 Y91.035 E405.3189
G1 F1200 X179.68 Y91.036 E409.59048
G1 X178.712 Y91.106 E409.80353
G1 X178.28 Y91.173 E409.89949
G1 X177.349 Y91.4 E410.10985
G1 X177.076 Y91.496 E410.17338
G1 X176.12 Y91.891 E410.40044
G1 X175.232 Y92.429 E410.62836
G1 X174.962 Y92.612 E410.69996
G1 X174.263 Y93.207 E410.90146
G1 X173.968 Y93.497 E410.99227
G1 X173.396 Y94.165 E411.18532
G1 X173.193 Y94.437 E411.25983
G1 X172.643 Y95.342 E411.4923
G1 X172.516 Y95.609 E411.5572
G1 X172.127 Y96.564 E411.78357
G1 X171.84 Y97.757 E412.05292
G1 X171.748 Y98.89 E412.30245
G1 X171.746 Y148.186 E423.12376
G1 X63.254 Y148.187 E446.93958
G0 F6000 X63.254 Y148.887
G0 X64.43 Y148.887
G0 X64.43 Y147.585
G1 F1200 X63.853 Y147.008 E447.11871
G0 F6000 X62.553 Y147.008
G0 X62.553 Y145.311
G0 X63.853 Y145.311
G1 F1200 X66.127 Y147.585 E447.82466
G0 F6000 X66.127 Y148.887
G0 X67.824 Y148.887
G0 X67.824 Y147.585
G1 F1200 X63.853 Y143.614 E449.05743
G0 F6000 X62.553 Y143.614
G0 X62.553 Y141.917
G0 X63.853 Y141.917
G1 F1200 X69.521 Y147.585 E450.81703
G0 F6000 X69.521 Y148.887
G0 X71.218 Y148.887
G0 X71.218 Y147.585
G1 F1200 X63.853 Y140.22 E453.10344
G0 F6000 X62.553 Y140.22
G0 X62.553 Y138.522
G0 X63.852 Y138.522
G1 F1200 X72.915 Y147.585 E455.917
G0 F6000 X72.915 Y148.887
G0 X74.612 Y148.887
G0 X74.612 Y147.585
G1 F1200 X63.852 Y136.825 E459.25737
G0 F6000 X62.553 Y136.825
G0 X62.552 Y135.128
G0 X63.852 Y135.128
G1 F1200 X76.309 Y147.585 E463.12457
G0 F6000 X76.309 Y148.887
G0 X78.006 Y148.887
G0 X78.006 Y147.585
G1 F1200 X63.852 Y133.431 E467.51859
G0 F6000 X62.552 Y133.431
G0 X62.552 Y131.734
G0 X63.852 Y131.734
G1 F1200 X79.703 Y147.585 E472.43943
G0 F6000 X79.703 Y148.887
G0 X81.4 Y148.887
G0 X81.4 Y147.585
G1 F1200 X63.851 Y130.036 E477.88741
G0 F6000 X62.552 Y130.036
G0 X62.552 Y128.339
G0 X63.851 Y128.339
G1 F1200 X83.097 Y147.585 E483.86221
G0 F6000 X83.097 Y148.887
G0 X84.794 Y148.887
G0 X84.794 Y147.585
G1 F1200 X63.851 Y126.642 E490.36384
G0 F6000 X62.552 Y126.642
G0 X62.552 Y124.945
G0 X63.851 Y124.945
G1 F1200 X86.491 Y147.585 E497.39228
G0 F6000 X86.491 Y148.887
G0 X88.188 Y148.887
G0 X88.188 Y147.585
G1 F1200 X63.851 Y123.248 E504.94755
G0 F6000 X62.551 Y123.248
G0 X62.551 Y121.55
G0 X63.851 Y121.55
G1 F1200 X89.885 Y147.585 E513.0298
G0 F6000 X89.885 Y148.887
G0 X91.583 Y148.887
G0 X91.583 Y147.585
G1 F1200 X63.851 Y119.853 E521.63903
G0 F6000 X62.551 Y119.853
G0 X62.551 Y118.156
G0 X63.851 Y118.156
G1 F1200 X93.28 Y147.585 E530.77508
G0 F6000 X93.28 Y148.887
G0 X94.977 Y148.887
G0 X94.977 Y147.585
