;FLAVOR:Marlin
;TIME:13841
;Filament used: 16.6071m
;Layer height: 0.32
;MINX:82.25
;MINY:26.741
;MINZ:0.32
;MAXX:217.75
;MAXY:273.284
;MAXZ:3.2
;Generated with Cura_SteamEngine main
M82 ;absolute extrusion mode
; Set up printer settings
M201 X500.00 Y500.00 Z100.00 E5000.00 ;Setup machine max acceleration
M203 X500.00 Y500.00 Z10.00 E50.00 ;Setup machine max feedrate
M204 P500.00 R1000.00 T500.00 ;Setup Print/Retract/Travel acceleration
M205 X8.00 Y8.00 Z0.40 E5.00 ;Setup Jerk
M220 S100 ;Reset Feedrate
M221 S100 ;Reset Flowrate
; Begin heating bed and extruder
M140 S50
M104 S200
; Home axes and load mesh grid
G28
M420 S1
; Finish heating
G1 Z2.0 F3000 ;Move Z Axis up
M190 S50
M109 S200
; Prepare to print
G92 E0 ;Reset Extruder
G92 E0 ;Reset Extruder
G1 Z2.0 F3000 ;Move Z Axis up
G1 X10.1 Y20 Z0.28 F5000.0 ;Move to start position
G1 X10.1 Y200.0 Z0.28 F1500.0 E15 ;Draw the first line
G1 X10.4 Y200.0 Z0.28 F5000.0 ;Move to side a little
G1 X10.4 Y20 Z0.28 F1500.0 E30 ;Draw the second line
G92 E0 ;Reset Extruder
G1 Z2.0 F3000 ;Move Z Axis up
G92 E0
G92 E0
G1 F2700 E-5
;LAYER_COUNT:10
;LAYER:0
M107
G0 F6000 X82.949 Y33.59 Z0.32
G0 X82.251 Y37.856
;TYPE:SKIRT
G1 F2700 E0
G1 F1200 X82.261 Y37.191 E0.03539
G1 X82.315 Y36.272 E0.08438
G1 X82.448 Y35.361 E0.13338
G1 X82.66 Y34.465 E0.18237
G1 X82.949 Y33.59 E0.23141
G1 X83.313 Y32.745 E0.28038
G1 X83.748 Y31.934 E0.32935
G1 X84.253 Y31.163 E0.3784
G1 X84.822 Y30.44 E0.42736
G1 X85.452 Y29.768 E0.47638
G1 X86.138 Y29.154 E0.52537
G1 X86.874 Y28.602 E0.57433
G1 X87.656 Y28.115 E0.62336
G1 X88.477 Y27.699 E0.67234
G1 X89.331 Y27.355 E0.72133
G1 X90.211 Y27.086 E0.7703
G1 X91.112 Y26.895 E0.81931
G1 X92.026 Y26.783 E0.86832
G1 X92.562 Y26.754 E0.89688
G1 X93.18 Y26.741 E0.92978
G1 X206.595 Y26.742 E6.96529
G1 X207.293 Y26.752 E7.00244
G1 X208.212 Y26.805 E7.05143
G1 X209.123 Y26.938 E7.10042
G1 X210.019 Y27.149 E7.14941
G1 X210.893 Y27.437 E7.19838
G1 X211.74 Y27.8 E7.24742
G1 X212.551 Y28.235 E7.29639
G1 X213.321 Y28.739 E7.34537
G1 X214.045 Y29.308 E7.39437
G1 X214.717 Y29.938 E7.44339
G1 X215.332 Y30.623 E7.49238
G1 X215.885 Y31.359 E7.54137
G1 X216.372 Y32.14 E7.59035
G1 X216.789 Y32.961 E7.63935
G1 X217.134 Y33.815 E7.68837
G1 X217.403 Y34.695 E7.73734
G1 X217.595 Y35.596 E7.78636
G1 X217.708 Y36.509 E7.83532
G1 X217.737 Y37.053 E7.86431
G1 X217.75 Y37.671 E7.89721
G1 X217.749 Y125.689 E12.58119
G1 X217.739 Y126.375 E12.6177
G1 X217.685 Y127.294 E12.66669
G1 X217.553 Y128.205 E12.71568
G1 X217.351 Y129.064 E12.76264
G1 X217.062 Y130.097 E12.81972
G1 X181.621 Y249.359 E19.4407
G1 X181.407 Y250.042 E19.47879
G1 X181.211 Y250.611 E19.51082
G1 X180.951 Y251.301 E19.55006
G1 X180 Y253.723 E19.68852
G1 X179.72 Y254.408 E19.72791
G1 X179.335 Y255.244 E19.77689
G1 X179.051 Y255.76 E19.80823
G1 X178.605 Y256.519 E19.85508
G1 X177.371 Y258.553 E19.98168
G1 X176.93 Y259.259 E20.02598
G1 X176.407 Y260.018 E20.07503
G1 X176.041 Y260.476 E20.10623
G1 X175.432 Y261.195 E20.15637
G1 X173.844 Y263.018 E20.28503
G1 X173.362 Y263.558 E20.32355
G1 X172.72 Y264.217 E20.37251
G1 X172.262 Y264.624 E20.40512
G1 X171.682 Y265.11 E20.44539
G1 X169.685 Y266.737 E20.58247
G1 X169.112 Y267.192 E20.6214
G1 X168.367 Y267.733 E20.6704
G1 X167.854 Y268.051 E20.70252
G1 X167.039 Y268.525 E20.75269
G1 X164.912 Y269.721 E20.88255
G1 X164.286 Y270.062 E20.92049
G1 X163.459 Y270.466 E20.96947
G1 X162.925 Y270.683 E21.00014
G1 X162.049 Y271.009 E21.04988
G1 X159.874 Y271.783 E21.17274
G1 X159.039 Y272.067 E21.21967
G1 X158.155 Y272.324 E21.26866
G1 X157.6 Y272.444 E21.29888
G1 X156.878 Y272.58 E21.33798
G1 X154.433 Y273.003 E21.47002
G1 X153.546 Y273.144 E21.51782
G1 X152.632 Y273.248 E21.56677
G1 X152.044 Y273.273 E21.59809
G1 X151.187 Y273.284 E21.6437
G1 X148.658 Y273.283 E21.77829
G1 X147.961 Y273.273 E21.81538
G1 X147.042 Y273.22 E21.86437
G1 X146.466 Y273.145 E21.89528
G1 X145.55 Y273 E21.94463
G1 X143.129 Y272.582 E22.07538
G1 X142.436 Y272.453 E22.11289
G1 X141.539 Y272.245 E22.16189
G1 X140.961 Y272.067 E22.19407
G1 X140.241 Y271.822 E22.23455
G1 X137.737 Y270.931 E22.37599
G1 X137.087 Y270.688 E22.41291
G1 X136.24 Y270.328 E22.46189
G1 X135.753 Y270.081 E22.49095
G1 X134.959 Y269.65 E22.53903
G1 X132.873 Y268.476 E22.66641
G1 X132.161 Y268.062 E22.71024
G1 X131.387 Y267.564 E22.75922
G1 X130.927 Y267.22 E22.78979
G1 X130.158 Y266.611 E22.84199
G1 X128.421 Y265.195 E22.96125
G1 X127.746 Y264.631 E23.00806
G1 X127.067 Y264.01 E23.05702
G1 X126.643 Y263.563 E23.08981
G1 X126.061 Y262.91 E23.13636
G1 X124.533 Y261.155 E23.26019
G1 X123.968 Y260.488 E23.30671
G1 X123.405 Y259.76 E23.35569
G1 X123.089 Y259.287 E23.38596
G1 X122.688 Y258.649 E23.42606
G1 X121.384 Y256.5 E23.55983
G1 X120.957 Y255.775 E23.6046
G1 X120.526 Y254.962 E23.65357
G1 X120.286 Y254.421 E23.68507
G1 X119.999 Y253.72 E23.72538
G1 X119.044 Y251.29 E23.86432
G1 X118.787 Y250.609 E23.90306
G1 X118.582 Y250.013 E23.9366
G1 X118.335 Y249.216 E23.981
G1 X82.846 Y129.784 E30.61138
G1 X82.663 Y129.135 E30.64726
G1 X82.452 Y128.239 E30.69625
G1 X82.319 Y127.328 E30.74524
G1 X82.267 Y126.442 E30.79247
G1 X82.25 Y125.392 E30.84836
G1 X82.251 Y37.856 E35.50669
G0 F6000 X82.651 Y37.862
G1 F1200 X82.661 Y37.197 E35.54209
G1 X82.715 Y36.295 E35.59017
G1 X82.848 Y35.402 E35.63822
G1 X83.059 Y34.524 E35.68627
G1 X83.348 Y33.668 E35.73435
G1 X83.711 Y32.841 E35.78242
G1 X84.145 Y32.05 E35.83043
G1 X84.648 Y31.299 E35.87853
G1 X85.216 Y30.597 E35.92659
G1 X85.843 Y29.947 E35.97465
G1 X86.525 Y29.355 E36.02271
G1 X87.257 Y28.826 E36.07077
G1 X88.033 Y28.364 E36.11883
G1 X88.847 Y27.973 E36.16688
G1 X89.692 Y27.654 E36.21495
G1 X90.562 Y27.412 E36.26301
G1 X91.45 Y27.248 E36.31106
G1 X92.573 Y27.154 E36.37103
G1 X93.18 Y27.141 E36.40334
G1 X206.589 Y27.142 E42.43854
G1 X207.287 Y27.152 E42.47569
G1 X208.189 Y27.205 E42.52377
G1 X209.082 Y27.337 E42.57181
G1 X209.96 Y27.548 E42.61986
G1 X210.816 Y27.836 E42.66793
G1 X211.643 Y28.198 E42.71597
G1 X212.435 Y28.633 E42.76405
G1 X213.186 Y29.135 E42.81213
G1 X213.889 Y29.702 E42.86019
G1 X214.539 Y30.329 E42.90825
G1 X215.131 Y31.011 E42.95631
G1 X215.661 Y31.742 E43.00436
G1 X216.123 Y32.518 E43.05242
G1 X216.516 Y33.331 E43.10047
G1 X216.834 Y34.176 E43.14852
G1 X217.077 Y35.046 E43.19659
G1 X217.242 Y35.934 E43.24466
G1 X217.337 Y37.064 E43.305
G1 X217.35 Y37.671 E43.33731
G1 X217.349 Y125.683 E48.02098
G1 X217.339 Y126.369 E48.05749
G1 X217.286 Y127.27 E48.10552
G1 X217.153 Y128.164 E48.15362
G1 X216.966 Y128.957 E48.19697
G1 X216.727 Y129.815 E48.24437
G1 X181.239 Y249.24 E54.87438
G1 X181.025 Y249.923 E54.91247
G1 X180.837 Y250.47 E54.94325
G1 X180.526 Y251.292 E54.99002
G1 X179.63 Y253.571 E55.12034
G1 X179.35 Y254.256 E55.15972
G1 X178.971 Y255.076 E55.20779
G1 X178.706 Y255.558 E55.23706
G1 X178.263 Y256.312 E55.2836
G1 X177.029 Y258.346 E55.4102
G1 X176.591 Y259.047 E55.45419
G1 X176.078 Y259.79 E55.50224
G1 X175.736 Y260.218 E55.53139
G1 X175.131 Y260.932 E55.5812
G1 X173.546 Y262.751 E55.70959
G1 X173.064 Y263.291 E55.74811
G1 X172.433 Y263.938 E55.7962
G1 X172.005 Y264.317 E55.82663
G1 X171.317 Y264.893 E55.87438
G1 X169.536 Y266.344 E55.99663
G1 X168.863 Y266.879 E56.04238
G1 X168.132 Y267.409 E56.09043
G1 X167.653 Y267.705 E56.1204
G1 X166.843 Y268.176 E56.17026
G1 X164.844 Y269.301 E56.29233
G1 X164.094 Y269.71 E56.33779
G1 X163.283 Y270.107 E56.38584
G1 X162.785 Y270.308 E56.41442
G1 X161.915 Y270.632 E56.46382
G1 X159.74 Y271.406 E56.58668
G1 X158.91 Y271.688 E56.63333
G1 X158.043 Y271.939 E56.68136
G1 X157.526 Y272.051 E56.70951
G1 X156.804 Y272.187 E56.74861
G1 X154.365 Y272.609 E56.88033
G1 X153.484 Y272.749 E56.9278
G1 X152.587 Y272.85 E56.97584
G1 X152.038 Y272.873 E57.00508
G1 X151.187 Y272.884 E57.05037
G1 X148.664 Y272.883 E57.18464
G1 X147.967 Y272.873 E57.22173
G1 X147.065 Y272.82 E57.26982
G1 X146.528 Y272.75 E57.29864
G1 X145.618 Y272.606 E57.34767
G1 X143.202 Y272.189 E57.47814
G1 X142.509 Y272.06 E57.51565
G1 X141.63 Y271.855 E57.56368
G1 X141.09 Y271.688 E57.59376
G1 X140.238 Y271.397 E57.64167
G1 X137.877 Y270.556 E57.77505
G1 X137.227 Y270.313 E57.81198
G1 X136.396 Y269.96 E57.86003
G1 X135.943 Y269.729 E57.88709
G1 X135.155 Y269.301 E57.93481
G1 X133.069 Y268.127 E58.06219
G1 X132.362 Y267.716 E58.10571
G1 X131.603 Y267.227 E58.15376
G1 X131.175 Y266.906 E58.18223
G1 X130.411 Y266.301 E58.23409
G1 X128.674 Y264.885 E58.35335
G1 X128.003 Y264.324 E58.39989
G1 X127.337 Y263.715 E58.44792
G1 X126.941 Y263.296 E58.4786
G1 X126.363 Y262.648 E58.52481
G1 X124.835 Y260.893 E58.64864
G1 X124.274 Y260.23 E58.69486
G1 X123.722 Y259.515 E58.74293
G1 X123.428 Y259.074 E58.77113
G1 X123.027 Y258.436 E58.81123
G1 X121.654 Y256.172 E58.95214
G1 X121.302 Y255.573 E58.98911
G1 X120.879 Y254.775 E59.03718
G1 X120.656 Y254.27 E59.06655
G1 X120.369 Y253.569 E59.10686
G1 X119.468 Y251.279 E59.23782
G1 X119.161 Y250.467 E59.28402
G1 X118.964 Y249.894 E59.31626
G1 X118.756 Y249.225 E59.35355
G1 X83.231 Y129.675 E65.99049
G1 X83.048 Y129.026 E66.02638
G1 X82.841 Y128.147 E66.07443
G1 X82.714 Y127.253 E66.12248
G1 X82.667 Y126.435 E66.16609
G1 X82.65 Y125.392 E66.2216
G1 X82.651 Y37.862 E70.87961
G1 F2700 E65.87961
;MESH:Colin Butrym Robot Top.STL
G0 F6000 X92.185 Y37.862
G0 X93.27 Y37.862
G0 X93.672 Y39.137
G1 F2700 E70.87961
G0 F6000 X93.507 Y40.016
;TYPE:WALL-INNER
G1 F1081.1 X93.613 Y39.776 E70.89511
G1 F1159.4 X93.72 Y39.536 E70.90959
G1 F1200 X93.892 Y39.198 E70.92977
G1 X94.143 Y38.859 E70.95222
G1 X94.447 Y38.564 E70.97476
G1 X94.797 Y38.328 E70.99722
G1 X95.145 Y38.171 E71.01754
G1 F1057.3 X95.589 Y37.993 E71.04643
G1 F1052.6 X95.211 Y37.943 E71.06956
G1 F1191.1 X94.33 Y37.942 E71.1168
G1 F1197 X93.449 Y37.941 E71.1638
G1 F1200 X93.45 Y39.596 E71.25187
G1 F1118.9 X93.507 Y40.016 E71.27606
G0 F6000 X93.672 Y39.137
G0 X93.991 Y38.414
G1 F879.1 X93.957 Y38.472 E71.28095
G1 X93.889 Y38.472 E71.28589
G1 X93.856 Y38.414 E71.29073
G1 X93.89 Y38.356 E71.29562
G1 X93.957 Y38.356 E71.30048
G1 F2700 E66.30048
G0 F6000 X95.631 Y38.206
G0 X152.894 Y37.761
G0 X152.715 Y62.255
G0 X154.187 Y62.999
G0 X154.64 Y63.305
G0 X155.036 Y63.683
G0 X155.361 Y64.124
G0 X155.607 Y64.612
G0 X155.767 Y65.136
G0 X155.835 Y65.677
G0 X155.812 Y66.223
G0 X155.698 Y66.758
G0 X155.493 Y67.264
G0 X155.208 Y67.729
G0 X154.845 Y68.14
G0 X154.42 Y68.484
G0 X152.894 Y69.188
G1 F2700 E71.30048
G1 F1200 X152.341 Y69.184 E71.32991
G1 X151.759 Y69.091 E71.36128
G1 X151.208 Y68.889 E71.39251
G1 X150.725 Y68.62 E71.42193
G1 X150.281 Y68.265 E71.45218
G1 X149.894 Y67.826 E71.48332
G1 X149.588 Y67.321 E71.51475
G1 X149.371 Y66.783 E71.54562
G1 X149.257 Y66.212 E71.57661
G1 X149.236 Y65.673 E71.60531
G1 X149.312 Y65.086 E71.63681
G1 X149.472 Y64.558 E71.66617
G1 X149.733 Y64.04 E71.69704
G1 X150.084 Y63.566 E71.72842
G1 X150.512 Y63.164 E71.75967
G1 X150.991 Y62.846 E71.79027
G1 X151.513 Y62.617 E71.8206
G1 X152.038 Y62.48 E71.84948
G1 X152.627 Y62.428 E71.88094
G1 X153.192 Y62.48 E71.91114
G1 X153.717 Y62.617 E71.94001
G1 X154.237 Y62.845 E71.97023
G1 X154.739 Y63.176 E72.00223
G1 X155.16 Y63.586 E72.0335
G1 X155.497 Y64.038 E72.0635
G1 X155.755 Y64.55 E72.09401
G1 X155.918 Y65.084 E72.12372
G1 X155.998 Y65.687 E72.1561
G1 X155.966 Y66.265 E72.1869
G1 X155.857 Y66.788 E72.21533
G1 X155.639 Y67.334 E72.24662
G1 X155.337 Y67.826 E72.27734
G1 X154.95 Y68.265 E72.30848
G1 X154.491 Y68.626 E72.33956
G1 X154.011 Y68.897 E72.36889
G1 X153.553 Y69.061 E72.39478
G1 X153.447 Y69.092 E72.40066
G1 X152.894 Y69.188 E72.43053
G0 F6000 X152.371 Y68.785
G1 F1200 X151.872 Y68.702 E72.45745
G1 X151.403 Y68.538 E72.48389
G1 X150.963 Y68.295 E72.51064
G1 X150.573 Y67.986 E72.53711
G1 X150.23 Y67.603 E72.56448
G1 X149.942 Y67.133 E72.59381
G1 X149.765 Y66.689 E72.61925
G1 X149.655 Y66.173 E72.64732
G1 X149.638 Y65.657 E72.6748
G1 X149.697 Y65.196 E72.69953
G1 X149.847 Y64.704 E72.7269
G1 X150.089 Y64.23 E72.75522
G1 X150.366 Y63.856 E72.77999
G1 X150.728 Y63.503 E72.8069
G1 X151.176 Y63.201 E72.83565
G1 X151.606 Y63.008 E72.86073
G1 X152.107 Y62.874 E72.88833
G1 X152.598 Y62.832 E72.91456
G1 X153.123 Y62.874 E72.94258
G1 X153.624 Y63.008 E72.97018
G1 X154.083 Y63.217 E72.99702
G1 X154.465 Y63.474 E73.02152
G1 X154.853 Y63.839 E73.04987
G1 X155.145 Y64.236 E73.0761
G1 X155.382 Y64.702 E73.10392
G1 X155.528 Y65.175 E73.13026
G1 X155.593 Y65.671 E73.15688
G1 X155.571 Y66.204 E73.18527
G1 X155.462 Y66.696 E73.21209
G1 X155.286 Y67.139 E73.23745
G1 X155.029 Y67.564 E73.26388
G1 X154.698 Y67.947 E73.29082
G1 X154.285 Y68.283 E73.31916
G1 X153.829 Y68.537 E73.34693
G1 X153.419 Y68.684 E73.37011
G1 X153.355 Y68.703 E73.37367
G1 X152.871 Y68.784 E73.39978
G1 X152.371 Y68.785 E73.42639
G0 F6000 X152.834 Y68.386
;TYPE:WALL-OUTER
G1 F1200 X152.381 Y68.384 E73.4505
G1 X151.957 Y68.311 E73.47339
G1 X151.55 Y68.166 E73.49638
G1 X151.164 Y67.948 E73.51997
G1 X150.817 Y67.666 E73.54377
G1 X150.534 Y67.342 E73.56666
G1 X150.306 Y66.967 E73.59002
G1 X150.143 Y66.557 E73.6135
G1 X150.053 Y66.133 E73.63656
G1 X150.037 Y65.689 E73.66021
G1 X150.09 Y65.272 E73.68258
G1 X150.213 Y64.868 E73.70505
G1 X150.416 Y64.461 E73.72925
G1 X150.674 Y64.111 E73.75239
G1 X150.989 Y63.807 E73.77569
G1 X151.36 Y63.556 E73.79953
G1 X151.76 Y63.378 E73.82283
G1 X152.176 Y63.268 E73.84573
G1 X152.632 Y63.232 E73.87007
G1 X153.054 Y63.268 E73.89261
G1 X153.47 Y63.378 E73.9155
G1 X153.879 Y63.561 E73.93935
G1 X154.244 Y63.809 E73.96283
G1 X154.562 Y64.119 E73.98647
G1 X154.806 Y64.448 E74.00826
G1 X155.011 Y64.852 E74.03237
G1 X155.142 Y65.285 E74.05645
G1 X155.194 Y65.7 E74.0787
G1 X155.177 Y66.132 E74.10171
G1 X155.087 Y66.556 E74.12478
G1 X154.924 Y66.969 E74.14841
G1 X154.693 Y67.347 E74.17198
G1 X154.388 Y67.689 E74.19637
G1 X154.046 Y67.961 E74.21962
G1 X153.68 Y68.166 E74.24194
G1 X153.285 Y68.307 E74.26426
G1 X152.834 Y68.386 E74.28863
G1 F2700 E69.28863
G0 F6000 X152.834 Y69.086
G0 X153.943 Y68.75
G0 X154.42 Y68.484
G0 X154.845 Y68.14
G0 X155.05 Y67.908
G0 X156.132 Y66.36
G0 X176.371 Y52.649
G0 X177.778 Y52.941
;TYPE:WALL-INNER
G1 F2700 E74.28863
G1 F1200 X177.302 Y52.858 E74.31434
G1 X176.804 Y52.687 E74.34236
G1 X176.365 Y52.432 E74.36938
G1 X176.007 Y52.141 E74.39393
G1 X175.678 Y51.774 E74.42016
G1 X175.416 Y51.346 E74.44687
G1 X175.24 Y50.905 E74.47214
G1 X175.127 Y50.403 E74.49952
G1 X175.114 Y49.895 E74.52656
G1 X175.174 Y49.43 E74.55151
G1 X175.318 Y48.96 E74.57767
G1 X175.54 Y48.519 E74.60394
G1 X175.828 Y48.123 E74.63
G1 X176.187 Y47.775 E74.65661
G1 X176.596 Y47.5 E74.68284
G1 X177.047 Y47.298 E74.70914
G1 X177.518 Y47.177 E74.73501
G1 X178.011 Y47.132 E74.76136
G1 X178.515 Y47.174 E74.78827
G1 X178.988 Y47.3 E74.81432
G1 X179.434 Y47.5 E74.84033
G1 X179.843 Y47.775 E74.86656
G1 X180.2 Y48.121 E74.89302
G1 X180.495 Y48.521 E74.91947
G1 X180.718 Y48.964 E74.94586
G1 X180.852 Y49.411 E74.97069
G1 X180.917 Y49.91 E74.99747
G1 X180.901 Y50.408 E75.02399
G1 X180.802 Y50.875 E75.04939
G1 X180.618 Y51.341 E75.07606
G1 X180.357 Y51.765 E75.10255
G1 X180.023 Y52.143 E75.12939
G1 X179.652 Y52.441 E75.15472
G1 X179.223 Y52.688 E75.18106
G1 X178.749 Y52.856 E75.20782
G1 X178.288 Y52.934 E75.2327
G1 X177.778 Y52.941 E75.25985
G0 F6000 X177.805 Y52.541
G1 F1200 X177.362 Y52.46 E75.28381
G1 X176.963 Y52.315 E75.3064
G1 X176.611 Y52.118 E75.32787
G1 X176.296 Y51.864 E75.34941
G1 X175.983 Y51.507 E75.37467
G1 X175.782 Y51.178 E75.39519
G1 X175.615 Y50.764 E75.41894
G1 X175.533 Y50.388 E75.43942
G1 X175.513 Y49.922 E75.46425
G1 X175.563 Y49.512 E75.48623
G1 X175.689 Y49.109 E75.5087
G1 X175.881 Y48.725 E75.53154
G1 X176.13 Y48.388 E75.55384
G1 X176.438 Y48.089 E75.57668
G1 X176.792 Y47.85 E75.59941
G1 X177.181 Y47.676 E75.62209
G1 X177.587 Y47.571 E75.64441
G1 X178.013 Y47.533 E75.66717
G1 X178.441 Y47.568 E75.69002
G1 X178.85 Y47.676 E75.71253
G1 X179.239 Y47.85 E75.73521
G1 X179.592 Y48.089 E75.7579
G1 X179.9 Y48.388 E75.78074
G1 X180.148 Y48.722 E75.80288
G1 X180.342 Y49.106 E75.82577
G1 X180.462 Y49.502 E75.84779
G1 X180.518 Y49.931 E75.87082
G1 X180.503 Y50.358 E75.89355
G1 X180.418 Y50.759 E75.91537
G1 X180.257 Y51.166 E75.93866
G1 X180.018 Y51.547 E75.96259
