;FLAVOR:Marlin
;TIME:9015
;Filament used: 24.1568m
;Layer height: 0.4
;MINX:35.084
;MINY:75.133
;MINZ:0.4
;MAXX:217.626
;MAXY:165.164
;MAXZ:12.8
;Generated with Cura_SteamEngine 5.3.1
M82 ;absolute extrusion mode
; START G-CODE BEGIN

M104 S230.0 ﻿T0
M140 S60.0

G28 ; Home all axes
G92 E0 ; Reset Extruder
M420 S1 ; Load Mesh

M109 S230.0 ﻿T0
M190 S60.0

G92 E0 ; Reset Extruder

G1 X0.6 Y20 Z0.3 F5000.0 ; Move to start position
G1 X0.6 Y200.0 Z0.3 F1500.0 E15 ; Draw the first line
G1 X0.9 Y200.0 Z0.3 F5000.0 ; Move to side a little
G1 X0.9 Y20 Z0.3 F1500.0 E30 ; Draw the second line
G92 E0 ; Reset Extruder
G1 Z2.0 F3000 ; Move Z Axis up little to prevent scratching of Heat Bed
G1 X5 Y20 Z0.3 F5000.0 ; Move over to prevent blob squish

; START G-CODE END
G92 E0
G92 E0
G1 F2100 E-6
;LAYER_COUNT:32
;LAYER:0
M107
;MESH:3.5 wheel hub.stl(1)
G0 F6000 X77.205 Y116.806 Z0.4
;TYPE:WALL-INNER
G1 F2100 E0
G1 F1036 X77.362 Y116.816 E0.04
G1 F1029.3 X77.691 Y116.817 E0.1242
G1 F988.3 X78.2 Y116.795 E0.25999
G0 F6000 X80.327 Y117.822
G0 X81.216 Y118.455
G0 X81.971 Y119.247
G0 X82.561 Y120.166
G0 X82.967 Y121.18
G0 X83.173 Y122.254
G0 X83.173 Y123.343
G0 X82.967 Y124.418
G0 X80.89 Y131.658
G0 X81.012 Y132.578
G0 X80.89 Y133.499
G0 X80.535 Y134.357
G0 X79.968 Y135.095
G0 X78.496 Y136.139
G1 F1200 X78.181 Y136.203 E0.33055
G1 X77.564 Y136.283 E0.46713
G1 X77.282 Y136.276 E0.52905
G1 X76.617 Y136.186 E0.67636
G1 X76.353 Y136.113 E0.73649
G1 X75.58 Y135.792 E0.92022
G1 X74.832 Y135.217 E1.12733
G1 X74.309 Y134.537 E1.31564
G1 X74.18 Y134.321 E1.37087
G1 X73.862 Y133.542 E1.55558
G1 X73.736 Y132.593 E1.76573
G1 X73.845 Y131.715 E1.95994
G1 X73.946 Y131.405 E2.03151
G1 X74.162 Y130.881 E2.15593
G1 X74.31 Y130.616 E2.22256
G1 X74.68 Y130.131 E2.35647
G1 X74.98 Y129.826 E2.45038
G1 X75.399 Y129.502 E2.56665
G1 X75.816 Y129.261 E2.67237
G1 X76.29 Y129.068 E2.78472
G1 F1165 X76.721 Y128.917 E2.88798
G1 F1105.1 X77.179 Y128.797 E3.00083
G1 X76.722 Y128.673 E3.1137
G1 F1165 X76.219 Y128.563 E3.23012
G1 F1200 X75.898 Y128.484 E3.30268
G1 X75.161 Y128.229 E3.47388
G1 X74.878 Y128.103 E3.54188
G1 X74.045 Y127.623 E3.75292
G1 X73.238 Y126.93 E3.98643
G1 X73.072 Y126.742 E4.04148
G1 X72.479 Y125.987 E4.25223
G1 X71.958 Y124.96 E4.50502
G1 X71.681 Y124.013 E4.72162
G1 F1198 X71.633 Y123.745 E4.78148
G1 F1111.1 X71.466 Y122.982 E4.96665
G1 F1090.9 X71.324 Y123.536 E5.10475
G1 F1174.6 X71.179 Y123.977 E5.20887
G1 F1200 X70.99 Y124.435 E5.31763
G1 X70.841 Y124.733 E5.39077
G1 X70.45 Y125.243 E5.53184
G1 X70.219 Y125.496 E5.60704
G1 X69.726 Y125.875 E5.74355
G1 X69.461 Y126.049 E5.81314
G1 X68.847 Y126.306 E5.95925
G1 X68.544 Y126.406 E6.02929
G1 X67.769 Y126.502 E6.20072
G1 X67.424 Y126.488 E6.27652
G1 X66.706 Y126.39 E6.43559
G1 X65.962 Y126.082 E6.61235
G1 X65.738 Y125.965 E6.66783
G1 X65.227 Y125.572 E6.80934
G1 X64.95 Y125.307 E6.89349
G1 X64.498 Y124.723 E7.0556
G1 X64.357 Y124.435 E7.12599
G1 X64.085 Y123.761 E7.28554
G1 X63.974 Y122.947 E7.46588
G1 X63.974 Y122.652 E7.53064
G1 X64.059 Y122.008 E7.67323
G1 X64.112 Y121.762 E7.72847
G1 X64.383 Y121.103 E7.88489
G1 X64.527 Y120.844 E7.94994
G1 X64.926 Y120.32 E8.09452
G1 X65.121 Y120.114 E8.15678
G1 X65.829 Y119.568 E8.35305
G1 X66.714 Y119.207 E8.56286
G1 X67.659 Y119.082 E8.77211
G1 X68.543 Y119.192 E8.96766
G1 X68.852 Y119.294 E9.03909
G1 X69.453 Y119.544 E9.18198
G1 X69.722 Y119.719 E9.25243
G1 X70.223 Y120.105 E9.39126
G1 X70.447 Y120.352 E9.46446
G1 X70.837 Y120.859 E9.60487
G1 X70.991 Y121.162 E9.67948
G1 X71.18 Y121.627 E9.78967
G1 F1172.6 X71.326 Y122.068 E9.89402
G1 F1088.4 X71.466 Y122.614 E10.03044
G1 F1111.1 X71.635 Y121.846 E10.21687
G1 F1199 X71.68 Y121.59 E10.27398
G1 F1200 X71.959 Y120.634 E10.49259
G1 X72.483 Y119.6 E10.74705
G1 X73.193 Y118.708 E10.99732
G1 X74.045 Y117.974 E11.24418
G1 X74.878 Y117.493 E11.45533
G1 X75.199 Y117.353 E11.53221
G1 X75.898 Y117.111 E11.69459
G1 X76.211 Y117.034 E11.76534
G1 F1165 X76.721 Y116.924 E11.88331
G1 F1106 X77.181 Y116.8 E11.99678
G1 X76.72 Y116.682 E12.11012
G1 F1165 X76.272 Y116.525 E12.21745
G1 F1200 X75.815 Y116.335 E12.32609
G1 X75.404 Y116.099 E12.43013
G1 X74.979 Y115.771 E12.54798
G1 X74.676 Y115.462 E12.64298
G1 X74.31 Y114.98 E12.77583
G1 X74.162 Y114.716 E12.84227
G1 X73.948 Y114.198 E12.9653
G1 X73.846 Y113.889 E13.03673
G1 X73.736 Y113.005 E13.23228
G1 X73.842 Y112.204 E13.40965
G1 X73.902 Y111.956 E13.46566
G1 X74.225 Y111.169 E13.6524
G1 X74.75 Y110.488 E13.84116
G1 X74.958 Y110.285 E13.90496
G1 X75.578 Y109.806 E14.07695
G1 X76.36 Y109.483 E14.26268
G1 X76.619 Y109.412 E14.32163
G1 X77.282 Y109.322 E14.46851
G1 X77.578 Y109.314 E14.53351
G1 X78.424 Y109.434 E14.72108
G1 X79.148 Y109.729 E14.89269
G1 X79.457 Y109.907 E14.97097
G1 X79.974 Y110.307 E15.11447
G1 X80.156 Y110.482 E15.16989
G1 X80.577 Y111.032 E15.32194
G1 X80.725 Y111.282 E15.38571
G1 X81.051 Y112.08 E15.57494
G1 X81.169 Y113.006 E15.77986
G1 X81.06 Y113.887 E15.97472
G1 X80.958 Y114.198 E16.04657
G1 X80.685 Y114.863 E16.20437
G1 X80.216 Y115.48 E16.3745
G1 X79.98 Y115.728 E16.44965
G1 X79.44 Y116.145 E16.59942
G1 X79.094 Y116.333 E16.68586
G1 F1152 X78.651 Y116.571 E16.80085
G1 F1073 X78.478 Y116.677 E16.85066
G1 F997.9 X78.2 Y116.795 E16.93038
G1 X78.483 Y116.9 E17.01006
G1 F1073 X78.683 Y116.991 E17.064
G1 F1152 X79.157 Y117.159 E17.179
G1 F1200 X79.433 Y117.237 E17.24196
G1 X80.405 Y117.68 E17.47644
G1 X81.325 Y118.336 E17.72448
G1 X82.11 Y119.164 E17.97494
G1 X82.714 Y120.114 E18.22206
G1 X83.128 Y121.144 E18.46575
G1 X83.207 Y121.575 E18.56194
G1 F1141 X83.365 Y122.068 E18.68145
G1 F1047.3 X83.448 Y122.409 E18.76973
G1 F1048.8 X83.549 Y122.053 E18.86267
G1 F1116.3 X83.963 Y121.048 E19.11916
G1 F1170.7 X84.155 Y120.745 E19.19988
G1 F1200 X84.538 Y120.256 E19.33623
G1 X84.785 Y120.026 E19.41031
G1 X85.259 Y119.66 E19.54177
G1 X85.484 Y119.529 E19.59893
G1 X86.059 Y119.292 E19.73545
G1 X86.365 Y119.191 E19.80619
G1 X87.249 Y119.082 E20.00171
G1 X88.053 Y119.189 E20.17976
G1 X88.303 Y119.25 E20.23625
G1 X88.964 Y119.525 E20.3934
G1 X89.222 Y119.676 E20.45903
G1 X89.71 Y120.049 E20.59386
G1 X89.954 Y120.288 E20.66883
G1 X90.447 Y120.931 E20.8467
G1 X90.769 Y121.706 E21.03092
G1 X90.841 Y121.95 E21.08677
G1 X90.931 Y122.642 E21.23995
G1 X90.922 Y123.038 E21.3269
G1 X90.839 Y123.663 E21.46531
G1 X90.737 Y123.977 E21.53778
G1 X90.523 Y124.494 E21.66061
G1 X90.363 Y124.777 E21.73197
G1 X89.956 Y125.307 E21.87866
G1 X89.678 Y125.573 E21.96313
G1 X89.226 Y125.919 E22.08808
G1 X88.966 Y126.071 E22.15419
G1 X88.303 Y126.344 E22.31159
G1 X88.05 Y126.41 E22.36898
G1 X87.248 Y126.515 E22.54654
G1 X86.361 Y126.407 E22.74269
G1 X86.057 Y126.306 E22.81301
G1 X85.49 Y126.072 E22.94766
G1 X85.265 Y125.941 E23.00481
G1 X84.666 Y125.48 E23.17073
G1 X84.455 Y125.242 E23.24055
G1 X84.153 Y124.848 E23.34953
G1 X83.982 Y124.581 E23.41913
G1 X83.727 Y123.977 E23.56305
G1 F1129.4 X83.534 Y123.547 E23.67298
G1 F1033.7 X83.454 Y123.266 E23.74743
G1 X83.377 Y123.542 E23.82045
G1 F1129.4 X83.207 Y124.029 E23.94076
G1 F1200 X83.103 Y124.517 E24.05029
G1 X82.705 Y125.499 E24.28288
G1 X82.16 Y126.355 E24.50564
G1 X81.976 Y126.582 E24.56979
G1 X81.297 Y127.281 E24.78371
G1 X80.404 Y127.917 E25.02437
G1 X79.38 Y128.384 E25.27143
G1 X78.461 Y128.607 E25.47902
G1 F1161.3 X78.197 Y128.691 E25.54186
G1 F1069 X77.706 Y128.782 E25.66491
G1 X78.192 Y128.915 E25.78906
G1 F1161.3 X78.631 Y129.073 E25.8949
G1 F1200 X79.14 Y129.282 E26.01568
G1 X79.439 Y129.452 E26.09119
G1 X80.091 Y129.955 E26.27195
G1 X80.682 Y130.729 E26.48573
G1 X80.959 Y131.405 E26.6461
G1 X81.061 Y131.713 E26.71732
G1 X81.156 Y132.484 E26.88784
G1 X81.143 Y132.817 E26.961
G1 X81.063 Y133.399 E27.08996
G1 X80.981 Y133.698 E27.15802
G1 X80.725 Y134.315 E27.30466
G1 X80.597 Y134.542 E27.36186
G1 X80.179 Y135.084 E27.51211
G1 X79.979 Y135.286 E27.57451
G1 X79.447 Y135.697 E27.72209
G1 X79.2 Y135.848 E27.78564
G1 X78.496 Y136.139 E27.95286
G0 F6000 X78.485 Y137.374
G1 F1200 X77.644 Y137.483 E28.13902
G1 X77.237 Y137.479 E28.22837
G1 X76.388 Y137.364 E28.41644
G1 X76.089 Y137.29 E28.48405
G1 X75.815 Y137.192 E28.54793
G1 X75.18 Y136.923 E28.69932
G1 X74.856 Y136.743 E28.78068
G1 X74.118 Y136.18 E28.98444
G1 X73.805 Y135.857 E29.08318
G1 X73.413 Y135.346 E29.22455
G1 X73.183 Y135.006 E29.31466
G1 X73.026 Y134.67 E29.39607
G1 X72.762 Y134.023 E29.54947
G1 X72.663 Y133.617 E29.6412
G1 X72.556 Y132.812 E29.81947
G1 X72.551 Y132.348 E29.92133
G1 X72.638 Y131.693 E30.06638
G1 X72.706 Y131.344 E30.14443
G1 X72.836 Y130.951 E30.2353
G1 X73.069 Y130.386 E30.36946
G1 X73.315 Y129.945 E30.48031
G1 X73.729 Y129.398 E30.6309
G1 X74.088 Y129.033 E30.74328
G1 X73.572 Y128.736 E30.87398
G1 X73.21 Y128.493 E30.96968
G1 X72.441 Y127.824 E31.19343
G1 X72.206 Y127.583 E31.26732
G1 X71.648 Y126.873 E31.46555
G1 X71.477 Y126.633 E31.53024
G1 X71.214 Y126.179 E31.64542
G1 X71.032 Y126.381 E31.7051
G1 X70.457 Y126.827 E31.86485
G1 X70.016 Y127.116 E31.98059
G1 X69.302 Y127.416 E32.1506
G1 X68.909 Y127.546 E32.24146
G1 X68.559 Y127.614 E32.31973
G1 X67.904 Y127.701 E32.46478
G1 X67.44 Y127.696 E32.56664
G1 X66.636 Y127.59 E32.74466
G1 X66.301 Y127.508 E32.82037
G1 X66.036 Y127.413 E32.88216
G1 X65.454 Y127.169 E33.0207
G1 X65.2 Y127.036 E33.08364
G1 X64.938 Y126.862 E33.15268
G1 X64.373 Y126.429 E33.30894
G1 X64.063 Y126.126 E33.40409
G1 X63.528 Y125.418 E33.5989
G1 X63.316 Y125.047 E33.69269
G1 X63.012 Y124.321 E33.86547
G1 X62.937 Y124.07 E33.92298
G1 X62.876 Y123.795 E33.98481
G1 X62.778 Y123.045 E34.15085
G1 X62.768 Y122.63 E34.24198
G1 X62.875 Y121.807 E34.42416
G1 X62.958 Y121.429 E34.50911
G1 X63.268 Y120.657 E34.69173
G1 X63.471 Y120.254 E34.79079
G1 X64.068 Y119.467 E35.00763
G1 X64.369 Y119.173 E35.09999
G1 X65.017 Y118.674 E35.27953
G1 X65.386 Y118.457 E35.3735
G1 X66.154 Y118.138 E35.55605
G1 X66.523 Y118.024 E35.64083
G1 X67.279 Y117.919 E35.80838
G1 X67.622 Y117.894 E35.88387
G1 X67.92 Y117.9 E35.9493
G1 X68.566 Y117.986 E36.09236
G1 X68.915 Y118.054 E36.17041
G1 X69.308 Y118.184 E36.26128
G1 X70.014 Y118.479 E36.42924
G1 X70.452 Y118.766 E36.5442
G1 X71.03 Y119.215 E36.70486
G1 X71.223 Y119.428 E36.76796
G1 X71.441 Y119.013 E36.87086
G1 X71.647 Y118.724 E36.94877
G1 X72.251 Y117.967 E37.16136
G1 X72.442 Y117.772 E37.22128
G1 X73.213 Y117.102 E37.4455
G1 X73.572 Y116.862 E37.54029
G1 X74.088 Y116.563 E37.67121
G1 X73.724 Y116.193 E37.78514
G1 X73.315 Y115.652 E37.93402
G1 X73.069 Y115.211 E38.04487
G1 X72.838 Y114.654 E38.17724
G1 X72.708 Y114.261 E38.26811
G1 X72.64 Y113.912 E38.34616
G1 X72.554 Y113.266 E38.48922
G1 X72.548 Y112.968 E38.55465
G1 X72.573 Y112.625 E38.63014
G1 X72.662 Y111.987 E38.77155
G1 X72.772 Y111.564 E38.86749
G1 X73.081 Y110.802 E39.048
G1 X73.227 Y110.527 E39.11634
G1 X73.414 Y110.249 E39.18989
G1 X73.746 Y109.819 E39.30914
G1 X73.955 Y109.58 E39.37884
G1 X74.194 Y109.36 E39.45015
G1 X74.8 Y108.896 E39.61769
G1 X75.047 Y108.744 E39.68135
G1 X75.362 Y108.593 E39.75804
G1 X76.034 Y108.322 E39.9171
G1 X76.391 Y108.234 E39.99781
G1 X77.237 Y108.119 E40.18523
G1 X77.645 Y108.115 E40.2748
G1 X78.485 Y108.225 E40.46076
G1 X78.761 Y108.293 E40.52316
G1 X79.008 Y108.374 E40.58022
G1 X79.719 Y108.665 E40.74887
G1 X80.132 Y108.91 E40.85428
G1 X80.757 Y109.397 E41.02821
G1 X81.001 Y109.633 E41.10273
G1 X81.177 Y109.841 E41.16254
G1 X81.56 Y110.343 E41.30115
G1 X81.768 Y110.672 E41.38659
G1 X82.089 Y111.44 E41.56931
G1 X82.227 Y111.862 E41.66678
G1 X82.36 Y112.867 E41.88931
G1 X82.352 Y113.263 E41.97626
G1 X82.267 Y113.912 E42.11994
G1 X82.199 Y114.259 E42.19757
G1 X82.068 Y114.654 E42.28892
G1 X81.8 Y115.306 E42.44366
G1 X81.591 Y115.652 E42.5324
G1 X81.158 Y116.223 E42.68971
G1 X80.867 Y116.56 E42.78745
G1 X81.241 Y116.802 E42.88523
G1 X81.882 Y117.259 E43.05804
G1 X82.187 Y117.502 E43.14365
G1 X82.95 Y118.298 E43.38569
G1 X83.153 Y118.567 E43.45967
G1 X83.682 Y119.4 E43.67628
G1 X84.052 Y119.076 E43.78424
G1 X84.446 Y118.772 E43.89349
G1 X84.756 Y118.554 E43.97668
G1 X85.141 Y118.372 E44.07016
G1 X85.605 Y118.182 E44.18022
G1 X85.995 Y118.053 E44.2704
G1 X86.347 Y117.984 E44.34914
G1 X87.002 Y117.897 E44.49418
G1 X87.468 Y117.903 E44.59649
G1 X88.271 Y118.009 E44.77429
G1 X88.676 Y118.108 E44.86581
G1 X89.526 Y118.456 E45.06743
G1 X89.892 Y118.676 E45.16117
G1 X90.54 Y119.173 E45.34044
G1 X90.83 Y119.461 E45.43016
G1 X91.434 Y120.251 E45.64846
G1 X91.615 Y120.606 E45.73593
G1 X91.9 Y121.304 E45.90143
G1 X92.008 Y121.669 E45.98499
G1 X92.112 Y122.404 E46.14794
G1 X92.138 Y122.798 E46.23462
G1 X92.12 Y123.124 E46.30629
G1 X92.02 Y123.85 E46.46717
G1 X91.929 Y124.221 E46.55102
G1 X91.598 Y125.041 E46.74514
G1 X91.425 Y125.345 E46.82192
G1 X91.262 Y125.581 E46.88488
G1 X90.873 Y126.081 E47.02394
G1 X90.688 Y126.281 E47.08375
G1 X90.41 Y126.524 E47.1648
G1 X89.823 Y126.973 E47.32703
G1 X89.486 Y127.153 E47.4109
G1 X88.816 Y127.434 E47.57039
G1 X88.398 Y127.572 E47.66702
G1 X87.626 Y127.679 E47.83811
G1 X87.286 Y127.704 E47.91294
G1 X86.979 Y127.698 E47.98035
G1 X86.346 Y127.614 E48.12052
G1 X85.995 Y127.546 E48.199
G1 X85.594 Y127.413 E48.29174
G1 X85.136 Y127.224 E48.40051
G1 X84.764 Y127.047 E48.49094
G1 X84.452 Y126.829 E48.57449
G1 X84.054 Y126.523 E48.6847
G1 X83.682 Y126.198 E48.79313
G1 X83.149 Y127.035 E49.01096
G1 X82.948 Y127.302 E49.08432
G1 X82.186 Y128.096 E49.3259
G1 X81.882 Y128.338 E49.41119
G1 X81.241 Y128.795 E49.584
G1 X80.869 Y129.036 E49.6813
G1 X81.158 Y129.374 E49.77892
G1 X81.591 Y129.945 E49.93623
G1 X81.804 Y130.3 E50.02711
G1 X82.07 Y130.951 E50.18149
G1 X82.2 Y131.344 E50.27235
G1 X82.268 Y131.695 E50.35084
G1 X82.355 Y132.35 E50.49588
G1 X82.349 Y132.813 E50.59753
G1 X82.267 Y133.47 E50.74287
G1 X82.217 Y133.744 E50.80401
G1 X82.106 Y134.114 E50.88881
G1 X81.837 Y134.776 E51.04567
G1 X81.715 Y135.009 E51.1034
G1 X81.561 Y135.253 E51.16674
G1 X81.097 Y135.857 E51.33394
G1 X80.828 Y136.144 E51.42028
G1 X80.237 Y136.606 E51.58495
G1 X79.942 Y136.806 E51.66319
G1 X79.644 Y136.961 E51.73693
G1 X78.922 Y137.255 E51.90805
G1 X78.485 Y137.374 E52.00748
G0 F6000 X80.535 Y134.357
G0 X80.89 Y133.499
G0 X81.012 Y132.578
G0 X80.89 Y131.658
G0 X80.535 Y130.798
G0 X79.968 Y130.061
G0 X79.373 Y129.604
G0 X77.706 Y128.782
G1 F1028.6 X77.362 Y128.782 E52.09558
G1 F1035.2 X77.203 Y128.791 E52.1361
G0 F6000 X75.066 Y128.026
G0 X74.12 Y127.479
G0 X73.295 Y126.764
G0 X72.619 Y125.905
G0 X72.214 Y125.12
G0 X71.466 Y122.982
G1 F1036.7 X71.466 Y122.614 E52.2296
G0 F6000 X72.118 Y120.664
G0 X72.619 Y119.692
G0 X73.295 Y118.833
G0 X74.12 Y118.118
G0 X75.066 Y117.571
G0 X76.098 Y117.214
G0 X77.18 Y117.059
G0 X78.27 Y117.11
G0 X79.333 Y117.368
G0 X80.327 Y117.822
G0 X81.216 Y118.455
G0 X81.971 Y119.247
G0 X82.448 Y119.991
G0 X83.448 Y122.409
G1 F1021.3 X83.43 Y122.799 E52.33031
G1 F1017.7 X83.454 Y123.266 E52.45135
G1 F2100 E46.45135
G0 F6000 X84.017 Y124.328
G0 X86.767 Y128.159
G0 X91.563 Y150.217
G0 X91.977 Y159.702
G1 F2100 E52.45135
G1 F1200 X91.402 Y159.094 E52.63505
G1 X91.013 Y158.582 E52.7762
G1 X90.657 Y157.993 E52.92728
G1 X90.487 Y157.67 E53.0074
G1 X90.382 Y157.401 E53.07079
G1 X90.136 Y156.669 E53.24031
G1 X90.065 Y156.392 E53.30308
G1 X90.022 Y156.113 E53.36505
G1 X89.941 Y155.362 E53.53086
G1 X89.931 Y155.063 E53.59653
G1 X89.948 Y154.782 E53.65833
G1 X90.031 Y154.025 E53.8255
G1 X90.086 Y153.731 E53.89116
G1 X90.161 Y153.47 E53.95077
G1 X90.406 Y152.744 E54.11897
G1 X90.551 Y152.402 E54.20051
G1 X91.083 Y151.513 E54.42794
G1 X91.287 Y151.248 E54.50135
G1 X91.937 Y150.556 E54.70976
G1 X92.231 Y150.3 E54.79534
G1 X93.046 Y149.746 E55.01166
G1 X93.327 Y149.59 E55.08221
G1 X94.28 Y149.208 E55.30759
G1 X94.663 Y149.106 E55.3946
G1 X95.595 Y148.954 E55.60189
G1 X95.936 Y148.933 E55.67689
G1 X96.926 Y148.985 E55.89451
G1 X97.275 Y149.041 E55.9721
G1 X98.237 Y149.309 E56.19132
G1 X98.571 Y149.444 E56.2704
G1 X99.445 Y149.91 E56.48782
G1 X99.733 Y150.107 E56.56442
G1 X100.352 Y150.634 E56.74288
G1 X100.552 Y150.819 E56.80268
G1 X100.796 Y151.102 E56.88471
G1 X101.214 Y151.65 E57.03601
G1 X101.551 Y152.209 E57.17929
G1 X101.838 Y152.829 E57.32926
G1 X102.046 Y153.447 E57.4724
G1 X102.133 Y153.845 E57.56183
