;FLAVOR:Marlin
;TIME:21345
;Filament used: 65.893m
;Layer height: 0.6
;MINX:42.107
;MINY:67.993
;MINZ:0.32
;MAXX:257.893
;MAXY:196.764
;MAXZ:33.92
;Generated with Cura_SteamEngine 5.3.1
M140 S30
M105
M190 S30
M104 S230
M105
M109 S230
M82 ;absolute extrusion mode
G28 ; home all axes
G92 X-5.0 Y-10.0 ; set home offsets
M92 E136.8 ; Set E Steps to 136.8
G1 X0 Y0 Z0.2 F3000 ; get ready to prime
G92 E0 ; reset extrusion distance
G92 E0
G92 E0
G1 F1500 E-6.5
;LAYER_COUNT:57
;LAYER:0
M107
G0 F6000 X59.571 Y83.264 Z0.32
;TYPE:SKIRT
G1 F1500 E0
G1 F1200 X60.706 Y82.591 E0.14044
G1 X61.163 Y82.361 E0.19489
G1 X62.008 Y81.958 E0.29453
G1 X62.749 Y81.625 E0.381
G1 X63.562 Y81.3 E0.47418
G1 X64.199 Y81.076 E0.54605
G1 X96.253 Y70.392 E4.14216
G1 X96.839 Y70.207 E4.20756
G1 X97.757 Y69.963 E4.30866
G1 X98.377 Y69.828 E4.37619
G1 X99.276 Y69.673 E4.47329
G1 X100.185 Y69.598 E4.57036
G1 X100.846 Y69.593 E4.64072
G1 X101.497 Y69.609 E4.71002
G1 X102.406 Y69.671 E4.807
G1 X103.307 Y69.813 E4.90407
G1 X103.838 Y69.936 E4.96209
G1 X104.501 Y70.107 E5.03496
G1 X105.374 Y70.373 E5.13209
G1 X106.219 Y70.714 E5.22908
G1 X106.749 Y70.974 E5.29191
G1 X108.242 Y71.76 E5.47149
G1 X110.508 Y72.912 E5.74204
G1 X112.813 Y74.003 E6.01346
G1 X115.126 Y75.02 E6.28238
G1 X117.526 Y75.992 E6.55797
G1 X119.854 Y76.861 E6.82245
G1 X122.241 Y77.676 E7.0909
G1 X124.674 Y78.431 E7.36204
G1 X127.125 Y79.115 E7.63287
G1 X129.584 Y79.729 E7.90262
G1 X132.038 Y80.266 E8.16999
G1 X134.562 Y80.745 E8.44342
G1 X137.04 Y81.143 E8.71054
G1 X139.557 Y81.475 E8.98075
G1 X142.077 Y81.734 E9.25037
G1 X144.585 Y81.921 E9.51804
G1 X147.152 Y82.04 E9.79155
G1 X149.669 Y82.084 E10.05948
G1 X152.189 Y82.059 E10.3277
G1 X154.718 Y81.96 E10.59708
G1 X157.265 Y81.79 E10.86876
G1 X159.803 Y81.547 E11.14012
G1 X162.277 Y81.24 E11.40546
G1 X164.797 Y80.855 E11.67678
G1 X167.315 Y80.396 E11.94919
G1 X169.754 Y79.88 E12.21453
G1 X172.242 Y79.281 E12.4869
G1 X174.672 Y78.621 E12.7549
G1 X177.103 Y77.887 E13.02517
G1 X179.518 Y77.082 E13.29611
G1 X181.906 Y76.211 E13.56665
G1 X184.258 Y75.277 E13.83599
G1 X186.595 Y74.271 E14.10679
G1 X188.835 Y73.232 E14.3696
G1 X192.149 Y71.554 E14.76495
G1 X193.163 Y71.015 E14.88718
G1 X193.986 Y70.622 E14.98424
G1 X195.191 Y70.197 E15.12024
G1 X195.815 Y70.019 E15.1893
G1 X196.702 Y69.807 E15.28637
G1 X197.604 Y69.675 E15.38339
G1 X198.183 Y69.631 E15.44519
G1 X198.89 Y69.598 E15.52052
G1 X199.802 Y69.596 E15.61759
G1 X200.711 Y69.673 E15.71468
G1 X201.357 Y69.778 E15.78434
G1 X201.867 Y69.877 E15.83963
G1 X202.988 Y70.16 E15.96269
G1 X204.121 Y70.516 E16.08909
G1 X235.638 Y81.021 E19.62495
G1 X236.427 Y81.296 E19.71388
G1 X237.295 Y81.644 E19.81341
G1 X238.275 Y82.093 E19.92814
G1 X239.116 Y82.502 E20.02767
G1 X239.918 Y82.937 E20.12478
G1 X240.679 Y83.44 E20.22187
G1 X241.393 Y84.007 E20.31891
G1 X242.054 Y84.635 E20.41595
G1 X242.485 Y85.112 E20.48437
G1 X243.157 Y85.901 E20.59468
G1 X243.718 Y86.62 E20.69174
G1 X244.213 Y87.386 E20.78881
G1 X244.639 Y88.192 E20.88584
G1 X245.035 Y89.148 E20.99597
G1 X245.226 Y89.696 E21.05774
G1 X245.534 Y90.643 E21.16372
G1 X245.778 Y91.522 E21.26082
G1 X245.875 Y91.994 E21.3121
G1 X246.254 Y94.072 E21.53692
G1 X246.378 Y94.975 E21.63393
G1 X246.423 Y95.886 E21.73101
G1 X246.387 Y96.797 E21.82804
G1 X246.199 Y98.083 E21.96637
G1 X246.035 Y98.855 E22.05037
G1 X245.749 Y100.111 E22.18747
G1 X245.255 Y102.612 E22.4588
G1 X244.83 Y105.136 E22.73122
G1 X244.484 Y107.621 E22.99825
G1 X244.204 Y110.148 E23.26885
G1 X243.996 Y112.672 E23.5384
G1 X243.861 Y115.19 E23.80678
G1 X243.795 Y117.748 E24.07913
G1 X243.803 Y120.27 E24.34755
G1 X243.881 Y122.79 E24.61589
G1 X244.033 Y125.342 E24.88798
G1 X244.255 Y127.866 E25.15766
G1 X244.545 Y130.356 E25.42447
G1 X244.913 Y132.887 E25.69668
G1 X245.351 Y135.402 E25.96838
G1 X245.843 Y137.822 E26.23122
G1 X246.43 Y140.336 E26.50599
G1 X247.068 Y142.763 E26.77308
G1 X247.789 Y145.217 E27.0453
G1 X248.566 Y147.61 E27.31308
G1 X249.428 Y150.029 E27.5864
G1 X250.321 Y152.332 E27.8493
G1 X251.331 Y154.728 E28.12604
G1 X252.361 Y156.988 E28.39038
G1 X253.49 Y159.295 E28.66375
G1 X254.749 Y161.694 E28.9521
G1 X255.018 Y162.246 E29.01746
G1 X255.261 Y162.784 E29.08029
G1 X255.6 Y163.631 E29.17739
G1 X255.863 Y164.504 E29.27443
G1 X255.996 Y165.104 E29.33984
G1 X256.122 Y165.786 E29.41366
G1 X256.167 Y166.07 E29.44426
G1 X256.27 Y166.976 E29.54131
G1 X256.293 Y167.888 E29.63841
G1 X256.261 Y168.536 E29.70746
G1 X256.21 Y169.167 E29.77484
G1 X256.097 Y170.072 E29.8719
G1 X255.905 Y170.963 E29.96891
G1 X255.738 Y171.534 E30.03223
G1 X255.527 Y172.165 E30.10305
G1 X255.406 Y172.498 E30.14075
G1 X255.057 Y173.34 E30.23776
G1 X254.636 Y174.149 E30.33483
G1 X254.388 Y174.556 E30.38556
G1 X254.034 Y175.097 E30.45437
G1 X253.827 Y175.396 E30.49307
G1 X253.275 Y176.122 E30.59014
G1 X252.662 Y176.797 E30.68719
G1 X252.218 Y177.22 E30.75246
G1 X251.832 Y177.566 E30.80763
G1 X250.931 Y178.287 E30.93045
G1 X249.814 Y179.082 E31.07637
G1 X229.481 Y192.95 E33.69589
G1 X228.768 Y193.423 E33.78695
G1 X227.986 Y193.893 E33.88406
G1 X227.166 Y194.292 E33.98112
G1 X226.315 Y194.618 E34.07811
G1 X225.438 Y194.868 E34.17517
G1 X224.542 Y195.041 E34.27229
G1 X223.196 Y195.151 E34.41603
G1 X222.403 Y195.164 E34.50044
G1 X77.534 Y195.164 E49.9192
G1 X76.837 Y195.154 E49.99339
G1 X75.926 Y195.101 E50.09052
G1 X75.024 Y194.968 E50.18756
G1 X74.137 Y194.757 E50.2846
G1 X73.272 Y194.469 E50.38163
G1 X72.435 Y194.106 E50.47873
G1 X71.273 Y193.445 E50.62102
G1 X70.443 Y192.898 E50.72681
G1 X49.902 Y178.887 E53.3732
G1 X49.319 Y178.478 E53.44899
G1 X48.578 Y177.904 E53.54875
G1 X48.004 Y177.417 E53.62887
G1 X47.335 Y176.797 E53.72595
G1 X46.723 Y176.121 E53.823
G1 X46.096 Y175.282 E53.93448
G1 X45.733 Y174.741 E54.00382
G1 X45.258 Y173.962 E54.10093
G1 X44.854 Y173.144 E54.19803
G1 X44.546 Y172.361 E54.28758
G1 X44.335 Y171.754 E54.35598
G1 X44.073 Y170.88 E54.45309
G1 X43.889 Y169.987 E54.55013
G1 X43.794 Y169.208 E54.63366
G1 X43.741 Y168.576 E54.70116
G1 X43.705 Y167.665 E54.7982
G1 X43.749 Y166.754 E54.89527
G1 X43.858 Y165.932 E54.98352
G1 X43.968 Y165.297 E55.05211
G1 X44.163 Y164.406 E55.14919
G1 X44.435 Y163.536 E55.24621
G1 X44.747 Y162.77 E55.33424
G1 X45.026 Y162.156 E55.40602
G1 X45.29 Y161.616 E55.46999
G1 X46.478 Y159.358 E55.74155
G1 X47.605 Y157.059 E56.01405
G1 X48.643 Y154.783 E56.2803
G1 X49.642 Y152.416 E56.55374
G1 X50.549 Y150.089 E56.81956
G1 X51.409 Y147.677 E57.0921
G1 X52.2 Y145.249 E57.36389
G1 X52.911 Y142.834 E57.63183
G1 X53.555 Y140.389 E57.90093
G1 X54.13 Y137.931 E58.16961
G1 X54.639 Y135.439 E58.44031
G1 X55.077 Y132.935 E58.71087
G1 X55.443 Y130.426 E58.98073
G1 X55.735 Y127.925 E59.24873
G1 X55.96 Y125.399 E59.51864
G1 X56.111 Y122.879 E59.78733
G1 X56.192 Y120.332 E60.05855
G1 X56.2 Y117.802 E60.32783
G1 X56.137 Y115.245 E60.60006
G1 X56.005 Y112.765 E60.86438
G1 X55.796 Y110.201 E61.13818
G1 X55.519 Y107.675 E61.40864
G1 X55.175 Y105.202 E61.67438
G1 X54.752 Y102.679 E61.94666
G1 X54.258 Y100.175 E62.2183
G1 X53.818 Y98.2 E62.43366
G1 X53.659 Y97.302 E62.53072
G1 X53.579 Y96.393 E62.62784
G1 X53.579 Y95.481 E62.72491
G1 X53.714 Y94.204 E62.86158
G1 X53.836 Y93.482 E62.93952
G1 X53.925 Y93.069 E62.98448
G1 X54.138 Y91.931 E63.10771
G1 X54.472 Y90.623 E63.25139
G1 X54.813 Y89.581 E63.36808
G1 X54.941 Y89.214 E63.40944
G1 X55.279 Y88.367 E63.50651
G1 X55.69 Y87.553 E63.60356
G1 X56.17 Y86.778 E63.70058
G1 X56.865 Y85.87 E63.82228
G1 X57.538 Y85.085 E63.93233
G1 X58.162 Y84.419 E64.02947
G1 X58.841 Y83.811 E64.12648
G1 X59.571 Y83.264 E64.22356
G0 F6000 X59.091 Y82.624
G1 F1200 X60.346 Y81.876 E64.37906
G1 X60.819 Y81.639 E64.43537
G1 X61.68 Y81.228 E64.53691
G1 X62.452 Y80.882 E64.62695
G1 X63.297 Y80.545 E64.72378
G1 X63.946 Y80.317 E64.79699
G1 X96.012 Y69.629 E68.39444
G1 X96.633 Y69.434 E68.46372
G1 X97.587 Y69.181 E68.56876
G1 X98.207 Y69.046 E68.6363
G1 X99.21 Y68.876 E68.74457
G1 X100.179 Y68.798 E68.84804
G1 X100.866 Y68.793 E68.92116
G1 X101.517 Y68.809 E68.99047
G1 X102.531 Y68.881 E69.09866
G1 X103.432 Y69.023 E69.19574
G1 X104.038 Y69.161 E69.26189
G1 X104.701 Y69.332 E69.33477
G1 X105.673 Y69.631 E69.443
G1 X106.518 Y69.972 E69.53999
G1 X107.122 Y70.266 E69.61148
G1 X108.615 Y71.052 E69.79106
G1 X110.869 Y72.198 E70.06019
G1 X113.149 Y73.277 E70.32865
G1 X115.445 Y74.287 E70.59562
G1 X117.806 Y75.243 E70.86673
G1 X120.119 Y76.106 E71.12948
G1 X122.478 Y76.912 E71.39481
G1 X124.889 Y77.66 E71.66348
G1 X127.34 Y78.344 E71.93431
G1 X129.755 Y78.947 E72.19924
G1 X132.209 Y79.484 E72.46661
G1 X134.695 Y79.956 E72.73592
G1 X137.164 Y80.352 E73.00206
G1 X139.639 Y80.679 E73.26777
G1 X142.149 Y80.937 E73.53633
G1 X144.645 Y81.123 E73.80272
G1 X147.168 Y81.24 E74.07154
G1 X149.675 Y81.284 E74.3384
G1 X152.181 Y81.259 E74.60514
G1 X154.67 Y81.162 E74.87025
G1 X157.205 Y80.992 E75.14066
G1 X159.704 Y80.753 E75.40785
G1 X162.165 Y80.448 E75.67178
G1 X164.676 Y80.064 E75.94214
G1 X167.149 Y79.613 E76.20969
G1 X169.588 Y79.097 E76.47502
G1 X172.047 Y78.505 E76.74422
G1 X174.451 Y77.852 E77.00935
G1 X176.861 Y77.124 E77.2773
G1 X179.244 Y76.33 E77.54464
G1 X181.622 Y75.463 E77.81403
G1 X183.963 Y74.533 E78.08213
G1 X186.258 Y73.545 E78.34807
G1 X188.498 Y72.506 E78.61088
G1 X191.788 Y70.84 E79.00337
G1 X192.818 Y70.293 E79.1275
G1 X193.641 Y69.9 E79.22457
G1 X194.972 Y69.428 E79.37487
G1 X195.629 Y69.241 E79.44758
G1 X196.586 Y69.015 E79.55223
G1 X197.488 Y68.883 E79.64926
G1 X198.146 Y68.832 E79.7195
G1 X198.888 Y68.798 E79.79856
G1 X199.87 Y68.799 E79.90307
G1 X200.839 Y68.883 E80.00659
G1 X201.485 Y68.988 E80.07625
G1 X202.063 Y69.101 E80.13893
G1 X203.184 Y69.384 E80.26199
G1 X204.374 Y69.757 E80.39472
G1 X235.901 Y80.266 E83.93172
G1 X236.725 Y80.553 E84.02459
G1 X237.593 Y80.901 E84.12412
G1 X238.625 Y81.374 E84.24495
G1 X239.497 Y81.799 E84.34819
G1 X240.359 Y82.27 E84.45274
G1 X241.177 Y82.814 E84.55729
G1 X241.944 Y83.427 E84.6618
G1 X242.648 Y84.099 E84.76538
G1 X243.094 Y84.593 E84.83622
G1 X243.788 Y85.409 E84.95023
G1 X244.349 Y86.128 E85.04729
G1 X244.885 Y86.952 E85.15191
G1 X245.346 Y87.818 E85.25633
G1 X245.774 Y88.842 E85.37445
G1 X245.987 Y89.449 E85.44292
G1 X246.305 Y90.429 E85.55258
G1 X246.562 Y91.361 E85.65547
G1 X246.662 Y91.85 E85.7086
G1 X247.047 Y93.963 E85.93719
G1 X247.171 Y94.866 E86.0342
G1 X247.222 Y95.847 E86.13875
G1 X247.179 Y96.913 E86.2523
G1 X246.982 Y98.249 E86.39603
G1 X246.815 Y99.033 E86.48135
G1 X246.529 Y100.289 E86.61845
G1 X246.04 Y102.767 E86.88728
G1 X245.619 Y105.269 E87.15731
G1 X245.279 Y107.709 E87.41952
G1 X244.999 Y110.236 E87.69012
G1 X244.795 Y112.715 E87.95486
G1 X244.66 Y115.233 E88.22324
G1 X244.595 Y117.769 E88.49324
G1 X244.603 Y120.245 E88.75677
G1 X244.68 Y122.742 E89.02266
G1 X244.832 Y125.294 E89.29475
G1 X245.05 Y127.773 E89.55962
G1 X245.337 Y130.241 E89.82406
G1 X245.705 Y132.772 E90.09627
G1 X246.135 Y135.243 E90.36322
G1 X246.622 Y137.64 E90.62355
G1 X247.204 Y140.133 E90.89602
G1 X247.836 Y142.537 E91.16058
G1 X248.557 Y144.991 E91.43281
G1 X249.32 Y147.341 E91.69578
G1 X250.182 Y149.76 E91.96909
G1 X251.058 Y152.021 E92.22717
G1 X252.059 Y154.396 E92.50148
G1 X253.08 Y156.636 E92.76348
G1 X254.209 Y158.943 E93.03685
G1 X255.468 Y161.344 E93.3254
G1 X255.747 Y161.917 E93.39323
G1 X256.004 Y162.487 E93.45977
G1 X256.343 Y163.334 E93.55687
G1 X256.629 Y164.273 E93.66135
G1 X256.783 Y164.959 E93.73618
G1 X256.912 Y165.661 E93.81214
G1 X256.962 Y165.98 E93.84651
G1 X257.07 Y166.956 E93.95102
G1 X257.093 Y167.868 E94.04812
G1 X257.058 Y168.6 E94.12612
G1 X257.004 Y169.266 E94.19723
G1 X256.891 Y170.171 E94.2943
G1 X256.673 Y171.188 E94.405
G1 X256.497 Y171.788 E94.47155
G1 X256.279 Y172.438 E94.54452
G1 X256.145 Y172.804 E94.58601
G1 X255.767 Y173.709 E94.69039
G1 X255.346 Y174.518 E94.78746
G1 X255.057 Y174.994 E94.84672
G1 X254.692 Y175.552 E94.91769
G1 X254.464 Y175.88 E94.96021
G1 X253.867 Y176.66 E95.06475
G1 X253.214 Y177.376 E95.16789
G1 X252.752 Y177.816 E95.23579
G1 X252.332 Y178.191 E95.29572
G1 X251.395 Y178.939 E95.42333
G1 X250.265 Y179.743 E95.57093
G1 X229.923 Y193.617 E98.1916
G1 X229.18 Y194.109 E98.28645
G1 X228.398 Y194.579 E98.38355
G1 X227.452 Y195.039 E98.49551
G1 X226.601 Y195.365 E98.5925
G1 X225.657 Y195.637 E98.69706
G1 X224.607 Y195.838 E98.81084
G1 X223.209 Y195.951 E98.96012
G1 X222.416 Y195.964 E99.04453
G1 X77.523 Y195.964 E114.46585
G1 X76.791 Y195.953 E114.54377
G1 X75.88 Y195.9 E114.64089
G1 X74.839 Y195.746 E114.75289
G1 X73.884 Y195.516 E114.85744
G1 X73.019 Y195.228 E114.95447
G1 X72.117 Y194.84 E115.05898
G1 X70.833 Y194.113 E115.21603
G1 X69.992 Y193.559 E115.32321
G1 X49.443 Y179.542 E117.97066
G1 X48.829 Y179.11 E118.05056
G1 X48.06 Y178.514 E118.15411
G1 X47.46 Y178.004 E118.23792
G1 X46.791 Y177.384 E118.335
G1 X46.082 Y176.6 E118.44751
G1 X45.455 Y175.761 E118.55898
G1 X45.05 Y175.157 E118.63638
G1 X44.541 Y174.316 E118.74101
G1 X44.11 Y173.437 E118.8452
G1 X43.79 Y172.624 E118.9382
G1 X43.579 Y172.017 E119.00659
G1 X43.289 Y171.041 E119.11496
G1 X43.105 Y170.148 E119.212
G1 X42.997 Y169.275 E119.30562
G1 X42.942 Y168.608 E119.37685
G1 X42.906 Y167.626 E119.48144
G1 X42.956 Y166.649 E119.58556
G1 X43.07 Y165.795 E119.67726
G1 X43.186 Y165.126 E119.74953
G1 X43.399 Y164.167 E119.85408
G1 X43.671 Y163.297 E119.9511
G1 X44.006 Y162.468 E120.04626
G1 X44.307 Y161.805 E120.12376
G1 X44.582 Y161.244 E120.19026
G1 X45.77 Y158.986 E120.46181
G1 X46.877 Y156.727 E120.72956
G1 X47.915 Y154.451 E120.9958
G1 X48.905 Y152.105 E121.26682
G1 X49.795 Y149.82 E121.52781
G1 X50.655 Y147.408 E121.80036
G1 X51.439 Y145.001 E122.06979
G1 X52.137 Y142.63 E122.33285
G1 X52.781 Y140.185 E122.60195
G1 X53.347 Y137.766 E122.86636
G1 X53.855 Y135.279 E123.13653
G1 X54.285 Y132.819 E123.40232
G1 X54.651 Y130.311 E123.67208
G1 X54.94 Y127.832 E123.93771
G1 X55.162 Y125.342 E124.20378
G1 X55.312 Y122.831 E124.47151
G1 X55.392 Y120.307 E124.74028
G1 X55.4 Y117.822 E125.00476
G1 X55.337 Y115.265 E125.27699
G1 X55.206 Y112.808 E125.53887
G1 X54.999 Y110.266 E125.81032
G1 X54.724 Y107.762 E126.07843
G1 X54.386 Y105.334 E126.33934
G1 X53.967 Y102.834 E126.60913
G1 X53.473 Y100.33 E126.88077
G1 X53.03 Y98.339 E127.09786
G1 X52.871 Y97.441 E127.19492
G1 X52.782 Y96.463 E127.29945
G1 X52.783 Y95.397 E127.4129
G1 X52.918 Y94.12 E127.54957
G1 X53.054 Y93.313 E127.63668
G1 X53.143 Y92.9 E127.68164
G1 X53.363 Y91.733 E127.80804
G1 X53.697 Y90.425 E127.95172
G1 X54.058 Y89.318 E128.07564
G1 X54.198 Y88.917 E128.12085
G1 X54.536 Y88.07 E128.21791
G1 X54.976 Y87.192 E128.32244
G1 X55.49 Y86.357 E128.4268
G1 X56.258 Y85.349 E128.56167
G1 X56.954 Y84.538 E128.67542
G1 X57.628 Y83.823 E128.78
G1 X58.307 Y83.215 E128.877
G1 X59.091 Y82.624 E128.9815
G0 F6000 X58.609 Y81.985
G1 F1200 X57.825 Y82.576 E129.08599
G1 X57.094 Y83.227 E129.19018
G1 X56.372 Y83.989 E129.3019
G1 X55.651 Y84.828 E129.41964
G1 X54.854 Y85.872 E129.55943
G1 X54.261 Y86.834 E129.67971
G1 X53.793 Y87.773 E129.79138
G1 X53.455 Y88.62 E129.88844
G1 X53.303 Y89.054 E129.93738
G1 X52.936 Y90.177 E130.06312
G1 X52.588 Y91.535 E130.21233
G1 X52.361 Y92.731 E130.3419
G1 X52.272 Y93.144 E130.38686
G1 X52.122 Y94.036 E130.48313
G1 X51.987 Y95.313 E130.6198
G1 X51.985 Y96.536 E130.74997
G1 X52.074 Y97.514 E130.85449
G1 X52.242 Y98.478 E130.95864
G1 X52.688 Y100.485 E131.17746
G1 X53.182 Y102.989 E131.4491
G1 X53.597 Y105.466 E131.71641
G1 X53.929 Y107.849 E131.97249
G1 X54.202 Y110.331 E132.23825
G1 X54.407 Y112.851 E132.50734
G1 X54.537 Y115.285 E132.76677
G1 X54.6 Y117.842 E133.039
G1 X54.592 Y120.282 E133.2987
G1 X54.513 Y122.783 E133.56502
G1 X54.363 Y125.292 E133.83253
G1 X54.145 Y127.739 E134.094
G1 X53.859 Y130.195 E134.35717
G1 X53.493 Y132.703 E134.62693
G1 X53.071 Y135.119 E134.88796
G1 X52.564 Y137.601 E135.15758
G1 X52.007 Y139.981 E135.41774
G1 X51.363 Y142.426 E135.68684
G1 X50.678 Y144.753 E135.94501
G1 X49.901 Y147.139 E136.21209
G1 X49.041 Y149.551 E136.48463
G1 X48.168 Y151.794 E136.74081
G1 X47.187 Y154.119 E137.00939
G1 X46.149 Y156.395 E137.27563
G1 X45.062 Y158.614 E137.53862
G1 X43.874 Y160.872 E137.81018
