;FLAVOR:Marlin
;TIME:18276
;Filament used: 58.6071m
;Layer height: 0.6
;MINX:42.107
;MINY:81.982
;MINZ:0.32
;MAXX:257.893
;MAXY:196.764
;MAXZ:33.92
;Generated with Cura_SteamEngine 5.3.1
M140 S30
M105
M190 S30
M104 S220
M105
M109 S220
M82 ;absolute extrusion mode
G28 ; home all axes
G92 X-5.0 Y-10.0 ; set home offsets
M92 E136.8 ; Set E Steps to 136.8
G1 X0 Y0 Z0.2 F3000 ; get ready to prime
G92 E0 ; reset extrusion distance
G92 E0
G92 E0
G1 F1500 E-6.5
;LAYER_COUNT:57
;LAYER:0
M107
G0 F6000 X66.69 Y96.667 Z0.32
;TYPE:SKIRT
G1 F1500 E0
G1 F1200 X67.45 Y96.163 E0.09706
G1 X68.251 Y95.728 E0.19407
G1 X69.406 Y95.247 E0.32724
G1 X70.072 Y95.016 E0.40226
G1 X72.543 Y94.121 E0.68198
G1 X74.872 Y93.202 E0.94846
G1 X77.207 Y92.203 E1.21877
G1 X79.492 Y91.148 E1.48664
G1 X81.776 Y90.015 E1.75799
G1 X84.756 Y88.414 E2.11804
G1 X85.578 Y88.018 E2.21515
G1 X86.431 Y87.696 E2.31219
G1 X87.309 Y87.449 E2.40926
G1 X88.205 Y87.281 E2.50629
G1 X89.36 Y87.181 E2.62968
G1 X90.005 Y87.166 E2.69834
G1 X101.575 Y87.167 E3.92977
G1 X102.285 Y87.178 E4.00534
G1 X103.195 Y87.232 E4.10237
G1 X103.735 Y87.303 E4.16034
G1 X104.677 Y87.451 E4.26182
G1 X107.257 Y87.819 E4.5392
G1 X109.785 Y88.107 E4.81
G1 X112.293 Y88.321 E5.0779
G1 X114.823 Y88.465 E5.34761
G1 X117.404 Y88.539 E5.62243
G1 X118.732 Y88.548 E5.76377
G1 X181.289 Y88.548 E12.42187
G1 X183.887 Y88.511 E12.69841
G1 X186.44 Y88.403 E12.97037
G1 X188.974 Y88.223 E13.24075
G1 X191.465 Y87.976 E13.50718
G1 X193.989 Y87.653 E13.778
G1 X195.728 Y87.379 E13.96537
G1 X196.425 Y87.279 E14.04031
G1 X197.597 Y87.179 E14.16551
G1 X198.209 Y87.166 E14.23066
G1 X209.766 Y87.167 E15.4607
G1 X210.469 Y87.177 E15.53553
G1 X211.379 Y87.23 E15.63254
G1 X212.282 Y87.362 E15.72967
G1 X213.169 Y87.573 E15.82671
G1 X214.034 Y87.861 E15.92375
G1 X214.871 Y88.224 E16.02085
G1 X215.285 Y88.437 E16.0704
G1 X216.776 Y89.247 E16.251
G1 X219.042 Y90.424 E16.52277
G1 X221.348 Y91.54 E16.79543
G1 X223.639 Y92.571 E17.06282
G1 X225.998 Y93.553 E17.33478
G1 X228.395 Y94.472 E17.60801
G1 X230.647 Y95.266 E17.86215
G1 X231.493 Y95.607 E17.95923
G1 X232.306 Y96.021 E18.05634
G1 X233.079 Y96.504 E18.15335
G1 X233.808 Y97.053 E18.25048
G1 X234.485 Y97.663 E18.34747
G1 X235.106 Y98.331 E18.44454
G1 X235.666 Y99.051 E18.54162
G1 X236.161 Y99.816 E18.6386
G1 X236.587 Y100.623 E18.73573
G1 X236.941 Y101.463 E18.83274
G1 X237.22 Y102.331 E18.92978
G1 X237.422 Y103.221 E19.02692
G1 X237.545 Y104.124 E19.12391
G1 X237.584 Y105.355 E19.255
G1 X237.562 Y106.165 E19.34124
G1 X237.528 Y108.769 E19.61841
G1 X237.567 Y111.328 E19.89081
G1 X237.677 Y113.844 E20.15885
G1 X237.859 Y116.374 E20.42881
G1 X238.112 Y118.906 E20.69964
G1 X238.433 Y121.388 E20.96601
G1 X238.83 Y123.906 E21.23732
G1 X239.3 Y126.418 E21.50931
G1 X239.836 Y128.891 E21.77863
G1 X240.43 Y131.309 E22.04364
G1 X241.113 Y133.779 E22.31639
G1 X241.855 Y136.196 E22.58549
G1 X242.673 Y138.612 E22.85697
G1 X243.551 Y140.981 E23.12587
G1 X244.502 Y143.344 E23.39697
G1 X245.507 Y145.647 E23.66441
G1 X246.587 Y147.946 E23.93475
G1 X247.737 Y150.223 E24.20625
G1 X248.939 Y152.444 E24.47503
G1 X250.199 Y154.624 E24.74302
G1 X251.518 Y156.762 E25.0104
G1 X253.686 Y160.016 E25.42656
G1 X254.044 Y160.529 E25.49314
G1 X254.532 Y161.299 E25.59016
G1 X254.888 Y161.974 E25.67138
G1 X255.183 Y162.603 E25.74533
G1 X255.314 Y162.903 E25.78017
G1 X255.642 Y163.754 E25.87724
G1 X255.894 Y164.63 E25.97425
G1 X256.063 Y165.453 E26.06367
G1 X256.171 Y166.103 E26.1338
G1 X256.272 Y167.009 E26.23083
G1 X256.293 Y167.921 E26.32792
G1 X256.261 Y168.547 E26.39463
G1 X256.21 Y169.173 E26.46148
G1 X256.096 Y170.078 E26.55856
G1 X255.903 Y170.97 E26.6557
G1 X255.738 Y171.534 E26.71824
G1 X255.527 Y172.165 E26.78906
G1 X255.406 Y172.498 E26.82677
G1 X255.057 Y173.34 E26.92378
G1 X254.636 Y174.149 E27.02084
G1 X254.388 Y174.556 E27.07157
G1 X254.034 Y175.097 E27.14038
G1 X253.827 Y175.396 E27.17908
G1 X253.275 Y176.122 E27.27615
G1 X252.662 Y176.797 E27.3732
G1 X252.218 Y177.22 E27.43847
G1 X251.832 Y177.566 E27.49364
G1 X250.931 Y178.287 E27.61646
G1 X249.814 Y179.082 E27.76238
G1 X229.481 Y192.95 E30.3819
G1 X228.768 Y193.423 E30.47297
G1 X227.986 Y193.893 E30.57007
G1 X227.166 Y194.292 E30.66713
G1 X226.315 Y194.618 E30.76412
G1 X225.438 Y194.868 E30.86118
G1 X224.542 Y195.041 E30.95831
G1 X223.196 Y195.151 E31.10204
G1 X222.403 Y195.164 E31.18645
G1 X77.534 Y195.164 E46.60521
G1 X76.837 Y195.154 E46.67941
G1 X75.926 Y195.101 E46.77653
G1 X75.024 Y194.968 E46.87357
G1 X74.137 Y194.757 E46.97061
G1 X73.272 Y194.469 E47.06764
G1 X72.435 Y194.106 E47.16474
G1 X71.273 Y193.445 E47.30703
G1 X70.443 Y192.898 E47.41282
G1 X49.902 Y178.887 E50.05921
G1 X49.319 Y178.478 E50.13501
G1 X48.578 Y177.904 E50.23477
G1 X48.004 Y177.417 E50.31488
G1 X47.335 Y176.797 E50.41196
G1 X46.723 Y176.121 E50.50902
G1 X46.096 Y175.282 E50.62049
G1 X45.733 Y174.741 E50.68983
G1 X45.258 Y173.962 E50.78694
G1 X44.854 Y173.144 E50.88404
G1 X44.546 Y172.361 E50.9736
G1 X44.335 Y171.754 E51.04199
G1 X44.073 Y170.88 E51.1391
G1 X43.889 Y169.987 E51.23614
G1 X43.794 Y169.208 E51.31967
G1 X43.741 Y168.576 E51.38717
G1 X43.705 Y167.665 E51.48421
G1 X43.749 Y166.754 E51.58128
G1 X43.858 Y165.932 E51.66953
G1 X43.968 Y165.297 E51.73812
G1 X44.163 Y164.406 E51.8352
G1 X44.435 Y163.536 E51.93222
G1 X44.743 Y162.778 E52.0193
G1 X45.01 Y162.189 E52.08813
G1 X45.422 Y161.376 E52.18513
G1 X45.98 Y160.494 E52.29622
G1 X47.68 Y158.005 E52.61702
G1 X49.038 Y155.881 E52.88534
G1 X50.353 Y153.689 E53.1574
G1 X51.584 Y151.5 E53.42469
G1 X52.759 Y149.264 E53.69353
G1 X53.884 Y146.971 E53.96537
G1 X54.936 Y144.661 E54.23553
G1 X55.928 Y142.308 E54.50731
G1 X56.832 Y139.984 E54.77271
G1 X57.687 Y137.585 E55.04377
G1 X58.466 Y135.188 E55.31203
G1 X59.193 Y132.715 E55.58637
G1 X59.829 Y130.302 E55.85197
G1 X60.414 Y127.795 E56.12596
G1 X60.909 Y125.367 E56.38969
G1 X61.349 Y122.85 E56.66165
G1 X61.718 Y120.311 E56.93472
G1 X62.007 Y117.84 E57.1995
G1 X62.233 Y115.28 E57.47303
G1 X62.382 Y112.787 E57.73884
G1 X62.462 Y110.232 E58.01091
G1 X62.471 Y107.684 E58.2821
G1 X62.415 Y105.318 E58.53399
G1 X62.433 Y104.406 E58.63107
G1 X62.532 Y103.5 E58.72808
G1 X62.709 Y102.605 E58.82518
G1 X62.964 Y101.73 E58.92218
G1 X63.295 Y100.88 E59.01927
G1 X63.699 Y100.062 E59.11637
G1 X64.173 Y99.283 E59.21342
G1 X64.714 Y98.549 E59.31047
G1 X65.316 Y97.865 E59.40745
G1 X65.977 Y97.236 E59.50456
G1 X66.69 Y96.667 E59.60165
G0 F6000 X66.248 Y96
G1 F1200 X67.008 Y95.496 E59.69871
G1 X67.943 Y94.989 E59.81191
G1 X69.098 Y94.508 E59.94508
G1 X69.81 Y94.26 E60.02532
G1 X72.25 Y93.377 E60.3015
G1 X74.557 Y92.466 E60.56549
G1 X76.892 Y91.468 E60.83576
G1 X79.136 Y90.431 E61.09886
G1 X81.411 Y89.302 E61.36917
G1 X84.377 Y87.709 E61.7275
G1 X85.231 Y87.297 E61.82842
G1 X86.214 Y86.926 E61.94024
G1 X87.092 Y86.679 E62.03732
G1 X88.136 Y86.484 E62.15036
G1 X89.341 Y86.381 E62.27907
G1 X90.005 Y86.366 E62.34976
G1 X101.587 Y86.367 E63.58246
G1 X102.332 Y86.379 E63.66177
G1 X103.242 Y86.433 E63.75879
G1 X103.859 Y86.513 E63.82501
G1 X104.79 Y86.659 E63.92531
G1 X107.353 Y87.025 E64.20086
G1 X109.875 Y87.312 E64.47102
G1 X112.338 Y87.522 E64.73411
G1 X114.855 Y87.665 E65.00243
G1 X117.427 Y87.739 E65.27629
G1 X118.737 Y87.748 E65.41572
G1 X181.278 Y87.748 E72.07211
G1 X183.876 Y87.711 E72.34865
G1 X186.384 Y87.605 E72.61582
G1 X188.911 Y87.425 E72.88546
G1 X191.363 Y87.182 E73.14771
G1 X193.887 Y86.859 E73.41854
G1 X195.614 Y86.587 E73.60461
G1 X196.311 Y86.487 E73.67955
G1 X197.58 Y86.379 E73.8151
G1 X198.209 Y86.366 E73.88206
G1 X209.777 Y86.367 E75.11328
G1 X210.516 Y86.378 E75.19194
G1 X211.495 Y86.438 E75.29633
G1 X212.398 Y86.57 E75.39346
G1 X213.422 Y86.814 E75.5055
G1 X214.287 Y87.102 E75.60253
G1 X215.189 Y87.49 E75.70704
G1 X215.667 Y87.734 E75.76416
G1 X217.145 Y88.537 E75.94318
G1 X219.411 Y89.714 E76.21495
G1 X221.676 Y90.81 E76.48276
G1 X223.959 Y91.838 E76.74924
G1 X226.305 Y92.814 E77.01968
G1 X228.681 Y93.725 E77.29051
G1 X230.946 Y94.524 E77.54614
G1 X231.856 Y94.894 E77.6507
G1 X232.669 Y95.308 E77.7478
G1 X233.56 Y95.865 E77.85964
G1 X234.344 Y96.459 E77.96432
G1 X235.071 Y97.118 E78.06876
G1 X235.692 Y97.786 E78.16583
G1 X236.338 Y98.616 E78.27777
G1 X236.833 Y99.381 E78.37475
G1 X237.324 Y100.312 E78.48678
G1 X237.703 Y101.218 E78.5913
G1 X237.982 Y102.086 E78.68834
G1 X238.215 Y103.113 E78.80043
G1 X238.345 Y104.099 E78.90628
G1 X238.384 Y105.33 E79.03736
G1 X238.362 Y106.187 E79.1286
G1 X238.328 Y108.779 E79.4045
G1 X238.367 Y111.316 E79.67455
G1 X238.475 Y113.787 E79.9378
G1 X238.655 Y116.294 E80.20531
G1 X238.908 Y118.826 E80.47614
G1 X239.223 Y121.263 E80.73767
G1 X239.619 Y123.777 E81.00854
G1 X240.082 Y126.249 E81.27622
G1 X240.613 Y128.7 E81.54314
G1 X241.206 Y131.115 E81.80781
G1 X241.878 Y133.544 E82.07604
G1 X242.613 Y135.939 E82.34268
G1 X243.431 Y138.355 E82.61416
G1 X244.293 Y140.682 E82.87827
G1 X245.242 Y143.04 E83.1488
G1 X246.231 Y145.307 E83.41205
G1 X247.301 Y147.585 E83.67992
G1 X248.441 Y149.842 E83.94904
G1 X249.643 Y152.063 E84.21782
G1 X250.88 Y154.204 E84.48099
G1 X252.184 Y156.318 E84.74535
G1 X254.352 Y159.572 E85.16151
G1 X254.72 Y160.101 E85.2301
G1 X255.24 Y160.926 E85.33389
G1 X255.596 Y161.601 E85.41511
G1 X255.916 Y162.283 E85.49529
G1 X256.06 Y162.615 E85.53381
G1 X256.411 Y163.533 E85.63841
G1 X256.678 Y164.469 E85.74201
G1 X256.847 Y165.292 E85.83143
G1 X256.966 Y166.014 E85.90931
G1 X257.072 Y166.991 E86.0139
G1 X257.093 Y167.903 E86.111
G1 X257.058 Y168.612 E86.18655
G1 X257.004 Y169.273 E86.25714
G1 X256.89 Y170.178 E86.35422
G1 X256.671 Y171.195 E86.46494
G1 X256.497 Y171.788 E86.53072
G1 X256.279 Y172.438 E86.60368
G1 X256.145 Y172.804 E86.64517
G1 X255.767 Y173.709 E86.74955
G1 X255.346 Y174.518 E86.84662
G1 X255.057 Y174.994 E86.90589
G1 X254.692 Y175.552 E86.97685
G1 X254.464 Y175.88 E87.01937
G1 X253.867 Y176.66 E87.12391
G1 X253.214 Y177.376 E87.22705
G1 X252.752 Y177.816 E87.29495
G1 X252.332 Y178.191 E87.35488
G1 X251.395 Y178.939 E87.48249
G1 X250.265 Y179.743 E87.63009
G1 X229.923 Y193.617 E90.25076
G1 X229.18 Y194.109 E90.34561
G1 X228.398 Y194.579 E90.44271
G1 X227.452 Y195.039 E90.55467
G1 X226.601 Y195.365 E90.65166
G1 X225.657 Y195.637 E90.75622
G1 X224.607 Y195.838 E90.87001
G1 X223.209 Y195.951 E91.01928
G1 X222.416 Y195.964 E91.1037
G1 X77.523 Y195.964 E106.52501
G1 X76.791 Y195.953 E106.60293
G1 X75.88 Y195.9 E106.70005
G1 X74.839 Y195.746 E106.81205
G1 X73.884 Y195.516 E106.9166
G1 X73.019 Y195.228 E107.01364
G1 X72.117 Y194.84 E107.11814
G1 X70.833 Y194.113 E107.27519
G1 X69.992 Y193.559 E107.38237
G1 X49.443 Y179.542 E110.02982
G1 X48.829 Y179.11 E110.10972
G1 X48.06 Y178.514 E110.21327
G1 X47.46 Y178.004 E110.29709
G1 X46.791 Y177.384 E110.39416
G1 X46.082 Y176.6 E110.50667
G1 X45.455 Y175.761 E110.61815
G1 X45.05 Y175.157 E110.69554
G1 X44.541 Y174.316 E110.80017
G1 X44.11 Y173.437 E110.90437
G1 X43.79 Y172.624 E110.99736
G1 X43.579 Y172.017 E111.06575
G1 X43.289 Y171.041 E111.17412
G1 X43.105 Y170.148 E111.27116
G1 X42.997 Y169.275 E111.36479
G1 X42.942 Y168.608 E111.43602
G1 X42.906 Y167.626 E111.5406
G1 X42.956 Y166.649 E111.64472
G1 X43.07 Y165.795 E111.73642
G1 X43.186 Y165.126 E111.80869
G1 X43.399 Y164.167 E111.91325
G1 X43.671 Y163.297 E112.01026
G1 X44.014 Y162.448 E112.10772
G1 X44.296 Y161.827 E112.18031
G1 X44.708 Y161.014 E112.27731
G1 X45.319 Y160.043 E112.39942
G1 X47.019 Y157.554 E112.72022
G1 X48.354 Y155.465 E112.98408
G1 X49.667 Y153.277 E113.25567
G1 X50.887 Y151.108 E113.52053
G1 X52.051 Y148.892 E113.78695
G1 X53.156 Y146.639 E114.05403
G1 X54.208 Y144.329 E114.32418
G1 X55.182 Y142.018 E114.5911
G1 X56.08 Y139.71 E114.85468
G1 X56.933 Y137.316 E115.12517
G1 X57.698 Y134.962 E115.38861
G1 X58.425 Y132.489 E115.66296
G1 X59.055 Y130.098 E115.92612
G1 X59.631 Y127.63 E116.19586
G1 X60.125 Y125.207 E116.45905
G1 X60.557 Y122.734 E116.72624
G1 X60.926 Y120.196 E116.99921
G1 X61.212 Y117.747 E117.26163
G1 X61.434 Y115.232 E117.53035
G1 X61.583 Y112.739 E117.79616
G1 X61.662 Y110.207 E118.06578
G1 X61.671 Y107.703 E118.33229
G1 X61.615 Y105.302 E118.5879
G1 X61.633 Y104.39 E118.68499
G1 X61.747 Y103.345 E118.79687
G1 X61.924 Y102.45 E118.89397
G1 X62.196 Y101.506 E118.99853
G1 X62.578 Y100.526 E119.11048
G1 X63.016 Y99.646 E119.2151
G1 X63.529 Y98.808 E119.31967
G1 X64.113 Y98.02 E119.42406
G1 X64.715 Y97.336 E119.52104
G1 X65.426 Y96.656 E119.62576
G1 X66.248 Y96 E119.73769
G0 F6000 X65.806 Y95.333
G1 F1200 X66.566 Y94.829 E119.83475
G1 X67.635 Y94.25 E119.96414
G1 X68.79 Y93.769 E120.0973
G1 X69.538 Y93.508 E120.18162
G1 X71.957 Y92.633 E120.45541
G1 X74.246 Y91.729 E120.71734
G1 X76.578 Y90.732 E120.98727
G1 X78.78 Y89.714 E121.24547
G1 X81.046 Y88.589 E121.51474
G1 X84.029 Y86.988 E121.87506
G1 X84.883 Y86.576 E121.97598
G1 X85.997 Y86.156 E122.10269
G1 X86.875 Y85.909 E122.19977
G1 X88.068 Y85.687 E122.32892
G1 X89.323 Y85.581 E122.46297
G1 X90.005 Y85.566 E122.53557
G1 X101.6 Y85.567 E123.76966
G1 X102.379 Y85.58 E123.85258
G1 X103.289 Y85.634 E123.9496
G1 X103.983 Y85.723 E124.02407
G1 X104.903 Y85.867 E124.12318
G1 X107.453 Y86.231 E124.39734
G1 X109.961 Y86.517 E124.666
G1 X112.383 Y86.723 E124.92471
G1 X114.887 Y86.865 E125.19164
G1 X117.45 Y86.939 E125.46454
G1 X118.742 Y86.948 E125.60206
G1 X181.267 Y86.948 E132.25674
G1 X183.865 Y86.911 E132.53328
G1 X186.328 Y86.807 E132.79566
G1 X188.848 Y86.627 E133.06455
G1 X191.261 Y86.388 E133.32263
G1 X193.785 Y86.066 E133.59345
G1 X195.5 Y85.795 E133.77824
G1 X196.197 Y85.695 E133.85318
G1 X197.563 Y85.579 E133.99909
G1 X198.209 Y85.566 E134.06786
G1 X209.789 Y85.567 E135.30035
G1 X210.565 Y85.579 E135.38295
G1 X211.544 Y85.639 E135.48735
G1 X212.514 Y85.778 E135.59164
G1 X213.675 Y86.055 E135.71868
G1 X214.603 Y86.367 E135.82288
G1 X215.553 Y86.777 E135.933
G1 X216.049 Y87.031 E135.99231
G1 X217.514 Y87.827 E136.16977
G1 X219.78 Y89.004 E136.44154
G1 X222.024 Y90.09 E136.70687
G1 X224.266 Y91.099 E136.96854
G1 X226.612 Y92.075 E137.23898
G1 X228.967 Y92.978 E137.50742
G1 X231.247 Y93.783 E137.76477
G1 X232.219 Y94.181 E137.87656
G1 X233.032 Y94.595 E137.97366
G1 X234.043 Y95.227 E138.10056
G1 X234.827 Y95.821 E138.20525
G1 X235.657 Y96.573 E138.32445
G1 X236.278 Y97.241 E138.42152
G1 X237.01 Y98.181 E138.54833
G1 X237.505 Y98.946 E138.64531
G1 X238.032 Y99.939 E138.76496
G1 X238.465 Y100.973 E138.88427
G1 X238.744 Y101.841 E138.98131
G1 X239.008 Y103.008 E139.10865
G1 X239.145 Y104.074 E139.22304
G1 X239.184 Y105.351 E139.35902
G1 X239.162 Y106.208 E139.45026
G1 X239.128 Y108.789 E139.72499
G1 X239.167 Y111.304 E139.9927
G1 X239.273 Y113.73 E140.25115
G1 X239.451 Y116.214 E140.5162
G1 X239.704 Y118.746 E140.78703
G1 X240.013 Y121.139 E141.04384
G1 X240.405 Y123.63 E141.31223
G1 X240.864 Y126.08 E141.57752
G1 X241.39 Y128.509 E141.84204
G1 X241.982 Y130.921 E142.10637
G1 X242.643 Y133.309 E142.37009
G1 X243.371 Y135.682 E142.63427
G1 X244.189 Y138.098 E142.90575
G1 X245.035 Y140.383 E143.16508
G1 X245.982 Y142.736 E143.43504
G1 X246.955 Y144.967 E143.69409
G1 X248.015 Y147.224 E143.95948
G1 X249.145 Y149.461 E144.22623
G1 X250.347 Y151.682 E144.49501
G1 X251.561 Y153.784 E144.75336
G1 X252.85 Y155.874 E145.01471
G1 X255.009 Y159.115 E145.42919
G1 X255.397 Y159.674 E145.50161
G1 X255.917 Y160.499 E145.6054
G1 X256.304 Y161.228 E145.69325
G1 X256.65 Y161.965 E145.7799
G1 X256.807 Y162.329 E145.82209
G1 X257.158 Y163.247 E145.9267
G1 X257.462 Y164.308 E146.04417
G1 X257.631 Y165.131 E146.13359
G1 X257.761 Y165.928 E146.21954
G1 X257.872 Y166.973 E146.33138
G1 X257.893 Y167.885 E146.42848
G1 X257.855 Y168.677 E146.51287
G1 X257.798 Y169.373 E146.58719
G1 X257.684 Y170.278 E146.68427
G1 X257.439 Y171.42 E146.80859
G1 X257.265 Y172.013 E146.87436
G1 X257.03 Y172.713 E146.95295
G1 X256.883 Y173.112 E146.99821
G1 X256.477 Y174.078 E147.10973
G1 X256.03 Y174.933 E147.21242
G1 X255.726 Y175.432 E147.27461
G1 X255.349 Y176.009 E147.34797
G1 X255.121 Y176.337 E147.39048
G1 X254.458 Y177.199 E147.50622
G1 X253.766 Y177.955 E147.61531
G1 X253.285 Y178.413 E147.686
G1 X252.865 Y178.788 E147.74592
