;FLAVOR:Marlin
;TIME:3110
;Filament used: 12.9593m
;Layer height: 0.6
;MINX:80.619
;MINY:71.725
;MINZ:0.4
;MAXX:154.382
;MAXY:145.496
;MAXZ:17.8
;Generated with Cura_SteamEngine 5.3.1
M82 ;absolute extrusion mode
; START G-CODE BEGIN

M104 S230.0 ﻿T0
M140 S60.0

G28 ; Home all axes
G92 E0 ; Reset Extruder
M420 S1 ; Load Mesh

M109 S230.0 ﻿T0
M190 S60.0

G92 E0 ; Reset Extruder

G1 X0.6 Y20 Z0.3 F5000.0 ; Move to start position
G1 X0.6 Y200.0 Z0.3 F1500.0 E15 ; Draw the first line
G1 X0.9 Y200.0 Z0.3 F5000.0 ; Move to side a little
G1 X0.9 Y20 Z0.3 F1500.0 E30 ; Draw the second line
G92 E0 ; Reset Extruder
G1 Z2.0 F3000 ; Move Z Axis up little to prevent scratching of Heat Bed
G1 X5 Y20 Z0.3 F5000.0 ; Move over to prevent blob squish

; START G-CODE END
G92 E0
G92 E0
G1 F2700 E-4
;LAYER_COUNT:30
;LAYER:0
M107
;MESH:wheel cutting jig.stl
G0 F6000 X119.225 Y116.541 Z0.4
;TYPE:WALL-INNER
G1 F2700 E0
G1 F1200 X118.646 Y116.665 E0.12998
G1 X118.176 Y116.689 E0.23329
G1 X117.703 Y116.639 E0.3377
G1 X117.259 Y116.52 E0.43861
G1 X112.248 Y114.533 E1.62193
G1 X111.983 Y114.394 E1.68762
G1 X111.691 Y114.202 E1.76433
G1 X111.337 Y113.892 E1.86762
G1 X111.085 Y113.61 E1.95064
G1 X110.783 Y113.123 E2.07643
G1 X110.619 Y112.686 E2.1789
G1 X110.516 Y112.234 E2.28066
G1 X109.767 Y107.155 E3.40765
G1 X109.738 Y106.839 E3.4773
G1 X109.755 Y106.371 E3.58011
G1 X109.848 Y105.901 E3.68528
G1 X109.964 Y105.569 E3.76248
G1 X110.178 Y105.148 E3.86615
G1 X110.445 Y104.764 E3.96882
G1 X110.784 Y104.438 E4.07206
G1 X114.898 Y101.178 E5.22432
G1 X115.16 Y100.993 E5.29472
G1 X115.573 Y100.775 E5.39724
G1 X115.908 Y100.654 E5.47543
G1 X116.367 Y100.556 E5.57846
G1 X116.625 Y100.533 E5.63532
G1 X116.961 Y100.536 E5.70908
G1 X117.422 Y100.603 E5.81134
G1 X117.719 Y100.683 E5.87886
G1 X122.722 Y102.669 E7.06047
G1 X123.032 Y102.824 E7.13655
G1 X123.419 Y103.089 E7.23951
G1 X123.762 Y103.415 E7.34339
G1 X124.012 Y103.734 E7.43236
G1 X124.237 Y104.103 E7.52723
G1 X124.397 Y104.53 E7.62733
G1 X124.483 Y104.874 E7.70516
G1 X125.271 Y110.212 E8.88964
G1 X125.282 Y110.752 E9.00821
G1 X125.17 Y111.313 E9.13379
G1 X125.09 Y111.558 E9.19036
G1 X124.899 Y111.97 E9.29005
G1 X124.577 Y112.451 E9.41711
G1 X124.231 Y112.783 E9.52238
G1 X120.011 Y116.127 E10.70432
G1 X119.757 Y116.288 E10.77034
G1 X119.225 Y116.541 E10.89965
G0 F6000 X118.027 Y115.486
G1 F1200 X117.657 Y115.388 E10.98367
G1 X112.709 Y113.421 E12.15252
G1 X112.467 Y113.282 E12.21379
G1 X112.247 Y113.104 E12.27591
G1 X112.055 Y112.891 E12.33886
G1 X111.903 Y112.657 E12.40011
G1 X111.734 Y112.256 E12.49563
G1 X110.935 Y106.839 E13.69762
G1 X110.947 Y106.509 E13.77011
G1 X111.003 Y106.227 E13.83322
G1 X111.131 Y105.9 E13.91031
G1 X111.28 Y105.657 E13.97288
G1 X111.564 Y105.349 E14.06485
G1 X115.741 Y102.047 E15.23367
G1 X116.048 Y101.877 E15.3107
G1 X116.388 Y101.769 E15.38901
G1 X116.679 Y101.732 E15.45341
G1 X116.951 Y101.74 E15.51314
G1 X117.361 Y101.833 E15.60543
G1 X122.309 Y103.799 E16.7742
G1 X122.552 Y103.939 E16.83576
G1 X122.834 Y104.169 E16.91564
G1 X123.088 Y104.502 E17.00758
G1 X123.229 Y104.821 E17.08414
G1 X123.303 Y105.094 E17.14623
G1 X124.091 Y110.477 E18.34048
G1 X124.047 Y110.853 E18.42359
G1 X123.915 Y111.259 E18.5173
G1 X123.693 Y111.62 E18.61033
G1 X123.504 Y111.825 E18.67154
G1 X119.331 Y115.133 E19.84049
G1 X119.033 Y115.314 E19.91703
G1 X118.768 Y115.416 E19.97936
G1 X118.389 Y115.485 E20.06393
G1 X118.027 Y115.486 E20.14339
G1 F2700 E16.14339
G0 F6000 X118.084 Y117.174
G0 X118.459 Y142.369
G0 X117.007 Y142.895
G1 F2700 E20.14339
G1 F1200 X119.05 Y142.863 E20.59192
G1 X121.088 Y142.711 E21.04054
G1 X123.115 Y142.436 E21.48958
G1 X125.157 Y142.034 E21.94643
G1 X127.102 Y141.528 E22.3876
G1 X129.091 Y140.881 E22.84674
G1 X130.981 Y140.139 E23.29246
G1 X132.847 Y139.276 E23.74376
G1 X134.656 Y138.301 E24.19487
G1 X136.392 Y137.228 E24.64287
G1 X138.075 Y136.045 E25.09446
G1 X139.684 Y134.761 E25.54634
G1 X141.19 Y133.405 E25.99119
G1 X142.627 Y131.949 E26.44026
G1 X143.991 Y130.39 E26.89498
G1 X145.242 Y128.773 E27.34377
G1 X146.4 Y127.072 E27.79548
G1 X147.465 Y125.29 E28.2512
G1 X148.397 Y123.496 E28.69498
G1 X149.227 Y121.63 E29.1433
G1 X149.962 Y119.672 E29.6024
G1 X150.567 Y117.713 E30.05247
G1 X151.043 Y115.758 E30.49416
G1 X151.412 Y113.72 E30.94881
G1 X151.66 Y111.662 E31.40385
G1 X151.781 Y109.679 E31.83996
G1 X151.781 Y107.564 E32.30424
G1 X151.66 Y105.557 E32.74561
G1 X151.413 Y103.5 E33.2004
G1 X151.043 Y101.462 E33.65508
G1 X150.567 Y99.507 E34.09678
G1 X149.962 Y97.548 E34.54685
G1 X149.227 Y95.59 E35.00595
G1 X148.393 Y93.714 E35.45663
G1 X147.466 Y91.93 E35.89796
G1 X146.4 Y90.148 E36.35379
G1 X145.236 Y88.44 E36.80751
G1 X143.982 Y86.818 E37.25757
G1 X142.657 Y85.302 E37.69955
G1 X141.197 Y83.82 E38.15622
G1 X139.684 Y82.459 E38.60296
G1 X138.075 Y81.175 E39.05484
G1 X136.392 Y79.992 E39.50642
G1 X134.657 Y78.919 E39.95423
G1 X132.846 Y77.945 E40.40563
G1 X131.009 Y77.093 E40.85014
G1 X129.084 Y76.337 E41.30413
G1 X127.102 Y75.692 E41.76167
G1 X125.156 Y75.186 E42.20306
G1 X123.115 Y74.785 E42.65966
G1 X121.088 Y74.509 E43.10872
G1 X119.05 Y74.357 E43.55734
G1 X117.006 Y74.326 E44.00609
G1 X114.93 Y74.42 E44.46227
G1 X112.896 Y74.632 E44.91119
G1 X110.901 Y74.964 E45.35514
G1 X108.888 Y75.423 E45.80837
G1 X106.894 Y76.007 E46.26448
G1 X104.995 Y76.687 E46.70726
G1 X103.105 Y77.495 E47.15847
G1 X101.248 Y78.423 E47.61418
G1 X99.492 Y79.437 E48.0593
G1 X97.763 Y80.579 E48.51416
G1 X96.146 Y81.792 E48.9579
G1 X94.55 Y83.143 E49.41691
G1 X93.087 Y84.543 E49.86142
G1 X91.686 Y86.053 E50.31359
G1 X90.372 Y87.651 E50.76774
G1 X89.167 Y89.312 E51.2182
G1 X88.085 Y91.006 E51.65944
G1 X87.065 Y92.833 E52.11877
G1 X86.184 Y94.663 E52.56462
G1 X85.405 Y96.565 E53.0158
G1 X84.749 Y98.485 E53.46119
G1 X84.208 Y100.439 E53.90626
G1 X83.769 Y102.509 E54.37077
G1 X83.471 Y104.473 E54.80684
G1 X83.281 Y106.581 E55.27145
G1 X83.22 Y108.61 E55.71706
G1 X83.281 Y110.64 E56.16288
G1 X83.468 Y112.723 E56.62197
G1 X83.768 Y114.712 E57.06353
G1 X84.2 Y116.75 E57.52084
G1 X84.746 Y118.722 E57.97002
G1 X85.405 Y120.654 E58.41812
G1 X86.185 Y122.557 E58.86958
G1 X87.065 Y124.387 E59.31533
G1 X88.085 Y126.214 E59.77466
G1 X89.167 Y127.909 E60.21609
G1 X90.372 Y129.569 E60.66637
G1 X91.686 Y131.167 E61.12052
G1 X93.087 Y132.677 E61.57269
G1 X94.55 Y134.077 E62.0172
G1 X96.145 Y135.429 E62.47619
G1 X97.763 Y136.641 E62.91997
G1 X99.493 Y137.782 E63.37489
G1 X101.248 Y138.797 E63.81993
G1 X103.105 Y139.725 E64.27564
G1 X104.995 Y140.534 E64.72694
G1 X106.894 Y141.213 E65.16965
G1 X108.882 Y141.795 E65.62436
G1 X110.88 Y142.251 E66.07424
G1 X112.897 Y142.588 E66.52314
G1 X114.906 Y142.799 E66.96657
G1 X117.007 Y142.895 E67.42826
G0 F6000 X116.989 Y144.095
G1 F1200 X119.104 Y144.063 E67.89259
G1 X121.213 Y143.905 E68.35685
G1 X123.311 Y143.62 E68.82163
G1 X125.424 Y143.205 E69.29433
G1 X127.439 Y142.68 E69.75142
G1 X129.497 Y142.011 E70.22646
G1 X131.453 Y141.243 E70.68774
G1 X133.383 Y140.35 E71.15456
G1 X135.257 Y139.341 E71.62178
G1 X137.054 Y138.23 E72.08555
G1 X138.795 Y137.006 E72.55273
G1 X140.46 Y135.677 E73.02038
G1 X142.02 Y134.273 E73.4811
G1 X143.506 Y132.767 E73.94553
G1 X144.918 Y131.153 E74.41628
G1 X146.213 Y129.478 E74.88104
G1 X147.412 Y127.718 E75.34853
G1 X148.514 Y125.874 E75.82009
G1 X149.478 Y124.017 E76.27939
G1 X150.338 Y122.085 E76.74361
G1 X151.098 Y120.06 E77.21841
G1 X151.724 Y118.032 E77.68432
G1 X152.217 Y116.008 E78.14161
G1 X152.6 Y113.899 E78.61214
G1 X152.856 Y111.77 E79.08286
G1 X152.981 Y109.716 E79.53458
G1 X152.981 Y107.528 E80.01489
G1 X152.856 Y105.449 E80.47209
G1 X152.6 Y103.321 E80.94259
G1 X152.217 Y101.212 E81.41312
G1 X151.724 Y99.188 E81.87041
G1 X151.098 Y97.16 E82.33632
G1 X150.338 Y95.134 E82.81132
G1 X149.474 Y93.193 E83.27771
G1 X148.514 Y91.345 E83.73485
G1 X147.412 Y89.502 E84.20623
G1 X146.208 Y87.734 E84.67578
G1 X144.909 Y86.056 E85.1416
G1 X143.537 Y84.485 E85.59947
G1 X142.026 Y82.952 E86.07197
G1 X140.46 Y81.543 E86.5344
G1 X138.795 Y80.215 E87.00192
G1 X137.054 Y78.99 E87.46922
G1 X135.257 Y77.879 E87.93299
G1 X133.383 Y76.871 E88.4001
G1 X131.481 Y75.989 E88.86033
G1 X129.49 Y75.207 E89.32989
G1 X127.439 Y74.54 E89.80333
G1 X125.424 Y74.015 E90.26042
G1 X123.311 Y73.6 E90.73313
G1 X121.213 Y73.315 E91.1979
G1 X119.104 Y73.158 E91.66214
G1 X116.988 Y73.125 E92.1267
G1 X114.841 Y73.222 E92.59848
G1 X112.735 Y73.442 E93.0633
G1 X110.669 Y73.786 E93.52307
G1 X108.586 Y74.261 E93.99206
G1 X106.523 Y74.865 E94.46393
G1 X104.556 Y75.569 E94.92254
G1 X102.601 Y76.406 E95.38938
G1 X100.679 Y77.366 E95.86099
G1 X98.861 Y78.416 E96.32185
G1 X97.072 Y79.597 E96.79242
G1 X95.397 Y80.853 E97.252
G1 X93.746 Y82.251 E97.7269
G1 X92.232 Y83.7 E98.18693
G1 X90.782 Y85.263 E98.65494
G1 X89.422 Y86.917 E99.125
G1 X88.175 Y88.636 E99.59119
G1 X87.054 Y90.39 E100.04814
G1 X86 Y92.28 E100.52318
G1 X85.088 Y94.175 E100.98483
G1 X84.281 Y96.143 E101.45175
G1 X83.602 Y98.131 E101.9129
G1 X83.042 Y100.154 E102.37368
G1 X82.587 Y102.294 E102.85395
G1 X82.279 Y104.329 E103.30576
G1 X82.082 Y106.509 E103.78625
G1 X82.019 Y108.61 E104.24766
G1 X82.082 Y110.712 E104.7093
G1 X82.276 Y112.867 E105.18427
G1 X82.586 Y114.926 E105.64135
G1 X83.034 Y117.034 E106.11442
G1 X83.598 Y119.076 E106.57946
G1 X84.281 Y121.076 E107.04339
G1 X85.088 Y123.045 E107.51051
G1 X86 Y124.94 E107.97217
G1 X87.054 Y126.83 E108.44721
G1 X88.175 Y128.585 E108.90434
G1 X89.422 Y130.303 E109.37035
G1 X90.782 Y131.957 E109.84041
G1 X92.232 Y133.52 E110.30842
G1 X93.747 Y134.969 E110.76861
G1 X95.397 Y136.367 E111.24334
G1 X97.072 Y137.623 E111.70292
G1 X98.861 Y138.804 E112.17349
G1 X100.679 Y139.854 E112.63435
G1 X102.601 Y140.814 E113.10596
G1 X104.556 Y141.651 E113.5728
G1 X106.523 Y142.355 E114.03141
G1 X108.58 Y142.957 E114.5019
G1 X110.648 Y143.429 E114.96753
G1 X112.736 Y143.778 E115.43224
G1 X114.816 Y143.996 E115.89134
G1 X116.989 Y144.095 E116.36884
G0 F6000 X116.971 Y145.295
;TYPE:WALL-OUTER
G1 F1200 X119.158 Y145.262 E116.84898
G1 X121.339 Y145.099 E117.32908
G1 X123.508 Y144.804 E117.8096
G1 X125.691 Y144.375 E118.29797
G1 X127.776 Y143.832 E118.77093
G1 X129.902 Y143.141 E119.26165
G1 X131.925 Y142.347 E119.73872
G1 X133.92 Y141.424 E120.22125
G1 X135.857 Y140.381 E120.70418
G1 X137.715 Y139.232 E121.18373
G1 X139.515 Y137.966 E121.6668
G1 X141.236 Y136.593 E122.15009
G1 X142.849 Y135.141 E122.6265
G1 X144.386 Y133.584 E123.10677
G1 X145.845 Y131.916 E123.59323
G1 X147.185 Y130.184 E124.07394
G1 X148.424 Y128.364 E124.55725
G1 X149.562 Y126.459 E125.04436
G1 X150.56 Y124.538 E125.51957
G1 X151.449 Y122.541 E125.99942
G1 X152.234 Y120.448 E126.49012
G1 X152.882 Y118.351 E126.97192
G1 X153.391 Y116.257 E127.44498
G1 X153.787 Y114.078 E127.93114
G1 X154.052 Y111.878 E128.41757
G1 X154.181 Y109.752 E128.88512
G1 X154.181 Y107.492 E129.38123
G1 X154.052 Y105.341 E129.85425
G1 X153.787 Y103.142 E130.34046
G1 X153.391 Y100.963 E130.82663
G1 X152.882 Y98.869 E131.29968
G1 X152.234 Y96.772 E131.78148
G1 X151.449 Y94.679 E132.27219
G1 X150.556 Y92.672 E132.7544
G1 X149.562 Y90.76 E133.22745
G1 X148.424 Y88.856 E133.71437
G1 X147.179 Y87.028 E134.19988
G1 X145.836 Y85.293 E134.68151
G1 X144.417 Y83.669 E135.15492
G1 X142.856 Y82.084 E135.64326
G1 X141.236 Y80.627 E136.12155
G1 X139.515 Y79.254 E136.60483
G1 X137.715 Y77.988 E137.08791
G1 X135.857 Y76.839 E137.56746
G1 X133.92 Y75.797 E138.05028
G1 X131.953 Y74.885 E138.52623
G1 X129.895 Y74.077 E139.01156
G1 X127.776 Y73.388 E139.50069
G1 X125.691 Y72.845 E139.97365
G1 X123.508 Y72.416 E140.46202
G1 X121.339 Y72.121 E140.94254
G1 X119.158 Y71.958 E141.42264
G1 X116.97 Y71.925 E141.903
G1 X114.751 Y72.025 E142.3906
G1 X112.574 Y72.252 E142.87108
G1 X110.437 Y72.608 E143.34665
G1 X108.284 Y73.099 E143.8314
G1 X106.152 Y73.723 E144.31905
G1 X104.118 Y74.451 E144.79328
G1 X102.096 Y75.316 E145.27606
G1 X100.11 Y76.309 E145.76347
G1 X98.23 Y77.395 E146.24007
G1 X96.381 Y78.615 E146.72635
G1 X94.649 Y79.914 E147.20161
G1 X92.943 Y81.359 E147.69239
G1 X91.376 Y82.858 E148.16841
G1 X89.878 Y84.473 E148.65196
G1 X88.472 Y86.183 E149.13793
G1 X87.183 Y87.96 E149.61983
G1 X86.024 Y89.774 E150.09237
G1 X84.934 Y91.727 E150.58334
G1 X83.991 Y93.687 E151.0608
G1 X83.157 Y95.721 E151.54337
G1 X82.455 Y97.777 E152.02028
G1 X81.876 Y99.869 E152.49677
G1 X81.406 Y102.08 E152.99297
G1 X81.087 Y104.185 E153.46033
G1 X80.884 Y106.437 E153.95669
G1 X80.819 Y108.61 E154.43391
G1 X80.884 Y110.784 E154.91135
G1 X81.084 Y113.01 E155.40197
G1 X81.405 Y115.14 E155.87482
G1 X81.868 Y117.319 E156.36382
G1 X82.451 Y119.43 E156.84457
G1 X83.157 Y121.498 E157.32426
G1 X83.991 Y123.533 E157.80703
G1 X84.934 Y125.493 E158.28449
G1 X86.024 Y127.446 E158.77546
G1 X87.183 Y129.261 E159.24819
G1 X88.472 Y131.037 E159.72991
G1 X89.878 Y132.747 E160.21588
G1 X91.376 Y134.362 E160.69943
G1 X92.943 Y135.861 E161.17545
G1 X94.649 Y137.306 E161.66623
G1 X96.381 Y138.605 E162.14149
G1 X98.23 Y139.825 E162.62777
G1 X100.11 Y140.911 E163.10436
G1 X102.096 Y141.904 E163.59178
G1 X104.118 Y142.769 E164.07456
G1 X106.152 Y143.497 E164.54879
G1 X108.278 Y144.119 E165.03505
G1 X110.415 Y144.607 E165.51623
G1 X112.574 Y144.968 E165.99675
G1 X114.726 Y145.193 E166.47172
G1 X116.971 Y145.295 E166.96505
G1 F2700 E162.96505
G0 F6000 X116.967 Y144.196
G0 X119.027 Y142.36
G0 X118.433 Y117.17
G0 X119.169 Y115.132
G0 X118.471 Y114.25
G1 F2700 E166.96505
G1 F1200 X118.215 Y114.288 E167.02186
G1 X118.055 Y114.256 E167.05768
G1 X113.226 Y112.338 E168.19828
G1 X113.089 Y112.248 E168.23426
G1 X112.957 Y112.083 E168.28064
G1 X112.899 Y111.93 E168.31656
G1 X112.137 Y106.765 E169.46264
G1 X112.181 Y106.487 E169.52443
G1 X112.328 Y106.276 E169.58088
G1 X116.44 Y103.023 E170.73183
G1 X116.636 Y102.943 E170.77831
G1 X116.939 Y102.957 E170.84489
G1 X121.812 Y104.892 E171.99584
G1 X122.036 Y105.096 E172.06235
G1 X122.123 Y105.314 E172.11388
G1 X122.879 Y110.457 E173.25498
G1 X122.852 Y110.688 E173.30604
G1 X122.743 Y110.902 E173.35876
G1 X118.614 Y114.171 E174.51482
G1 X118.471 Y114.25 E174.55068
G1 F2700 E170.55068
G0 F6000 X119.169 Y115.132
G0 X118.084 Y117.174
G0 X118.459 Y142.369
G0 X117.014 Y142.489
G0 X117.035 Y141.789
;TYPE:SKIN
G1 F2700 E174.55068
G1 F1200 X114.972 Y141.695 E175.00402
G1 X113.038 Y141.494 E175.43085
G1 X111.115 Y141.171 E175.85889
G1 X109.161 Y140.725 E176.29886
G1 X107.216 Y140.156 E176.74372
G1 X105.412 Y139.511 E177.16428
G1 X103.574 Y138.723 E177.60327
G1 X101.769 Y137.823 E178.04602
G1 X100.079 Y136.846 E178.47453
G1 X98.39 Y135.731 E178.9188
G1 X96.851 Y134.576 E179.34119
G1 X95.275 Y133.241 E179.79459
G1 X93.879 Y131.905 E180.21876
G1 X92.518 Y130.437 E180.6582
G1 X91.234 Y128.877 E181.10172
G1 X90.069 Y127.27 E181.53743
G1 X89.045 Y125.665 E181.95536
G1 X88.037 Y123.86 E182.40918
G1 X87.194 Y122.108 E182.83598
G1 X86.438 Y120.263 E183.27367
G1 X85.802 Y118.402 E183.70539
G1 X85.277 Y116.498 E184.13895
G1 X84.85 Y114.493 E184.58895
G1 X84.567 Y112.604 E185.00825
G1 X84.383 Y110.554 E185.46006
G1 X84.325 Y108.61 E185.88699
G1 X84.383 Y106.668 E186.31349
G1 X84.571 Y104.586 E186.77238
G1 X84.853 Y102.727 E187.18513
G1 X85.287 Y100.683 E187.64383
G1 X85.811 Y98.792 E188.07457
G1 X86.438 Y96.957 E188.50025
G1 X87.194 Y95.113 E188.93774
G1 X88.037 Y93.36 E189.36474
G1 X89.045 Y91.555 E189.81856
G1 X90.069 Y89.951 E190.2363
G1 X91.235 Y88.343 E190.67232
G1 X92.518 Y86.783 E191.11571
G1 X93.879 Y85.315 E191.55514
G1 X95.296 Y83.959 E191.98568
G1 X96.833 Y82.658 E192.42772
G1 X98.39 Y81.489 E192.85512
G1 X100.081 Y80.373 E193.29987
G1 X101.769 Y79.397 E193.7279
G1 X103.574 Y78.497 E194.17065
G1 X105.412 Y77.709 E194.60964
G1 X107.241 Y77.055 E195.03603
G1 X109.146 Y76.497 E195.47178
G1 X111.133 Y76.044 E195.91915
G1 X113.035 Y75.727 E196.34243
G1 X114.996 Y75.523 E196.77523
G1 X117.033 Y75.431 E197.22284
G1 X119.004 Y75.461 E197.65556
G1 X120.968 Y75.607 E198.08788
G1 X122.926 Y75.874 E198.52167
G1 X124.923 Y76.266 E198.96841
G1 X126.771 Y76.748 E199.38765
G1 X128.722 Y77.383 E199.83804
G1 X130.577 Y78.111 E200.27548
G1 X132.351 Y78.934 E200.70477
