;FLAVOR:Marlin
;TIME:1900
;Filament used: 7.6333m
;Layer height: 0.6
;MINX:56.939
;MINY:93.456
;MINZ:0.4
;MAXX:166.207
;MAXY:143.565
;MAXZ:10
;Generated with Cura_SteamEngine 5.3.1
M82 ;absolute extrusion mode
; START G-CODE BEGIN

M104 S230.0 ﻿T0
M140 S60.0

G28 ; Home all axes
G92 E0 ; Reset Extruder
M420 S1 ; Load Mesh

M109 S230.0 ﻿T0
M190 S60.0

G92 E0 ; Reset Extruder

G1 X0.6 Y20 Z0.3 F5000.0 ; Move to start position
G1 X0.6 Y200.0 Z0.3 F1500.0 E15 ; Draw the first line
G1 X0.9 Y200.0 Z0.3 F5000.0 ; Move to side a little
G1 X0.9 Y20 Z0.3 F1500.0 E30 ; Draw the second line
G92 E0 ; Reset Extruder
G1 Z2.0 F3000 ; Move Z Axis up little to prevent scratching of Heat Bed
G1 X5 Y20 Z0.3 F5000.0 ; Move over to prevent blob squish

; START G-CODE END
G92 E0
G92 E0
G1 F2700 E-4
;LAYER_COUNT:17
;LAYER:0
M107
;MESH:printed 2.stl
G0 F6000 X68.439 Y96.75 Z0.4
;TYPE:WALL-INNER
G1 F2700 E0
G1 F743.4 X69.413 Y96.745 E0.34513
G1 F738.5 X69.94 Y96.761 E0.5332
G1 F2700 E-3.4668
G0 F6000 X90.782 Y122.761
G0 X88.259 Y128.499
G0 X88.046 Y129.248
G0 X87.98 Y130.01
G0 X88.043 Y130.74
G0 X88.26 Y131.502
G0 X88.628 Y132.215
G0 X88.963 Y132.656
G0 X98.037 Y140.889
G1 F2700 E0.5332
G1 F1200 X99.237 Y134.078 E2.05136
G1 X99.208 Y133.13 E2.25956
G1 X99.281 Y132.02 E2.50375
G1 X99.364 Y131.425 E2.63563
G1 X99.435 Y131.016 E2.72675
G1 X99.557 Y130.487 E2.84593
G1 X99.667 Y130.078 E2.9389
G1 X99.89 Y129.356 E3.10478
G1 X100.206 Y128.584 E3.28789
G1 X101.407 Y121.779 E4.80479
G1 X92.495 Y120.207 E6.79133
G1 X91.611 Y120.007 E6.99028
G1 X90.772 Y119.718 E7.18508
G1 X90.054 Y119.395 E7.35791
G1 X89.279 Y118.959 E7.55311
G1 X88.539 Y118.43 E7.75279
G1 X87.86 Y117.836 E7.95082
G1 X87.276 Y117.211 E8.1386
G1 X80.853 Y109.552 E10.33283
G1 X80.349 Y108.885 E10.51635
G1 X79.879 Y108.109 E10.7155
G1 X79.567 Y107.467 E10.8722
G1 X79.229 Y106.574 E11.0818
G1 X79.005 Y105.719 E11.27582
G1 X78.861 Y104.801 E11.4798
G1 F1201 X78.819 Y103.99 E11.65792
G1 X78.816 Y94.856 E13.66131
G1 F1200 X71.9 Y94.856 E15.17949
G1 X70.975 Y95.05 E15.38696
G1 X69.877 Y95.169 E15.6294
G1 X69.316 Y95.191 E15.75265
G1 X68.871 Y95.191 E15.85033
G1 X68.323 Y95.166 E15.97075
G1 X67.946 Y95.135 E16.05379
G1 X67.15 Y95.036 E16.22987
G1 X66.324 Y94.857 E16.4154
G1 X59.41 Y94.857 E17.93314
G1 X59.409 Y113.061 E21.92923
G1 X59.433 Y113.436 E22.01171
G1 X59.495 Y113.795 E22.09169
G1 X59.59 Y114.115 E22.16496
G1 X59.739 Y114.457 E22.24685
G1 X59.901 Y114.739 E22.31824
G1 X60.144 Y115.063 E22.40715
G1 X78.247 Y136.641 E28.59008
G1 X78.541 Y136.951 E28.68387
G1 X78.803 Y137.172 E28.75911
G1 X79.091 Y137.361 E28.83473
G1 X79.409 Y137.521 E28.91287
G1 X79.735 Y137.639 E28.98898
G1 X80.119 Y137.73 E29.07561
G1 X98.037 Y140.889 E33.06957
G0 F6000 X95.935 Y137.887
G1 F911.4 X96.378 Y135.375 E33.80682
G1 X95.863 Y135.756 E33.99198
G1 X95.463 Y135.996 E34.1268
G1 X94.975 Y136.25 E34.28581
G1 X94.306 Y136.508 E34.49306
G1 X93.5 Y136.726 E34.73438
G1 X93.041 Y136.804 E34.86895
G1 F860.2 X92.657 Y136.928 E34.99252
G1 F773.4 X92.272 Y137.053 E35.1304
G1 X92.655 Y137.215 E35.27204
G1 F860.2 X93.039 Y137.378 E35.39979
G1 F911.4 X95.935 Y137.887 E36.24965
G0 F6000 X97.063 Y139.498
G1 F1200 X98.034 Y133.991 E37.47718
G1 X98.011 Y133.258 E37.63817
G1 X98.016 Y132.969 E37.70161
G1 F1109.4 X97.947 Y132.488 E37.81699
G1 F903.4 X97.773 Y132.084 E37.94526
G1 F760.3 X97.69 Y131.876 E38.02285
G1 X97.53 Y132.034 E38.10076
G1 F903.4 X97.204 Y132.288 E38.22127
G1 F1109.4 X96.903 Y132.669 E38.33656
G1 F1200 X96.761 Y132.917 E38.39929
G1 X96.608 Y133.138 E38.4583
G1 X96.326 Y133.507 E38.56024
G1 X95.943 Y133.92 E38.68389
G1 X95.599 Y134.23 E38.78554
G1 X95.145 Y134.565 E38.90939
G1 X94.745 Y134.806 E39.01191
G1 X94.412 Y134.979 E39.09428
G1 X93.818 Y135.207 E39.23395
G1 X93.267 Y135.355 E39.35919
G1 X92.808 Y135.433 E39.46139
G1 X92.301 Y135.475 E39.57307
G1 X91.87 Y135.472 E39.66769
G1 X91.37 Y135.427 E39.77789
G1 X90.892 Y135.339 E39.88458
G1 X90.354 Y135.187 E40.0073
G1 X89.917 Y135.018 E40.11016
G1 X89.402 Y134.759 E40.2367
G1 X89.007 Y134.51 E40.3392
G1 X88.571 Y134.178 E40.4595
G1 X88.23 Y133.864 E40.56125
G1 X87.877 Y133.477 E40.67624
G1 X87.633 Y133.156 E40.76475
G1 X87.351 Y132.711 E40.8804
G1 X87.126 Y132.273 E40.98849
G1 X86.999 Y131.994 E41.05578
G1 X86.906 Y131.718 E41.11972
G1 X86.732 Y131.087 E41.2634
G1 X86.674 Y130.701 E41.34909
G1 X86.637 Y130.264 E41.44536
G1 X86.627 Y130.004 E41.50247
G1 X86.637 Y129.753 E41.55762
G1 X86.677 Y129.287 E41.66029
G1 X86.716 Y129 E41.72387
G1 X86.779 Y128.729 E41.78494
G1 X86.992 Y128.001 E41.95145
G1 X87.387 Y127.2 E42.1475
G1 X87.575 Y126.913 E42.22282
G1 X87.908 Y126.474 E42.34377
G1 X88.123 Y126.217 E42.41733
G1 X88.721 Y125.681 E42.59361
G1 X88.972 Y125.495 E42.66219
G1 X89.457 Y125.192 E42.78772
G1 X89.771 Y125.023 E42.866
G1 X90.455 Y124.762 E43.02671
G1 X90.835 Y124.66 E43.11308
G1 X91.358 Y124.558 E43.23005
G1 X91.816 Y124.516 E43.33101
G1 X92.331 Y124.515 E43.44406
G1 X92.861 Y124.558 E43.56079
G1 X93.326 Y124.644 E43.66459
G1 X93.815 Y124.775 E43.77572
G1 X94.313 Y124.969 E43.89305
G1 X94.823 Y125.224 E44.01821
G1 X95.217 Y125.471 E44.12029
G1 X95.661 Y125.811 E44.24305
G1 X96.007 Y126.13 E44.34636
G1 X96.377 Y126.542 E44.46792
G1 X96.653 Y126.913 E44.56942
G1 X96.934 Y127.371 E44.68738
G1 X97.129 Y127.764 E44.78368
G1 X97.32 Y128.251 E44.89852
G1 X97.46 Y128.752 E45.01271
G1 X97.519 Y129.009 E45.07059
G1 X97.556 Y129.292 E45.13324
G1 F1084.3 X97.712 Y129.611 E45.21951
G1 F861.8 X97.948 Y130.014 E45.36227
G1 F741.5 X98 Y130.123 E45.40517
G1 F809.4 X98.321 Y129.761 E45.56262
G1 F954.9 X98.398 Y129.686 E45.59227
G1 F1084.3 X98.617 Y129.407 E45.67844
G1 F1200 X98.719 Y129.081 E45.75342
G1 X98.808 Y128.833 E45.81126
G1 X99.046 Y128.249 E45.9497
G1 X100.017 Y122.752 E47.17506
G1 X92.286 Y121.389 E48.89832
G1 X91.277 Y121.162 E49.12535
G1 X90.332 Y120.835 E49.34486
G1 X89.511 Y120.465 E49.54254
G1 X88.635 Y119.969 E49.76352
G1 X87.794 Y119.371 E49.99005
G1 X87.039 Y118.717 E50.20932
G1 X86.376 Y118.005 E50.42288
G1 X79.939 Y110.331 E52.62162
G1 X79.324 Y109.516 E52.84575
G1 X78.824 Y108.681 E53.05939
G1 X78.437 Y107.889 E53.2529
G1 X78.087 Y106.944 E53.47411
G1 X77.833 Y105.976 E53.6938
G1 X77.667 Y104.923 E53.9278
G1 F1201 X77.621 Y104.048 E54.11998
G1 X77.616 Y96.056 E55.8729
G1 F1200 X72.025 Y96.056 E57.10022
G1 X71.308 Y96.207 E57.26107
G1 X71.028 Y96.252 E57.32332
G1 F1076.2 X70.422 Y96.459 E57.48006
G1 F894.4 X70.17 Y96.621 E57.56829
G1 F772.5 X69.94 Y96.761 E57.6601
G1 X70.158 Y96.927 E57.75354
G1 F894.4 X70.397 Y97.107 E57.84166
G1 F1076.2 X70.883 Y97.388 E57.97906
G1 F1200 X71.346 Y97.571 E58.08835
G1 X71.688 Y97.731 E58.17123
G1 X72.187 Y98.034 E58.29939
G1 X72.634 Y98.373 E58.42254
G1 X72.959 Y98.67 E58.51918
G1 X73.312 Y99.053 E58.63352
G1 X73.657 Y99.505 E58.75834
G1 X73.886 Y99.882 E58.85517
G1 X74.103 Y100.305 E58.95953
G1 X74.311 Y100.832 E59.0839
G1 X74.44 Y101.279 E59.18603
G1 X74.549 Y101.853 E59.31428
G1 X74.59 Y102.316 E59.41632
G1 X74.603 Y102.58 E59.47434
G1 X74.59 Y102.848 E59.53324
G1 X74.548 Y103.308 E59.63464
G1 F1201 X74.505 Y103.648 E59.70981
G1 X74.254 Y104.508 E59.9063
G1 F1200 X74.101 Y104.858 E59.99015
G1 X73.833 Y105.381 E60.11916
G1 X73.591 Y105.746 E60.21529
G1 X73.222 Y106.219 E60.34698
G1 X72.973 Y106.479 E60.42601
G1 X72.592 Y106.825 E60.53899
G1 X72.341 Y107.03 E60.61013
G1 X71.687 Y107.43 E60.77841
G1 X71.404 Y107.57 E60.84772
G1 X70.758 Y107.818 E60.99962
G1 X70.451 Y107.909 E61.06991
G1 X69.869 Y108.013 E61.19969
G1 X69.613 Y108.047 E61.25638
G1 X69.343 Y108.059 E61.31571
G1 X68.878 Y108.059 E61.41779
G1 X68.602 Y108.047 E61.47843
G1 X68.32 Y108.007 E61.54095
G1 X67.86 Y107.92 E61.64372
G1 X67.603 Y107.86 E61.70166
G1 X67.347 Y107.775 E61.76087
G1 X66.944 Y107.621 E61.85557
G1 X66.69 Y107.511 E61.91633
G1 X66.435 Y107.369 E61.9804
G1 X66.033 Y107.12 E62.08421
G1 X65.599 Y106.794 E62.20336
G1 X65.282 Y106.507 E62.29723
G1 X64.918 Y106.113 E62.41498
G1 X64.633 Y105.743 E62.5175
G1 X64.339 Y105.277 E62.63846
G1 X64.125 Y104.858 E62.74174
G1 X63.914 Y104.327 E62.86716
G1 X63.783 Y103.874 E62.97068
G1 X63.71 Y103.559 E63.04166
G1 X63.677 Y103.308 E63.09723
G1 X63.636 Y102.849 E63.19839
G1 X63.625 Y102.581 E63.25727
G1 X63.636 Y102.316 E63.3155
G1 X63.677 Y101.853 E63.41753
G1 X63.784 Y101.279 E63.5457
G1 X63.915 Y100.831 E63.64816
G1 X64.125 Y100.302 E63.7731
G1 X64.341 Y99.88 E63.87717
G1 X64.568 Y99.506 E63.97321
G1 X64.916 Y99.052 E64.09878
G1 X65.267 Y98.67 E64.21266
G1 X65.593 Y98.372 E64.30961
G1 X66.043 Y98.032 E64.43342
G1 X66.538 Y97.73 E64.56071
G1 X66.938 Y97.542 E64.65773
G1 F1169.8 X67.796 Y97.222 E64.86394
G1 F1031.5 X68.04 Y97.04 E64.94168
G1 F866.4 X68.284 Y96.858 E65.03423
G1 F767.2 X68.439 Y96.75 E65.09909
G1 X68.271 Y96.665 E65.16374
G1 F866.4 X67.743 Y96.349 E65.35082
G1 F1055.7 X67.211 Y96.254 E65.48566
G1 F1200 X66.833 Y96.197 E65.56958
G1 X66.195 Y96.057 E65.71296
G1 X60.61 Y96.057 E66.93897
G1 X60.609 Y113.023 E70.66329
G1 X60.626 Y113.295 E70.72311
G1 X60.72 Y113.705 E70.81545
G1 X60.905 Y114.077 E70.90665
G1 X61.085 Y114.317 E70.97251
G1 X79.144 Y135.842 E77.14032
G1 X79.366 Y136.077 E77.21128
G1 X79.692 Y136.32 E77.30054
G1 X80.078 Y136.486 E77.39278
G1 X80.361 Y136.554 E77.45667
G1 X97.063 Y139.498 E81.17956
G0 F6000 X92.272 Y137.053
G1 F749.6 X91.859 Y137.015 E81.32531
G1 F776.3 X91.108 Y136.916 E81.58235
G1 F789.5 X90.618 Y136.826 E81.74858
G1 F771.3 X89.794 Y136.637 E82.03731
G1 F797.8 X89.613 Y136.455 E82.12207
G1 F902.8 X89.432 Y136.273 E82.19696
G1 F1015.5 X89.098 Y136.024 E82.30502
G1 F1132.1 X88.763 Y135.775 E82.40215
G1 F1200 X88.368 Y135.526 E82.50465
G1 X87.758 Y135.061 E82.67302
G1 X87.417 Y134.746 E82.77493
G1 X86.923 Y134.205 E82.93575
G1 X86.679 Y133.884 E83.02426
G1 X86.285 Y133.261 E83.18607
G1 X86.059 Y132.823 E83.29427
G1 X85.882 Y132.433 E83.38828
G1 X85.752 Y132.046 E83.4779
G1 X85.624 Y131.597 E83.58039
G1 X85.56 Y131.343 E83.63789
G1 X85.478 Y130.802 E83.75801
G1 X85.441 Y130.365 E83.85428
G1 X85.427 Y130.001 E83.93424
G1 X85.442 Y129.65 E84.01136
G1 X85.482 Y129.185 E84.11381
G1 X85.536 Y128.782 E84.20307
G1 X85.624 Y128.403 E84.28848
G1 X85.751 Y127.952 E84.39133
G1 X85.835 Y127.688 E84.45215
G1 X85.933 Y127.439 E84.51089
G1 X86.042 Y127.204 E84.56775
G1 X86.343 Y126.606 E84.71472
G1 X86.603 Y126.209 E84.81889
G1 X86.956 Y125.744 E84.94705
G1 X87.258 Y125.384 E85.0502
G1 X87.957 Y124.755 E85.25662
G1 X88.307 Y124.496 E85.3522
G1 X88.84 Y124.163 E85.49016
G1 X89.175 Y123.982 E85.57374
G1 X89.477 Y123.851 E85.64601
G1 X90.072 Y123.625 E85.78572
G1 X90.605 Y123.482 E85.90686
G1 X91.155 Y123.375 E86.02986
G1 F1078.7 X91.473 Y123.211 E86.11724
G1 F897.2 X91.792 Y123.046 E86.22269
G1 F780.5 X92.013 Y122.94 E86.30541
G1 X91.818 Y122.793 E86.38783
G1 F872.7 X91.606 Y122.653 E86.46451
G1 F979.6 X91.394 Y122.513 E86.53283
G1 F1116.3 X91.182 Y122.372 E86.59291
G1 F1200 X90.753 Y122.25 E86.69082
G1 X89.821 Y121.926 E86.90742
G1 X88.968 Y121.535 E87.1134
G1 X88.059 Y121.027 E87.34199
G1 X87.815 Y120.864 E87.40641
G1 X87.049 Y120.312 E87.61367
G1 X86.23 Y119.603 E87.85146
G1 X85.476 Y118.799 E88.09342
G1 X79.047 Y111.136 E90.28918
G1 X78.321 Y110.177 E90.55321
G1 X77.768 Y109.252 E90.78979
G1 X77.39 Y108.478 E90.97887
G1 X77.28 Y108.219 E91.04064
G1 X76.918 Y107.237 E91.27039
G1 X76.66 Y106.233 E91.49794
G1 X76.613 Y105.981 E91.55422
G1 X76.473 Y105.046 E91.76175
G1 X76.454 Y104.776 E91.82117
G1 F1078.7 X76.296 Y104.311 E91.9411
G1 F922.5 X76.196 Y104.118 E92.00318
G1 F805.4 X76.055 Y103.827 E92.10894
G1 X75.86 Y104.086 E92.21498
G1 F922.5 X75.725 Y104.244 E92.27432
G1 F1078.7 X75.465 Y104.66 E92.39413
G1 F1200 X75.349 Y105.017 E92.47653
G1 X75.17 Y105.404 E92.57013
G1 X74.844 Y106.038 E92.72662
G1 X74.541 Y106.479 E92.84408
G1 X74.139 Y106.994 E92.98749
G1 X73.789 Y107.359 E93.0985
G1 X73.386 Y107.725 E93.218
G1 X73.032 Y108.012 E93.31804
G1 X72.276 Y108.476 E93.51276
G1 X71.881 Y108.671 E93.60946
G1 X71.151 Y108.952 E93.78117
G1 X70.831 Y109.048 E93.85451
G1 X70.512 Y109.118 E93.9262
G1 X70.079 Y109.195 E94.02274
G1 X69.721 Y109.243 E94.10203
G1 X69.343 Y109.259 E94.18509
G1 X68.878 Y109.259 E94.28716
G1 X68.492 Y109.242 E94.37198
G1 X68.097 Y109.187 E94.45952
G1 X67.637 Y109.1 E94.56229
G1 X67.277 Y109.015 E94.64349
G1 X66.918 Y108.896 E94.72651
G1 X66.515 Y108.742 E94.82122
G1 X66.161 Y108.587 E94.90605
G1 X65.803 Y108.389 E94.99585
G1 X65.401 Y108.14 E95.09966
G1 X64.793 Y107.683 E95.26662
G1 X64.477 Y107.396 E95.36033
G1 X63.968 Y106.846 E95.52483
G1 X63.683 Y106.476 E95.62735
G1 X63.27 Y105.823 E95.79696
G1 X63.056 Y105.404 E95.90024
G1 X62.761 Y104.66 E96.07593
G1 F1077 X62.498 Y104.245 E96.1961
G1 F907.4 X62.335 Y104.037 E96.27282
G1 F794.3 X62.171 Y103.828 E96.36092
G1 X62.059 Y104.075 E96.45087
G1 F907.4 X61.946 Y104.323 E96.52999
G1 F1077 X61.809 Y104.795 E96.65019
G1 F1200 X61.809 Y113.101 E98.4735
G1 X61.93 Y113.457 E98.55604
G1 X80.147 Y135.169 E104.77759
G1 X80.47 Y135.355 E104.85941
G1 X88.388 Y136.75 E106.62432
G1 F1132.1 X88.842 Y136.756 E106.72997
G1 F1015.5 X89.296 Y136.763 E106.84775
G1 F902.8 X89.545 Y136.7 E106.92269
G1 F797.8 X89.794 Y136.637 E107.0075
G0 F6000 X94 Y133.854
G1 F1200 X93.397 Y134.083 E107.14909
G1 X93.066 Y134.172 E107.22433
G1 X92.607 Y134.25 E107.32653
G1 X92.292 Y134.275 E107.3959
G1 X91.878 Y134.272 E107.48678
G1 X91.565 Y134.243 E107.55578
G1 X91.11 Y134.159 E107.65735
G1 X90.787 Y134.068 E107.73101
G1 X90.35 Y133.899 E107.83387
G1 X90.041 Y133.743 E107.90985
G1 X89.645 Y133.494 E108.01254
G1 X89.384 Y133.295 E108.08458
G1 X89.043 Y132.981 E108.18634
G1 X88.831 Y132.749 E108.25533
G1 X88.587 Y132.428 E108.34384
G1 X88.418 Y132.161 E108.41321
G1 X88.107 Y131.558 E108.56214
G1 X87.883 Y130.752 E108.74578
G1 X87.82 Y130.009 E108.90947
G1 X87.888 Y129.214 E109.08462
G1 X88.112 Y128.437 E109.26213
G1 X88.464 Y127.73 E109.4355
G1 X88.949 Y127.087 E109.6123
G1 X89.434 Y126.65 E109.75561
G1 X89.636 Y126.494 E109.81163
G1 X90.168 Y126.163 E109.94918
G1 X90.921 Y125.866 E110.12687
G1 X91.562 Y125.741 E110.27023
G1 X91.836 Y125.716 E110.33062
G1 X92.334 Y125.715 E110.43994
G1 X92.652 Y125.741 E110.50998
G1 X93.112 Y125.825 E110.61263
G1 X93.405 Y125.903 E110.67919
G1 X93.88 Y126.088 E110.79109
G1 X94.186 Y126.241 E110.86619
G1 X94.58 Y126.488 E110.96827
G1 X94.846 Y126.692 E111.04186
G1 X95.192 Y127.012 E111.14531
G1 X95.414 Y127.259 E111.21821
G1 X95.69 Y127.63 E111.31972
G1 X95.859 Y127.904 E111.39039
G1 X96.054 Y128.297 E111.48669
G1 X96.168 Y128.59 E111.55571
G1 F1201 X96.345 Y129.22 E111.69924
G1 X96.409 Y129.968 E111.8639
G1 X96.371 Y130.456 E111.97126
G1 F1200 X96.336 Y130.783 E112.04345
G1 X96.161 Y131.414 E112.1872
G1 X96.044 Y131.703 E112.25564
G1 X95.755 Y132.279 E112.3971
G1 X95.372 Y132.778 E112.53519
G1 X95.143 Y133.026 E112.60929
G1 X94.798 Y133.336 E112.7111
G1 X94.526 Y133.537 E112.78534
G1 X94 Y133.854 E112.92016
G0 F6000 X97.69 Y131.876
G1 F740 X97.866 Y131.004 E113.23683
G1 F739.6 X98 Y130.123 E113.55423
G0 F6000 X97.96 Y126.393
G1 F908.5 X98.404 Y123.881 E114.29386
G1 X95.802 Y123.423 E115.05989
G1 F884 X94.919 Y123.312 E115.32509
G1 F808.1 X94.342 Y123.321 E115.51321
G1 X94.832 Y123.629 E115.70187
G1 F884 X95.563 Y124.045 E115.95251
G1 F908.5 X95.957 Y124.292 E116.08734
G1 X96.606 Y124.789 E116.32436
G1 X96.953 Y125.108 E116.46102
G1 X97.494 Y125.711 E116.69591
G1 X97.77 Y126.082 E116.82998
G1 X97.96 Y126.393 E116.93565
G0 F6000 X94.342 Y123.321
G1 F774.6 X93.596 Y123.156 E117.19547
G1 F789.5 X93.123 Y123.07 E117.35589
G1 F774.6 X92.328 Y122.967 E117.6285
G1 F748.8 X92.013 Y122.94 E117.73971
G0 F6000 X76.055 Y103.827
G1 F766.4 X76.1 Y102.983 E118.03023
G1 F789.5 X76.11 Y102.58 E118.16474
G1 F780.9 X76.08 Y101.718 E118.45569
G1 F799.6 X76.153 Y101.273 E118.60426
G1 F870.1 X76.226 Y100.827 E118.74108
G1 F909.7 X76.225 Y97.447 E119.71986
G1 X73.683 Y97.447 E120.45597
G1 X73.897 Y97.643 E120.54001
G1 X74.413 Y98.203 E120.76051
G1 X74.79 Y98.698 E120.9407
G1 X75.124 Y99.25 E121.12753
G1 X75.342 Y99.672 E121.26507
G1 X75.646 Y100.443 E121.50507
G1 X75.776 Y100.891 E121.64015
