;FLAVOR:Marlin
;TIME:1690
;Filament used: 3.90317m
;Layer height: 0.4
;MINX:72.042
;MINY:99.705
;MINZ:0.4
;MAXX:146.022
;MAXY:134.265
;MAXZ:8
;Generated with Cura_SteamEngine 5.3.1
M82 ;absolute extrusion mode
; START G-CODE BEGIN

M104 S240.0 ﻿T0
M140 S60.0

G28 ; Home all axes
G92 E0 ; Reset Extruder
M420 S1 ; Load Mesh

M109 S240.0 ﻿T0
M190 S60.0

G92 E0 ; Reset Extruder

G1 X0.6 Y20 Z0.3 F5000.0 ; Move to start position
G1 X0.6 Y200.0 Z0.3 F1500.0 E15 ; Draw the first line
G1 X0.9 Y200.0 Z0.3 F5000.0 ; Move to side a little
G1 X0.9 Y20 Z0.3 F1500.0 E30 ; Draw the second line
G92 E0 ; Reset Extruder
G1 Z2.0 F3000 ; Move Z Axis up little to prevent scratching of Heat Bed
G1 X5 Y20 Z0.3 F5000.0 ; Move over to prevent blob squish

; START G-CODE END
G92 E0
G92 E0
G1 F2100 E-1.5
;LAYER_COUNT:20
;LAYER:0
M107
;MESH:wheel hub side 2.stl
G0 F6000 X77.338 Y107.802 Z0.4
;TYPE:WALL-INNER
G1 F2100 E0
G1 F792.1 X76.958 Y108.216 E0.20388
G1 F803.1 X76.773 Y108.468 E0.31574
G1 F779.6 X76.26 Y109.269 E0.66634
G1 F756.7 X75.812 Y110.018 E0.99778
G1 F757.1 X75.365 Y110.819 E1.34595
G1 F779.2 X74.959 Y111.602 E1.67122
G1 F802.7 X74.813 Y111.93 E1.79975
G1 F801.8 X74.694 Y112.274 E1.93022
G0 F6000 X74.823 Y119.632
G1 F1137.4 X76.043 Y117.52 E2.54643
G1 X74.835 Y115.43 E3.15631
G1 X74.75 Y116.059 E3.31667
G1 X74.688 Y116.892 E3.5277
G1 X74.676 Y117.711 E3.73464
G1 X74.717 Y118.604 E3.96049
G1 X74.823 Y119.632 E4.22158
G0 F6000 X74.767 Y123.001
G1 F851.6 X74.832 Y122.732 E4.31497
G1 F963.2 X74.897 Y122.463 E4.39753
G1 F1109.4 X74.963 Y122.194 E4.46928
G1 F1200 X75.158 Y121.519 E4.63753
G1 X77.12 Y118.121 E5.57717
G1 X77.414 Y117.81 E5.67965
G1 X77.875 Y117.521 E5.80995
G1 X77.414 Y117.232 E5.94025
G1 X77.121 Y116.921 E6.04257
G1 X75.199 Y113.596 E6.96227
G1 X75.038 Y113.23 E7.05803
G1 F1092.6 X74.887 Y112.845 E7.1668
G1 F926.6 X74.735 Y112.46 E7.29516
G1 F826.6 X74.694 Y112.274 E7.36138
G1 X74.567 Y112.418 E7.42812
G1 F903.4 X74.397 Y112.686 E7.52908
G1 F1002.8 X74.227 Y112.955 E7.62027
G1 F1126.8 X74.056 Y113.224 E7.70156
G1 F1200 X73.829 Y114.087 E7.91526
G1 X73.645 Y115.027 E8.14463
G1 X73.524 Y115.924 E8.36139
G1 X73.456 Y116.822 E8.57705
G1 X73.442 Y117.73 E8.79452
G1 X73.486 Y118.686 E9.02369
G1 X73.579 Y119.59 E9.24132
G1 X73.726 Y120.465 E9.4538
G1 X73.94 Y121.401 E9.68373
G1 X74.202 Y122.293 E9.90636
G1 F1109.4 X74.39 Y122.529 E9.98452
G1 F963.2 X74.579 Y122.765 E10.07472
G1 F851.6 X74.767 Y123.001 E10.17654
G1 F805.8 X74.834 Y123.17 E10.24137
G1 F791.6 X75.15 Y123.816 E10.50242
G1 F764.7 X75.589 Y124.633 E10.85094
G1 F753.5 X76.023 Y125.383 E11.1814
G1 F764.7 X76.516 Y126.18 E11.53356
G1 F786.9 X76.966 Y126.847 E11.8274
G1 F793.8 X77.239 Y127.144 E11.97343
G0 F6000 X83.622 Y130.648
G1 F1137.4 X82.412 Y128.555 E12.58422
G1 X79.975 Y128.555 E13.19992
G1 X80.856 Y129.194 E13.47488
G1 X81.553 Y129.637 E13.68353
G1 X82.279 Y130.043 E13.89368
G1 X83.05 Y130.413 E14.10974
G1 X83.622 Y130.648 E14.26597
G0 F6000 X86.124 Y132.304
G1 F827.6 X85.96 Y132.061 E14.36777
G1 F944.9 X85.796 Y131.817 E14.45718
G1 F1100.9 X85.632 Y131.573 E14.53392
G1 F1200 X85.393 Y131.249 E14.63034
G1 X83.471 Y127.923 E15.55025
G1 X83.349 Y127.514 E15.65246
G1 X83.328 Y126.971 E15.78259
G1 X82.847 Y127.224 E15.91274
G1 X82.432 Y127.322 E16.01485
G1 X78.5 Y127.32 E16.95646
G1 F1118.9 X77.804 Y127.238 E17.13645
G1 F968.4 X77.522 Y127.191 E17.22129
G1 F841.6 X77.239 Y127.144 E17.31924
G1 X77.338 Y127.432 E17.42323
G1 F968.4 X77.438 Y127.72 E17.5137
G1 F1118.9 X77.993 Y128.428 E17.74475
G1 F1200 X78.693 Y129.077 E17.97334
G1 X79.407 Y129.666 E18.19499
G1 X80.152 Y130.208 E18.41562
G1 X80.907 Y130.688 E18.62987
G1 X81.711 Y131.138 E18.85051
G1 X82.543 Y131.538 E19.07158
G1 X83.39 Y131.885 E19.29078
G1 X84.262 Y132.184 E19.51153
G1 X85.148 Y132.426 E19.73148
G1 F1100.9 X85.473 Y132.386 E19.81695
G1 F944.9 X85.799 Y132.345 E19.91688
G1 F827.6 X86.124 Y132.304 E20.03062
G1 F793.4 X86.637 Y132.416 E20.22081
G1 F802.7 X86.952 Y132.451 E20.33428
G1 F779.6 X87.893 Y132.493 E20.68147
G1 F757.1 X88.784 Y132.507 E21.0197
G1 F756.7 X89.675 Y132.493 E21.35811
G1 F778.8 X90.6 Y132.452 E21.69976
G1 F802.7 X90.932 Y132.415 E21.81936
G1 F793.8 X91.444 Y132.304 E22.00901
G0 F6000 X93.946 Y130.648
G1 F1136.5 X94.529 Y130.409 E22.16832
G1 X95.275 Y130.05 E22.37765
G1 X96.029 Y129.629 E22.596
G1 X96.73 Y129.182 E22.80621
G1 X97.588 Y128.556 E23.07475
G1 X95.156 Y128.555 E23.68967
G1 X93.946 Y130.648 E24.30094
G0 F6000 X91.444 Y132.304
G1 F827.6 X91.768 Y132.344 E24.4143
G1 F944.9 X92.093 Y132.385 E24.51392
G1 F1100.9 X92.418 Y132.426 E24.59943
G1 F1200 X92.419 Y132.427 E24.59977
G1 X93.308 Y132.184 E24.82047
G1 X94.175 Y131.886 E25.04001
G1 X95.025 Y131.538 E25.25996
G1 X95.856 Y131.138 E25.48082
G1 X96.661 Y130.688 E25.70167
G1 X97.416 Y130.208 E25.91592
G1 X98.161 Y129.665 E26.13669
G1 X98.876 Y129.077 E26.35837
G1 X99.574 Y128.428 E26.58661
G1 F1120.6 X100.129 Y127.724 E26.8165
G1 F972.3 X100.228 Y127.435 E26.90679
G1 F845.6 X100.328 Y127.145 E27.01104
G1 X100.044 Y127.19 E27.10876
G1 F972.3 X99.76 Y127.236 E27.19379
G1 F1120.6 X99.067 Y127.32 E27.3728
G1 F1200 X95.136 Y127.322 E28.31417
G1 X94.721 Y127.224 E28.41628
G1 X94.239 Y126.969 E28.54687
G1 X94.219 Y127.514 E28.67747
G1 X94.097 Y127.923 E28.77968
G1 X92.175 Y131.249 E29.69959
G1 X91.936 Y131.573 E29.796
G1 F1100.9 X91.772 Y131.816 E29.87253
G1 F944.9 X91.608 Y132.06 E29.96194
G1 F827.6 X91.444 Y132.304 E30.06402
G0 F6000 X94.337 Y127.173
G0 X91.697 Y122.47
G0 X91.654 Y122.494
G1 F1088.4 X91.615 Y122.346 E30.10443
G1 X91.717 Y121.736 E30.26772
G1 F1149.2 X91.924 Y121.45 E30.356
G1 F1272.1 X92.262 Y120.969 E30.4888
G1 F1094.2 X92.258 Y120.505 E30.61067
G1 F809.9 X92.26 Y120.048 E30.77282
G1 F821 X91.801 Y120.229 E30.94552
G1 F1114.6 X91.435 Y120.294 E31.04137
G1 F1247.8 X90.972 Y120.764 E31.1933
G1 F1129.4 X90.69 Y121.005 E31.28769
G1 F1088.4 X90.102 Y121.253 E31.45617
G1 F980.3 X89.837 Y121.487 E31.55981
G1 F838.2 X89.633 Y121.636 E31.64642
G1 F748.8 X89.428 Y121.786 E31.7439
G1 X89.66 Y121.888 E31.84116
G1 F838.2 X89.892 Y121.991 E31.92819
G1 F980.3 X90.274 Y122.137 E32.04807
G1 F1088.4 X90.899 Y122.144 E32.21309
G1 X91.547 Y122.385 E32.39563
G1 X91.654 Y122.494 E32.43595
G0 F6000 X91.697 Y122.47
G0 X89.428 Y121.786
G1 F716.8 X89.128 Y121.801 E32.55638
G1 F725.1 X88.699 Y121.809 E32.72643
G1 F721.8 X88.304 Y121.792 E32.88384
G0 F6000 X86.007 Y122.364
G0 X85.914 Y122.495
G1 F1090.1 X86.022 Y122.386 E32.92429
G1 X86.6 Y122.171 E33.08686
G1 F1141 X87.054 Y122.212 E33.20166
G1 F1258.7 X87.508 Y122.253 E33.30573
G1 F1211.1 X87.681 Y122.153 E33.35315
G1 F952.4 X88.064 Y121.931 E33.48672
G1 F769.6 X88.304 Y121.792 E33.59028
G1 X88.083 Y121.625 E33.6937
G1 F952.4 X87.802 Y121.34 E33.81447
G1 F1211.1 X87.666 Y121.191 E33.86233
G1 F1264.3 X87.192 Y121.074 E33.97331
G1 F1146.5 X86.742 Y120.926 E34.09204
G1 F1090.1 X86.293 Y120.598 E34.23863
G1 F988.3 X85.948 Y120.475 E34.34512
G1 F845.1 X85.699 Y120.372 E34.43676
G1 F747.7 X85.45 Y120.268 E34.54047
G1 X85.478 Y120.536 E34.64404
G1 F845.1 X85.507 Y120.805 E34.73604
G1 F988.3 X85.593 Y121.225 E34.8607
G1 F1090.1 X85.838 Y121.658 E34.99185
G1 X85.953 Y122.347 E35.176
G1 X85.914 Y122.495 E35.21634
G0 F6000 X85.871 Y122.47
G0 X85.45 Y120.268
G1 F716.8 X85.056 Y119.644 E35.51221
G1 F719.6 X84.787 Y119.127 E35.74493
G1 F776.7 X84.824 Y118.729 E35.89282
G1 F938.7 X84.886 Y118.355 E36.00888
G1 F1054.2 X84.818 Y117.542 E36.23128
G1 F1106.8 X84.865 Y117.364 E36.27907
G1 F1192.1 X84.94 Y117.007 E36.36701
G1 F1275.5 X85.023 Y116.723 E36.43368
G1 F1359.8 X85.194 Y116.236 E36.54276
G1 F1417.3 X85.454 Y115.692 E36.66501
G1 F1432.8 X85.738 Y115.252 E36.77004
G1 F1414.5 X85.912 Y115.012 E36.83026
G1 F1363.6 X86.148 Y114.735 E36.90695
G1 F1298.5 X86.342 Y114.524 E36.97038
G1 F1170.7 X86.791 Y114.1 E37.12197
G1 F1149.2 X87.212 Y113.962 E37.23275
G1 F1297.3 X87.929 Y113.79 E37.39608
G1 F1409 X88.606 Y113.726 E37.53477
G1 F1437.1 X89.11 Y113.738 E37.63558
G1 F1427.2 X89.416 Y113.765 E37.69743
G1 F1382 X89.778 Y113.824 E37.7737
G1 F1321.1 X90.06 Y113.882 E37.83633
G1 F1179.4 X90.745 Y114.085 E38.01041
G1 F1149.2 X91.069 Y114.371 E38.11848
G1 F1271 X91.434 Y114.746 E38.2368
G1 F1087.6 X91.848 Y114.826 E38.34821
G1 F806.3 X92.257 Y114.989 E38.50513
G1 X92.255 Y114.547 E38.66267
G1 F1087.6 X92.259 Y114.069 E38.78897
G1 F1271 X91.923 Y113.592 E38.92089
G1 F1149.2 X91.717 Y113.306 E39.00902
G1 F1088.4 X91.615 Y112.696 E39.17231
G1 X91.643 Y112.567 E39.20716
G1 X91.547 Y112.657 E39.24191
G1 X90.968 Y112.872 E39.40497
G1 F1179.4 X90.269 Y112.803 E39.57612
G1 F1345.8 X89.526 Y112.755 E39.7351
G1 F1431.4 X88.699 Y112.739 E39.90116
G1 F1427.2 X87.955 Y112.758 E40.05102
G1 F1343.3 X87.316 Y112.802 E40.18805
G1 F1182.3 X86.6 Y112.871 E40.36289
G1 F1090.1 X86.021 Y112.656 E40.52571
G1 X85.924 Y112.566 E40.56059
G1 X85.952 Y112.695 E40.59539
G1 X85.851 Y113.304 E40.75812
G1 F1170.7 X85.509 Y113.782 E40.90239
G1 F1324.7 X85.094 Y114.395 E41.06297
G1 F1414.5 X84.888 Y114.72 E41.14114
G1 F1445.8 X84.628 Y115.152 E41.24136
G1 F1430 X84.27 Y115.804 E41.39084
G1 F1359.8 X84.021 Y116.313 E41.51059
G1 F1192.1 X83.664 Y117.089 E41.71651
G1 F1089.3 X83.188 Y117.483 E41.87952
G1 X83.042 Y117.521 E41.91932
G1 X83.188 Y117.559 E41.95912
G1 X83.709 Y117.99 E42.13751
G1 X83.925 Y118.335 E42.24489
G1 F1065.9 X84.144 Y118.658 E42.35011
G1 F938.7 X84.451 Y118.882 E42.46644
G1 F776.7 X84.787 Y119.127 E42.6203
G0 F6000 X86.821 Y120.71
G0 X87.388 Y120.997
G0 X87.997 Y121.183
G0 X88.626 Y121.262
G0 X89.26 Y121.236
G0 X89.818 Y121.116
G0 X92.26 Y120.048
G1 F722.9 X92.421 Y119.796 E42.73917
G1 F726.5 X92.612 Y119.458 E42.89273
G1 F717.8 X92.786 Y119.118 E43.04563
G1 F770.5 X93.1 Y118.888 E43.1908
G1 F933.2 X93.436 Y118.642 E43.31903
G1 F1067.5 X93.636 Y118.348 E43.41475
G1 F1087.6 X93.862 Y117.986 E43.52751
G1 X94.378 Y117.559 E43.70447
G1 X94.501 Y117.521 E43.73849
G1 X94.378 Y117.483 E43.7725
G1 F1082.7 X93.862 Y117.056 E43.95027
G1 F1073 X93.448 Y116.393 E44.1596
G1 F950.5 X93.113 Y116.146 E44.28544
G1 F779.2 X92.775 Y115.896 E44.44048
G1 X92.741 Y116.317 E44.59625
G1 F950.5 X92.664 Y116.676 E44.70725
G1 F1073 X92.738 Y117.221 E44.85455
G1 X92.738 Y117.797 E45.00881
G1 F1057.3 X92.676 Y118.368 E45.16492
G1 F933.2 X92.755 Y118.73 E45.27901
G1 F770.5 X92.786 Y119.118 E45.42419
G0 F6000 X92.775 Y115.896
G1 F719.6 X92.613 Y115.586 E45.56386
G1 F726.2 X92.421 Y115.246 E45.71838
G1 F722.5 X92.257 Y114.989 E45.83963
G0 F6000 X91.59 Y112.695
G0 X94.366 Y107.886
G0 X97.574 Y106.487
G1 F1138.3 X97.089 Y106.115 E45.99394
G1 X96.372 Y105.627 E46.21288
G1 X95.622 Y105.181 E46.43316
G1 X94.891 Y104.802 E46.64103
G1 X93.935 Y104.376 E46.90524
G1 X95.156 Y106.488 E47.52109
G1 X97.574 Y106.487 E48.1315
G0 F6000 X100.23 Y107.802
G1 F824.7 X100.119 Y107.515 E48.23872
G1 F942.4 X100.007 Y107.228 E48.33266
G1 F1100.1 X99.895 Y106.941 E48.41314
G1 F1200 X99.213 Y106.267 E48.64276
G1 X98.535 Y105.673 E48.85862
G1 X97.819 Y105.121 E49.07513
G1 X97.047 Y104.595 E49.29883
G1 X96.237 Y104.112 E49.52467
G1 X95.435 Y103.695 E49.74114
G1 X94.62 Y103.332 E49.95479
G1 X93.723 Y102.995 E50.18426
G1 X92.846 Y102.725 E50.40401
G1 F1128.5 X91.969 Y102.591 E50.62992
G1 F980.9 X91.657 Y102.651 E50.72299
G1 F848.1 X91.344 Y102.712 E50.83105
G1 X91.532 Y102.943 E50.93197
G1 F980.9 X91.72 Y103.174 E51.01923
G1 F1128.5 X92.126 Y103.711 E51.19065
G1 F1200 X94.097 Y107.118 E52.13323
G1 X94.219 Y107.527 E52.23544
G1 X94.239 Y108.074 E52.36652
G1 X94.721 Y107.818 E52.49721
G1 X95.137 Y107.72 E52.59956
G1 X98.975 Y107.72 E53.51866
G1 X99.4 Y107.77 E53.62114
G1 F1100.1 X99.677 Y107.78 E53.69354
G1 F942.4 X99.954 Y107.791 E53.77807
G1 F824.7 X100.231 Y107.802 E53.87467
G0 F6000 X100.23 Y107.802
G1 F792.5 X100.609 Y108.215 E54.07792
G1 F802.7 X100.817 Y108.5 E54.20424
G1 F778 X101.308 Y109.269 E54.54126
G1 F756.3 X101.756 Y110.018 E54.87288
G1 F756.7 X102.203 Y110.819 E55.22123
G1 F779.2 X102.609 Y111.602 E55.5465
G1 F804 X102.755 Y111.929 E55.67449
G1 X102.874 Y112.273 E55.80459
G0 F6000 X102.744 Y119.629
G1 F1136.5 X102.852 Y118.585 E56.06997
G1 X102.893 Y117.695 E56.29524
G1 X102.881 Y116.892 E56.4983
G1 X102.818 Y116.047 E56.71254
G1 X102.733 Y115.429 E56.87027
G1 X101.525 Y117.521 E57.48107
G1 X102.744 Y119.629 E58.09676
G0 F6000 X102.8 Y123.001
G1 F851.6 X102.99 Y122.759 E58.20059
G1 F963.2 X103.18 Y122.517 E58.29238
G1 F1109.4 X103.371 Y122.274 E58.37245
G1 F1200 X103.634 Y121.382 E58.59515
G1 X103.842 Y120.467 E58.81985
G1 X103.988 Y119.591 E59.03253
G1 X104.082 Y118.686 E59.25042
G1 X104.126 Y117.73 E59.47959
G1 X104.113 Y116.822 E59.69706
G1 X104.045 Y115.924 E59.91272
G1 X103.923 Y115.027 E60.12951
G1 X103.739 Y114.087 E60.35888
G1 X103.512 Y113.224 E60.57258
G1 F1126.8 X103.343 Y112.955 E60.6536
G1 F1004.2 X103.173 Y112.686 E60.74466
G1 F905.7 X103.004 Y112.417 E60.84546
G1 F829 X102.874 Y112.273 E60.91271
G1 X102.83 Y112.46 E60.9793
G1 F928.4 X102.68 Y112.845 E61.10719
G1 F1093.4 X102.53 Y113.23 E61.21579
G1 F1200 X102.369 Y113.596 E61.31154
G1 X100.447 Y116.921 E62.23124
G1 X100.154 Y117.232 E62.33357
G1 X99.692 Y117.521 E62.46407
G1 X100.154 Y117.81 E62.59456
G1 X100.447 Y118.121 E62.69689
G1 X102.411 Y121.519 E63.63676
G1 X102.603 Y122.177 E63.8009
G1 F1109.4 X102.668 Y122.451 E63.87385
G1 F963.2 X102.734 Y122.725 E63.95793
G1 F851.6 X102.799 Y123 E64.05329
G0 F6000 X102.8 Y123.001
G1 F807.2 X102.735 Y123.169 E64.11742
G1 F793.4 X102.418 Y123.816 E64.37838
G1 F766 X101.979 Y124.633 E64.72635
G1 F754.3 X101.545 Y125.383 E65.05646
G1 F765.6 X101.052 Y126.181 E65.40856
G1 F789.5 X100.612 Y126.835 E65.69548
G1 F797.8 X100.328 Y127.145 E65.84692
G1 F2100 E64.34692
G0 F6000 X102.696 Y122.347
G0 X99.92 Y117.538
G0 X94.366 Y117.504
G0 X91.59 Y112.695
G0 X94.337 Y107.869
G0 X91.344 Y102.712
G1 F2100 E65.84692
G1 F797.3 X90.94 Y102.622 E65.99609
G1 F787.7 X90.109 Y102.565 E66.29995
G1 F764.7 X89.247 Y102.539 E66.62401
G1 F754.3 X88.321 Y102.539 E66.97678
G1 F764.3 X87.459 Y102.565 E67.30102
G1 F786.9 X86.628 Y102.622 E67.60521
G1 F794.7 X86.224 Y102.712 E67.75488
G0 F6000 X79.994 Y106.487
G1 F1139.2 X82.412 Y106.487 E68.36481
G1 X83.633 Y104.376 E68.97995
G1 X82.659 Y104.811 E69.24903
G1 X81.916 Y105.197 E69.46023
G1 X81.172 Y105.641 E69.67878
G1 X80.469 Y106.122 E69.89364
G1 X79.994 Y106.487 E70.04475
G0 F6000 X83.202 Y107.886
G0 X83.328 Y108.072
G1 F1200 X83.349 Y107.527 E70.17536
G1 X83.472 Y107.115 E70.27832
G1 X85.443 Y103.711 E71.22028
G1 F1127.6 X85.848 Y103.174 E71.39168
G1 F978.9 X86.036 Y102.943 E71.47911
G1 F844.6 X86.224 Y102.712 E71.58045
G1 X85.912 Y102.652 E71.68856
G1 F978.9 X85.599 Y102.591 E71.78217
G1 F1127.6 X84.741 Y102.72 E72.00328
G1 F1200 X83.844 Y102.994 E72.22788
G1 X82.948 Y103.332 E72.45721
G1 X82.133 Y103.695 E72.67086
G1 X81.331 Y104.112 E72.88733
G1 X80.52 Y104.594 E73.11325
G1 X79.749 Y105.121 E73.3369
G1 X79.033 Y105.673 E73.5534
G1 X78.373 Y106.25 E73.76334
G1 X77.673 Y106.941 E73.99888
G1 F1100.1 X77.562 Y107.228 E74.07927
G1 F943 X77.45 Y107.515 E74.17315
G1 F825.2 X77.338 Y107.802 E74.28043
G1 X77.615 Y107.792 E74.37695
G1 F943 X77.892 Y107.781 E74.46143
G1 F1100.1 X78.169 Y107.77 E74.53385
G1 F1200 X78.593 Y107.72 E74.63609
G1 X82.427 Y107.719 E75.55423
G1 X82.847 Y107.818 E75.65756
G1 X83.328 Y108.072 E75.78782
G1 F2100 E74.28782
G0 F6000 X83.371 Y108.049
G0 X86.007 Y112.678
G0 X91.561 Y112.678
G0 X92.052 Y111.956
G0 X91.295 Y111.519
;TYPE:WALL-OUTER
G1 F2100 E75.78782
G1 F1008.4 X90.916 Y111.564 E75.89659
G1 F1200 X90.709 Y111.642 E75.94956
G1 X86.868 Y111.645 E76.86938
G1 X86.651 Y111.564 E76.92484
G1 F1008.4 X86.273 Y111.519 E77.03332
G1 F871.1 X84.402 Y108.282 E78.26666
G1 F993.8 X84.497 Y107.94 E78.3693
G1 F1177.4 X84.569 Y107.616 E78.45031
G1 F1200 X86.449 Y104.366 E79.34943
G1 X86.599 Y104.208 E79.4016
G1 X86.745 Y104.13 E79.44124
G1 X86.952 Y104.094 E79.49156
G1 X90.616 Y104.094 E80.36899
G1 X90.824 Y104.129 E80.4195
G1 X90.969 Y104.208 E80.45904
G1 X91.12 Y104.366 E80.51138
G1 X92.999 Y107.616 E81.41038
G1 F1177.4 X93.07 Y107.94 E81.49133
G1 F994.5 X93.166 Y108.282 E81.59398
