;FLAVOR:Marlin
;TIME:23225
;Filament used: 80.6692m
;Layer height: 0.6
;MINX:60.1
;MINY:35.567
;MINZ:0.32
;MAXX:239.25
;MAXY:268.567
;MAXZ:67.52
;Generated with Cura_SteamEngine 5.3.1
M140 S30
M105
M190 S30
M104 S230
M105
M109 S230
M82 ;absolute extrusion mode
G28 ; home all axes
G92 X-5.0 Y-10.0 ; set home offsets
M92 E136.8 ; Set E Steps to 136.8
G1 X0 Y0 Z0.2 F3000 ; get ready to prime
G92 E0 ; reset extrusion distance
G92 E0
G92 E0
G1 F2100 E-7.5
;LAYER_COUNT:113
;LAYER:0
M107
;MESH:wheel Guard-.stl
G0 F6000 X85.102 Y144.332 Z0.32
;TYPE:WALL-INNER
G1 F2100 E0
G1 F1200 X85.102 Y93.993 E8.43838
G1 X85.112 Y93.742 E8.48049
G1 X85.146 Y93.474 E8.52577
G1 X85.264 Y93.017 E8.60489
G1 X85.456 Y92.578 E8.68522
G1 X85.704 Y92.189 E8.76255
G1 X85.992 Y91.859 E8.83597
G1 X86.306 Y91.589 E8.90539
G1 X86.514 Y91.447 E8.94761
G1 X86.84 Y91.271 E9.00971
G1 X87.187 Y91.135 E9.07219
G1 X87.549 Y91.044 E9.13476
G1 X87.917 Y90.998 E9.19693
G1 X147.757 Y90.993 E19.22797
G1 X147.758 Y54.997 E25.26202
G1 X147.776 Y54.661 E25.31842
G1 X147.912 Y53.45 E25.5227
G1 X148.062 Y52.793 E25.63567
G1 X148.167 Y52.495 E25.68863
G1 X63.758 Y77.608 E40.45116
G1 X63.758 Y82.197 E41.22042
G1 X67.327 Y81.135 E41.84462
G1 X67.775 Y81.038 E41.92145
G1 X68.23 Y81.011 E41.99786
G1 X68.672 Y81.05 E42.07224
G1 X69.09 Y81.15 E42.14429
G1 X69.473 Y81.301 E42.2133
G1 X69.814 Y81.492 E42.27882
G1 X70.11 Y81.71 E42.34044
G1 X70.362 Y81.948 E42.39855
G1 X70.571 Y82.194 E42.45266
G1 X70.741 Y82.442 E42.50306
G1 X70.876 Y82.687 E42.54995
G1 X71.036 Y83.051 E42.6166
G1 X71.168 Y83.645 E42.71861
G1 X71.184 Y84.011 E42.78002
G1 X71.184 Y144.332 E52.89169
G1 X85.102 Y144.332 E55.22478
G0 F6000 X86.302 Y145.532
G1 F1200 X86.302 Y93.783 E63.89952
G1 X86.399 Y93.407 E63.96462
G1 X86.542 Y93.081 E64.02429
G1 X86.747 Y92.807 E64.08165
G1 X87.024 Y92.55 E64.14499
G1 X87.438 Y92.303 E64.22581
G1 X87.945 Y92.193 E64.31277
G1 X148.957 Y92.193 E74.54028
G1 X148.958 Y54.894 E80.79275
G1 X149.104 Y53.584 E81.01371
G1 X149.195 Y53.19 E81.08149
G1 X149.596 Y52.043 E81.28518
G1 X149.77 Y51.682 E81.35236
G1 X150.477 Y50.556 E81.57523
G1 X62.558 Y76.713 E96.95162
G1 X62.557 Y83.806 E98.14062
G1 X67.669 Y82.285 E99.03468
G1 X67.938 Y82.227 E99.08081
G1 X68.211 Y82.211 E99.12665
G1 X68.477 Y82.234 E99.17141
G1 X68.867 Y82.328 E99.23865
G1 X69.34 Y82.63 E99.33273
G1 X69.616 Y82.921 E99.39996
G1 X69.799 Y83.216 E99.45815
G1 X69.908 Y83.495 E99.50836
G1 X69.964 Y83.745 E99.55131
G1 X69.984 Y84.011 E99.59603
G1 X69.984 Y145.532 E109.90886
G1 X86.302 Y145.532 E112.64426
G1 F2100 E105.14426
G0 F6000 X87.274 Y93.165
G0 X147.722 Y90.958
G0 X149.919 Y54.949
G0 X150.071 Y53.602
G0 X150.537 Y52.269
G0 X151.288 Y51.073
G0 X152.287 Y50.075
G0 X153.481 Y49.323
G0 X154.681 Y48.904
G0 X168.169 Y46.544
G1 F2100 E112.64426
G1 F1200 X206.815 Y46.543 E119.12253
G1 X206.815 Y40.433 E120.14676
G1 X206.48 Y40.396 E120.20326
G1 X195.965 Y40.394 E121.9659
G1 X193.341 Y40.369 E122.40578
G1 X188.841 Y40.395 E123.16013
G1 X168.169 Y46.544 E126.77546
G0 F6000 X159.929 Y47.744
G1 F1200 X208.015 Y47.743 E134.83617
G1 X208.015 Y39.508 E136.21661
G1 X207.383 Y39.288 E136.32879
G1 X206.546 Y39.196 E136.46994
G1 X195.977 Y39.194 E138.24163
G1 X193.334 Y39.169 E138.6847
G1 X188.663 Y39.196 E139.46772
G1 X159.929 Y47.744 E144.49305
G1 F2100 E136.99305
G0 F6000 X154.815 Y48.857
G0 X153.481 Y49.323
G0 X152.287 Y50.075
G0 X151.288 Y51.073
G0 X150.537 Y52.269
G0 X150.071 Y53.602
G0 X147.957 Y64.726
G0 X147.722 Y90.958
G0 X87.274 Y93.165
G0 X86.432 Y145.663
G0 X87.502 Y146.732
;TYPE:WALL-OUTER
G1 F2100 E144.49305
G1 F1200 X87.504 Y93.942 E153.34229
G1 X87.534 Y93.797 E153.36711
G1 X87.65 Y93.597 E153.40587
G1 X87.784 Y93.483 E153.43536
G1 X88.032 Y93.396 E153.47942
G1 X150.157 Y93.393 E163.8935
G1 X150.161 Y54.929 E170.34126
G1 X150.305 Y53.651 E170.55685
G1 X150.751 Y52.378 E170.78296
G1 X151.472 Y51.227 E171.01063
G1 X152.441 Y50.256 E171.24059
G1 F1218.3 X153.591 Y49.56 E171.46254
G1 F1245.7 X154.89 Y49.122 E171.68391
G1 F1226.6 X156.147 Y48.947 E171.89205
G1 F1200 X209.215 Y48.943 E180.78789
G1 X209.215 Y38.654 E182.51265
G1 X207.649 Y38.11 E182.79055
G1 X206.612 Y37.996 E182.96543
G1 X195.989 Y37.994 E184.74617
G1 X193.327 Y37.969 E185.19243
G1 X188.485 Y37.997 E186.00411
G1 X155.894 Y47.693 E191.70403
G1 F1239.2 X154.518 Y48.062 E191.93527
G1 F1255.4 X153.058 Y48.52 E192.18045
G1 F1216.2 X151.889 Y48.884 E192.38295
G1 F1200 X61.358 Y75.818 E208.21615
G1 X61.357 Y85.416 E209.82507
G1 X68.076 Y83.416 E211.00022
G1 X68.281 Y83.418 E211.03459
G1 X68.51 Y83.507 E211.07578
G1 X68.661 Y83.647 E211.11029
G1 X68.783 Y83.945 E211.16427
G1 X68.784 Y146.732 E221.68932
G1 X87.502 Y146.732 E224.82704
G0 F6000 X86.432 Y145.663
G0 X84.602 Y143.212
G0 X83.982 Y143.212
;TYPE:SKIN
G1 F1200 X72.304 Y143.212 E226.78464
G1 X72.304 Y83.971 E236.71527
G1 X72.286 Y83.621 E236.77402
G1 X72.217 Y83.169 E236.85067
G1 X72.135 Y82.844 E236.90685
G1 X72.014 Y82.494 E236.96893
G1 X71.895 Y82.221 E237.01885
G1 X71.712 Y81.882 E237.08343
G1 X71.485 Y81.544 E237.15168
G1 X71.146 Y81.146 E237.23932
G1 X70.798 Y80.824 E237.3188
G1 X70.39 Y80.531 E237.403
G1 X69.913 Y80.271 E237.49407
G1 X69.472 Y80.097 E237.57354
G1 X68.861 Y79.943 E237.67917
G1 X68.295 Y79.892 E237.77443
G1 F1123.2 X68.2 Y79.81 E237.7969
G1 F990.4 X67.924 Y79.737 E237.85489
G1 F882.4 X67.647 Y79.664 E237.9202
G1 F847.1 X66.939 Y79.83 E238.09289
G1 F858.2 X65.117 Y80.374 E238.5386
G1 F857.7 X65.117 Y78.622 E238.94953
G1 F858.2 X66.461 Y78.222 E239.27822
G1 F847.1 X67.35 Y77.98 E239.49702
G1 F882.4 X67.585 Y77.817 E239.56222
G1 F990.4 X67.821 Y77.654 E239.62048
G1 F1123.2 X68.052 Y77.5 E239.6702
G1 F1200 X146.712 Y54.097 E253.42728
G1 X146.663 Y54.534 E253.501
G1 X146.638 Y54.967 E253.5737
G1 X146.637 Y89.873 E259.42503
G1 X87.898 Y89.875 E269.27151
G1 X87.488 Y89.911 E269.34051
G1 X86.855 Y90.065 E269.44971
G1 X86.33 Y90.273 E269.54437
G1 X85.922 Y90.496 E269.62232
G1 X85.548 Y90.75 E269.6981
G1 X85.215 Y91.052 E269.77346
G1 X84.897 Y91.387 E269.85089
G1 X84.637 Y91.761 E269.92724
G1 X84.48 Y92.026 E269.97888
G1 X84.317 Y92.366 E270.04208
G1 X84.199 Y92.672 E270.09706
G1 X84.101 Y93.003 E270.15493
G1 X84.039 Y93.305 E270.20661
G1 X83.993 Y93.681 E270.27011
G1 X83.982 Y93.958 E270.31658
G1 X83.982 Y143.212 E278.57308
G0 F6000 X84.602 Y143.212
G0 X84.53 Y143.76
G0 X74.728 Y143.832
G0 X74.728 Y142.61
G1 F1200 X72.903 Y140.785 E279.00572
G0 F6000 X71.684 Y140.785
G0 X71.684 Y139.088
G0 X72.903 Y139.088
G1 F1200 X76.425 Y142.61 E279.84067
G0 F6000 X76.425 Y143.832
G0 X78.122 Y143.832
G0 X78.122 Y142.61
G1 F1200 X72.903 Y137.391 E281.07792
G0 F6000 X71.684 Y137.391
G0 X71.684 Y135.694
G0 X72.903 Y135.694
G1 F1200 X79.819 Y142.61 E282.71747
G0 F6000 X79.819 Y143.832
G0 X81.516 Y143.832
G0 X81.516 Y142.61
G1 F1200 X72.903 Y133.997 E284.75932
G0 F6000 X71.684 Y133.997
G0 X71.684 Y132.3
G0 X72.903 Y132.3
G1 F1200 X83.213 Y142.61 E287.20347
G0 F6000 X83.213 Y143.832
G0 X84.53 Y143.76
G0 X84.602 Y141.081
G0 X83.382 Y141.081
G1 F1200 X72.903 Y130.603 E289.68757
G0 F6000 X71.684 Y130.603
G0 X71.684 Y128.906
G0 X72.903 Y128.906
G1 F1200 X83.382 Y139.384 E292.17167
G0 F6000 X84.602 Y139.384
G0 X84.602 Y137.687
G0 X83.382 Y137.687
G1 F1200 X72.903 Y127.209 E294.65576
G0 F6000 X71.684 Y127.209
G0 X71.684 Y125.512
G0 X72.903 Y125.512
G1 F1200 X83.382 Y135.99 E297.13986
G0 F6000 X84.602 Y135.99
G0 X84.602 Y134.293
G0 X83.382 Y134.293
G1 F1200 X72.903 Y123.815 E299.62396
G0 F6000 X71.684 Y123.815
G0 X71.684 Y122.118
G0 X72.903 Y122.118
G1 F1200 X83.382 Y132.596 E302.10806
G0 F6000 X84.602 Y132.596
G0 X84.602 Y130.899
G0 X83.382 Y130.899
G1 F1200 X72.903 Y120.42 E304.59227
G0 F6000 X71.684 Y120.42
G0 X71.684 Y118.723
G0 X72.903 Y118.723
G1 F1200 X83.382 Y129.202 E307.07649
G0 F6000 X84.602 Y129.202
G0 X84.602 Y127.505
G0 X83.382 Y127.505
G1 F1200 X72.903 Y117.026 E309.56071
G0 F6000 X71.684 Y117.026
G0 X71.684 Y115.329
G0 X72.903 Y115.329
G1 F1200 X83.382 Y125.808 E312.04492
G0 F6000 X84.602 Y125.808
G0 X84.602 Y124.111
G0 X83.382 Y124.111
G1 F1200 X72.903 Y113.632 E314.52914
G0 F6000 X71.684 Y113.632
G0 X71.684 Y111.935
G0 X72.903 Y111.935
G1 F1200 X83.382 Y122.414 E317.01335
G0 F6000 X84.602 Y122.414
G0 X84.602 Y120.717
G0 X83.382 Y120.717
G1 F1200 X72.903 Y110.238 E319.49757
G0 F6000 X71.684 Y110.238
G0 X71.684 Y108.541
G0 X72.903 Y108.541
G1 F1200 X83.382 Y119.02 E321.98179
G0 F6000 X84.602 Y119.02
G0 X84.602 Y117.323
G0 X83.382 Y117.323
G1 F1200 X72.903 Y106.844 E324.466
G0 F6000 X71.684 Y106.844
G0 X71.684 Y105.147
G0 X72.903 Y105.147
G1 F1200 X83.382 Y115.626 E326.95022
G0 F6000 X84.602 Y115.626
G0 X84.602 Y113.929
G0 X83.382 Y113.929
G1 F1200 X72.903 Y103.45 E329.43444
G0 F6000 X71.684 Y103.45
G0 X71.684 Y101.753
G0 X72.903 Y101.753
G1 F1200 X83.382 Y112.231 E331.91853
G0 F6000 X84.602 Y112.231
G0 X84.602 Y110.534
G0 X83.382 Y110.534
G1 F1200 X72.903 Y100.056 E334.40263
G0 F6000 X71.684 Y100.056
G0 X71.684 Y98.359
G0 X72.903 Y98.359
G1 F1200 X83.382 Y108.837 E336.88673
G0 F6000 X84.602 Y108.837
G0 X84.602 Y107.14
G0 X83.382 Y107.14
G1 F1200 X72.903 Y96.662 E339.37083
G0 F6000 X71.684 Y96.662
G0 X71.684 Y94.965
G0 X72.903 Y94.965
G1 F1200 X83.382 Y105.443 E341.85492
G0 F6000 X84.602 Y105.443
G0 X84.602 Y103.746
G0 X83.382 Y103.746
G1 F1200 X72.903 Y93.268 E344.33902
G0 F6000 X71.684 Y93.268
G0 X71.684 Y91.571
G0 X72.903 Y91.571
G1 F1200 X83.382 Y102.049 E346.82312
G0 F6000 X84.602 Y102.049
G0 X84.602 Y100.352
G0 X83.382 Y100.352
G1 F1200 X72.903 Y89.873 E349.30733
G0 F6000 X71.684 Y89.873
G0 X71.684 Y88.176
G0 X72.903 Y88.176
G1 F1200 X83.382 Y98.655 E351.79155
G0 F6000 X84.602 Y98.655
G0 X84.602 Y96.958
G0 X83.382 Y96.958
G1 F1200 X72.903 Y86.479 E354.27577
G0 F6000 X71.684 Y86.479
G0 X71.684 Y84.782
G0 X72.903 Y84.782
G1 F1200 X83.382 Y95.261 E356.75998
G0 F6000 X84.602 Y95.261
G0 X84.613 Y93.7
G0 X83.402 Y93.584
G1 F1200 X72.782 Y82.964 E359.27763
G0 F6000 X71.602 Y83.256
G0 X68.947 Y80.603
G0 X69.232 Y79.415
G1 F1200 X68.066 Y78.249 E359.55404
G0 F6000 X67.684 Y76.963
G0 X68.929 Y76.592
G0 X69.276 Y77.761
G1 F1200 X83.732 Y92.218 E362.98119
G0 F6000 X84.867 Y92.66
G0 X85.303 Y91.889
G0 X84.344 Y91.132
G1 F1200 X70.584 Y77.372 E366.24322
G0 F6000 X70.237 Y76.203
G0 X71.545 Y75.814
G0 X71.892 Y76.983
G1 F1200 X85.181 Y90.272 E369.39359
G0 F6000 X85.913 Y91.252
G0 X86.701 Y90.789
G0 X86.261 Y89.655
G1 F1200 X73.2 Y76.594 E372.48991
G0 F6000 X72.853 Y75.425
G0 X74.16 Y75.036
G0 X74.507 Y76.204
G1 F1200 X87.6 Y89.297 E375.59382
G0 F6000 X87.705 Y90.515
G0 X89.275 Y90.493
G0 X89.275 Y89.275
G1 F1200 X75.815 Y75.815 E378.78473
G0 F6000 X75.468 Y74.647
G0 X76.777 Y74.257
G0 X77.124 Y75.427
G1 F1200 X90.972 Y89.275 E382.06762
G0 F6000 X90.972 Y90.493
G0 X92.669 Y90.493
G0 X92.669 Y89.275
G1 F1200 X78.431 Y75.037 E385.44297
G0 F6000 X78.084 Y73.868
G0 X79.392 Y73.479
G0 X79.739 Y74.648
G1 F1200 X94.366 Y89.275 E388.91054
G0 F6000 X94.366 Y90.493
G0 X96.063 Y90.493
G0 X96.063 Y89.275
G1 F1200 X81.047 Y74.259 E392.47032
G0 F6000 X80.7 Y73.09
G0 X82.009 Y72.701
G0 X82.356 Y73.87
G1 F1200 X97.761 Y89.275 E396.12233
G0 F6000 X97.761 Y90.493
G0 X99.458 Y90.493
G0 X99.458 Y89.275
G1 F1200 X83.663 Y73.481 E399.86667
G0 F6000 X83.316 Y72.312
G0 X84.624 Y71.923
G0 X84.971 Y73.092
G1 F1200 X101.154 Y89.275 E403.70311
G0 F6000 X101.154 Y90.493
G0 X102.851 Y90.493
G0 X102.851 Y89.275
G1 F1200 X86.279 Y72.703 E407.63177
G0 F6000 X85.932 Y71.533
G0 X87.24 Y71.144
G0 X87.587 Y72.313
G1 F1200 X104.548 Y89.275 E411.65277
G0 F6000 X104.548 Y90.493
G0 X106.245 Y90.493
G0 X106.245 Y89.275
G1 F1200 X88.895 Y71.924 E415.76598
G0 F6000 X88.548 Y70.755
G0 X89.856 Y70.366
G0 X90.203 Y71.535
G1 F1200 X107.942 Y89.275 E419.97142
G0 F6000 X107.942 Y90.493
G0 X109.639 Y90.493
G0 X109.639 Y89.275
G1 F1200 X91.51 Y71.146 E424.26919
G0 F6000 X91.163 Y69.977
G0 X92.472 Y69.588
G0 X92.819 Y70.757
G1 F1200 X111.336 Y89.274 E428.65895
G0 F6000 X111.336 Y90.493
G0 X113.033 Y90.493
G0 X113.033 Y89.274
G1 F1200 X94.127 Y70.368 E433.14092
G0 F6000 X93.78 Y69.198
G0 X95.088 Y68.809
G0 X95.435 Y69.979
G1 F1200 X114.73 Y89.274 E437.71511
G0 F6000 X114.73 Y90.493
G0 X116.427 Y90.493
G0 X116.427 Y89.274
G1 F1200 X96.742 Y69.589 E442.38176
G0 F6000 X96.395 Y68.42
G0 X97.703 Y68.031
G0 X98.05 Y69.201
G1 F1200 X118.124 Y89.274 E447.1405
G0 F6000 X118.124 Y90.493
G0 X119.821 Y90.493
G0 X119.821 Y89.274
G1 F1200 X99.359 Y68.812 E451.99135
G0 F6000 X99.012 Y67.642
G0 X100.319 Y67.253
G0 X100.666 Y68.422
G1 F1200 X121.518 Y89.274 E456.93465
G0 F6000 X121.518 Y90.493
G0 X123.214 Y90.493
G0 X123.214 Y89.273
G1 F1200 X101.974 Y68.033 E461.96994
G0 F6000 X101.627 Y66.864
G0 X102.935 Y66.475
G0 X103.282 Y67.644
G1 F1200 X124.911 Y89.273 E467.09744
G0 F6000 X124.911 Y90.493
G0 X126.608 Y90.493
G0 X126.608 Y89.273
G1 F1200 X104.59 Y67.255 E472.31717
G0 F6000 X104.243 Y66.085
G0 X105.551 Y65.696
G0 X105.898 Y66.866
G1 F1200 X128.305 Y89.273 E477.62911
G0 F6000 X128.305 Y90.493
G0 X130.002 Y90.493
G0 X130.002 Y89.273
G1 F1200 X107.206 Y66.477 E483.03327
G0 F6000 X106.859 Y65.307
G0 X108.167 Y64.918
G0 X108.514 Y66.088
G1 F1200 X131.7 Y89.273 E488.52976
G0 F6000 X131.7 Y90.493
G0 X133.397 Y90.493
G0 X133.397 Y89.273
G1 F1200 X109.822 Y65.698 E494.1186
G0 F6000 X109.475 Y64.529
G0 X110.783 Y64.14
G0 X111.13 Y65.309
G1 F1200 X135.093 Y89.272 E499.79941
G0 F6000 X135.093 Y90.493
G0 X136.79 Y90.493
G0 X136.79 Y89.272
G1 F1200 X112.438 Y64.92 E505.57245
G0 F6000 X112.091 Y63.75
G0 X113.398 Y63.362
G0 X113.745 Y64.531
G1 F1200 X138.487 Y89.272 E511.43782
G0 F6000 X138.487 Y90.493
G0 X140.184 Y90.493
G0 X140.184 Y89.272
G1 F1200 X115.054 Y64.142 E517.39529
G0 F6000 X114.707 Y62.972
G0 X116.015 Y62.583
G0 X116.362 Y63.753
G1 F1200 X141.881 Y89.272 E523.44498
G0 F6000 X141.881 Y90.493
G0 X143.578 Y90.493
G0 X143.578 Y89.272
G1 F1200 X117.669 Y63.363 E529.58713
G0 F6000 X117.322 Y62.194
G0 X118.63 Y61.805
G0 X118.977 Y62.974
G1 F1200 X145.275 Y89.272 E535.8215
G0 F6000 X145.275 Y90.493
G0 X147.185 Y90.421
G0 X147.257 Y88.338
G0 X146.037 Y88.337
G1 F1200 X120.285 Y62.586 E541.92631
G0 F6000 X119.938 Y61.416
G0 X121.247 Y61.026
G0 X121.594 Y62.197
G1 F1200 X146.037 Y86.64 E547.72091
G0 F6000 X147.257 Y86.641
G0 X147.257 Y84.944
G0 X146.037 Y84.943
G1 F1200 X122.901 Y61.807 E553.20568
G0 F6000 X122.554 Y60.637
G0 X123.862 Y60.248
G0 X124.209 Y61.418
G1 F1200 X146.037 Y83.246 E558.38036
G0 F6000 X147.257 Y83.247
G0 X147.257 Y81.55
G0 X146.037 Y81.549
G1 F1200 X125.517 Y61.029 E563.24495
G0 F6000 X125.17 Y59.859
G0 X126.478 Y59.47
G0 X126.825 Y60.64
G1 F1200 X146.037 Y79.852 E567.79947
G0 F6000 X147.257 Y79.853
G0 X147.257 Y78.156
G0 X146.037 Y78.155
G1 F1200 X128.133 Y60.251 E572.0439
G0 F6000 X127.786 Y59.081
G0 X129.094 Y58.692
G0 X129.441 Y59.862
G1 F1200 X146.038 Y76.458 E575.97837
G0 F6000 X147.257 Y76.459
G0 X147.257 Y74.762
G0 X146.038 Y74.761
G1 F1200 X130.748 Y59.472 E579.60299
G0 F6000 X130.401 Y58.303
G0 X131.71 Y57.913
G0 X132.057 Y59.083
G1 F1200 X146.038 Y73.064 E582.91741
G0 F6000 X147.257 Y73.065
G0 X147.257 Y71.368
G0 X146.038 Y71.367
G1 F1200 X133.365 Y58.694 E585.92175
G0 F6000 X133.018 Y57.524
G0 X134.326 Y57.135
G0 X134.673 Y58.305
G1 F1200 X146.038 Y69.67 E588.61601
G0 F6000 X147.257 Y69.671
G0 X147.257 Y67.974
G0 X146.038 Y67.973
G1 F1200 X135.98 Y57.916 E591.0003
G0 F6000 X135.633 Y56.746
G0 X136.942 Y56.357
G0 X137.289 Y57.527
G1 F1200 X146.038 Y66.277 E593.07451
G0 F6000 X147.257 Y66.278
G0 X147.257 Y64.581
G0 X146.038 Y64.58
G1 F1200 X138.597 Y57.138 E594.83864
G0 F6000 X138.25 Y55.967
G0 X139.557 Y55.578
G0 X139.904 Y56.748
G1 F1200 X146.038 Y62.883 E596.29292
G0 F6000 X147.257 Y62.884
G0 X147.257 Y61.186
G0 X146.038 Y61.185
G1 F1200 X141.212 Y56.359 E597.437
G0 F6000 X140.865 Y55.189
G0 X142.173 Y54.8
G0 X142.52 Y55.971
G1 F1200 X146.038 Y59.488 E598.27088
G0 F6000 X147.257 Y59.489
G0 X147.257 Y57.792
G0 X146.038 Y57.791
G1 F1200 X143.829 Y55.582 E598.79456
G0 F6000 X143.481 Y54.411
G0 X144.789 Y54.022
G0 X145.136 Y55.192
G1 F1200 X146.038 Y56.094 E599.0084
G1 F2100 E591.5084
G0 F6000 X147.257 Y56.095
G0 X151.288 Y51.073
