;FLAVOR:Marlin
;TIME:23251
;Filament used: 80.84m
;Layer height: 0.6
;MINX:59.907
;MINY:32.194
;MINZ:0.32
;MAXX:239.249
;MAXY:266.747
;MAXZ:67.52
;Generated with Cura_SteamEngine 5.3.1
M140 S30
M105
M190 S30
M104 S230
M105
M109 S230
M82 ;absolute extrusion mode
G28 ; home all axes
G92 X-5.0 Y-10.0 ; set home offsets
M92 E136.8 ; Set E Steps to 136.8
G1 X0 Y0 Z0.2 F3000 ; get ready to prime
G92 E0 ; reset extrusion distance
G92 E0
G92 E0
G1 F2100 E-7.5
;LAYER_COUNT:113
;LAYER:0
M107
;MESH:Wheel Guard+.stl(1)
G0 F6000 X84.909 Y140.96 Z0.32
;TYPE:WALL-INNER
G1 F2100 E0
G1 F1200 X84.909 Y90.62 E8.43855
G1 X84.919 Y90.369 E8.48066
G1 X84.953 Y90.101 E8.52594
G1 X85.071 Y89.644 E8.60506
G1 X85.263 Y89.205 E8.68538
G1 X85.511 Y88.816 E8.76272
G1 X85.799 Y88.486 E8.83614
G1 X86.113 Y88.216 E8.90556
G1 X86.321 Y88.074 E8.94778
G1 X86.647 Y87.898 E9.00988
G1 X86.994 Y87.762 E9.07236
G1 X87.356 Y87.671 E9.13493
G1 X87.724 Y87.625 E9.19709
G1 X147.564 Y87.619 E19.22814
G1 X147.565 Y51.624 E25.26202
G1 X147.583 Y51.289 E25.31826
G1 X147.719 Y50.077 E25.5227
G1 X147.868 Y49.42 E25.63563
G1 X147.973 Y49.123 E25.68844
G1 X63.564 Y74.234 E40.45087
G1 X63.564 Y78.824 E41.22029
G1 X67.134 Y77.762 E41.84465
G1 X67.582 Y77.665 E41.92149
G1 X68.037 Y77.638 E41.9979
G1 X68.479 Y77.677 E42.07228
G1 X68.897 Y77.777 E42.14433
G1 X69.28 Y77.928 E42.21334
G1 X69.621 Y78.119 E42.27886
G1 X69.917 Y78.337 E42.34048
G1 X70.169 Y78.575 E42.39858
G1 X70.378 Y78.821 E42.4527
G1 X70.548 Y79.069 E42.5031
G1 X70.683 Y79.314 E42.54999
G1 X70.843 Y79.678 E42.61664
G1 X70.975 Y80.272 E42.71864
G1 X70.991 Y80.638 E42.78005
G1 X70.991 Y140.96 E52.8919
G1 X84.909 Y140.96 E55.22499
G0 F6000 X86.109 Y142.16
G1 F1200 X86.109 Y90.41 E63.89989
G1 X86.206 Y90.034 E63.96499
G1 X86.349 Y89.708 E64.02466
G1 X86.554 Y89.434 E64.08202
G1 X86.831 Y89.177 E64.14537
G1 X87.245 Y88.93 E64.22618
G1 X87.752 Y88.82 E64.31314
G1 X148.764 Y88.819 E74.54065
G1 X148.765 Y51.522 E80.79279
G1 X148.911 Y50.211 E81.01391
G1 X149.001 Y49.816 E81.08182
G1 X149.404 Y48.665 E81.28625
G1 X149.579 Y48.303 E81.35365
G1 X150.282 Y47.184 E81.57518
G1 X62.364 Y73.339 E96.95131
G1 X62.364 Y80.433 E98.14048
G1 X67.476 Y78.912 E99.03454
G1 X67.745 Y78.854 E99.08067
G1 X68.018 Y78.838 E99.12651
G1 X68.284 Y78.861 E99.17126
G1 X68.675 Y78.955 E99.23868
G1 X69.146 Y79.257 E99.33247
G1 X69.423 Y79.548 E99.39981
G1 X69.606 Y79.843 E99.45801
G1 X69.715 Y80.122 E99.50822
G1 X69.771 Y80.372 E99.55116
G1 X69.791 Y80.638 E99.59588
G1 X69.791 Y142.16 E109.90888
G1 X86.109 Y142.16 E112.64428
G1 F2100 E105.14428
G0 F6000 X87.081 Y89.792
G0 X147.529 Y87.584
G0 X149.726 Y51.576
G0 X149.878 Y50.228
G0 X150.344 Y48.895
G0 X151.095 Y47.7
G0 X152.094 Y46.701
G0 X153.289 Y45.95
G0 X154.488 Y45.531
G0 X167.979 Y43.17
G1 F2100 E112.64428
G1 F1200 X206.622 Y43.17 E119.12205
G1 X206.622 Y37.06 E120.14628
G1 X206.287 Y37.023 E120.20277
G1 X195.772 Y37.021 E121.96542
G1 X193.148 Y36.996 E122.4053
G1 X188.648 Y37.022 E123.15965
G1 X167.979 Y43.17 E126.77445
G0 F6000 X159.738 Y44.37
G1 F1200 X207.822 Y44.37 E134.83482
G1 X207.822 Y36.135 E136.21526
G1 X207.19 Y35.915 E136.32744
G1 X206.353 Y35.823 E136.46859
G1 X195.784 Y35.821 E138.24028
G1 X193.141 Y35.796 E138.68335
G1 X188.47 Y35.823 E139.46637
G1 X159.738 Y44.37 E144.49133
G1 F2100 E136.99133
G0 F6000 X154.622 Y45.484
G0 X153.289 Y45.95
G0 X152.094 Y46.701
G0 X151.095 Y47.7
G0 X150.344 Y48.895
G0 X149.878 Y50.228
G0 X147.764 Y61.356
G0 X147.529 Y87.584
G0 X87.081 Y89.792
G0 X86.239 Y142.29
G0 X87.309 Y143.36
;TYPE:WALL-OUTER
G1 F2100 E144.49133
G1 F1200 X87.311 Y90.569 E153.34074
G1 X87.341 Y90.424 E153.36557
G1 X87.457 Y90.224 E153.40432
G1 X87.591 Y90.11 E153.43381
G1 X87.839 Y90.023 E153.47787
G1 X149.964 Y90.019 E163.89195
G1 X149.968 Y51.557 E170.33938
G1 X150.112 Y50.277 E170.5553
G1 X150.56 Y48.997 E170.78263
G1 X151.278 Y47.853 E171.00904
G1 X152.25 Y46.881 E171.23947
G1 F1218.3 X153.395 Y46.189 E171.46037
G1 F1245.7 X154.698 Y45.749 E171.68246
G1 F1226.6 X155.954 Y45.573 E171.89046
G1 F1200 X209.022 Y45.57 E180.7863
G1 X209.022 Y35.281 E182.51106
G1 X207.456 Y34.737 E182.78896
G1 X206.419 Y34.623 E182.96384
G1 X195.796 Y34.621 E184.74458
G1 X193.134 Y34.596 E185.19084
G1 X188.292 Y34.624 E186.00252
G1 X155.701 Y44.32 E191.70243
G1 F1238.2 X154.324 Y44.689 E191.93404
G1 F1258.7 X153.011 Y45.099 E192.15386
G1 F1219.3 X151.698 Y45.51 E192.38084
G1 F1200 X61.164 Y72.444 E208.21452
G1 X61.164 Y82.042 E209.82344
G1 X67.883 Y80.043 E210.99855
G1 X68.088 Y80.045 E211.03291
G1 X68.317 Y80.134 E211.0741
G1 X68.468 Y80.274 E211.10861
G1 X68.59 Y80.572 E211.16259
G1 X68.591 Y143.36 E221.68781
G1 X87.309 Y143.36 E224.82553
G0 F6000 X86.239 Y142.29
G0 X84.409 Y139.84
G0 X83.789 Y139.84
;TYPE:SKIN
G1 F1200 X72.111 Y139.84 E226.78313
G1 X72.111 Y80.598 E236.71393
G1 X72.093 Y80.247 E236.77284
G1 X72.024 Y79.796 E236.84932
G1 X71.941 Y79.466 E236.90637
G1 X71.84 Y79.171 E236.95863
G1 X71.699 Y78.844 E237.01833
G1 X71.519 Y78.51 E237.08193
G1 X71.253 Y78.122 E237.16079
G1 X70.998 Y77.822 E237.22679
G1 X70.604 Y77.452 E237.31739
G1 X70.203 Y77.162 E237.40035
G1 X69.789 Y76.931 E237.47982
G1 X69.279 Y76.724 E237.57209
G1 X68.668 Y76.57 E237.67771
G1 X68.102 Y76.519 E237.77298
G1 F1123.2 X68.007 Y76.437 E237.79545
G1 F990.4 X67.731 Y76.364 E237.85344
G1 F882.4 X67.454 Y76.291 E237.91874
G1 F846.6 X66.811 Y76.439 E238.07553
G1 F857.1 X64.923 Y77.001 E238.53782
G1 F857.7 X64.923 Y75.248 E238.94898
G1 F857.1 X66.397 Y74.811 E239.30978
G1 F846.6 X67.157 Y74.607 E239.49677
G1 F882.4 X67.392 Y74.444 E239.56197
G1 F990.4 X67.627 Y74.281 E239.62006
G1 F1123.2 X67.859 Y74.126 E239.67002
G1 F1200 X146.519 Y50.726 E253.42697
G1 X146.467 Y51.195 E253.50607
G1 X146.445 Y51.596 E253.57339
G1 X146.444 Y86.499 E259.42422
G1 X87.705 Y86.502 E269.2707
G1 X87.295 Y86.538 E269.33969
G1 X86.662 Y86.692 E269.4489
G1 X86.152 Y86.892 E269.54073
G1 X85.732 Y87.119 E269.62076
G1 X85.329 Y87.392 E269.70235
G1 X85.028 Y87.673 E269.77138
G1 X84.706 Y88.013 E269.84988
G1 X84.444 Y88.388 E269.92656
G1 X84.287 Y88.653 E269.9782
G1 X84.124 Y88.993 E270.0414
G1 X84.006 Y89.299 E270.09638
G1 X83.908 Y89.63 E270.15425
G1 X83.846 Y89.932 E270.20593
G1 X83.8 Y90.308 E270.26943
G1 X83.789 Y90.585 E270.3159
G1 X83.789 Y139.84 E278.57256
G0 F6000 X84.409 Y139.84
G0 X84.337 Y140.388
G0 X73.054 Y140.46
G0 X73.054 Y139.239
G1 F1200 X72.71 Y138.895 E278.65412
G0 F6000 X71.491 Y138.895
G0 X71.491 Y137.198
G0 X72.71 Y137.198
G1 F1200 X74.751 Y139.239 E279.13797
G0 F6000 X74.751 Y140.46
G0 X76.448 Y140.46
G0 X76.448 Y139.239
G1 F1200 X72.71 Y135.501 E280.02412
G0 F6000 X71.491 Y135.501
G0 X71.491 Y133.804
G0 X72.71 Y133.804
G1 F1200 X78.145 Y139.239 E281.31258
G0 F6000 X78.145 Y140.46
G0 X79.842 Y140.46
G0 X79.842 Y139.239
G1 F1200 X72.71 Y132.107 E283.00333
G0 F6000 X71.491 Y132.107
G0 X71.491 Y130.41
G0 X72.71 Y130.41
G1 F1200 X81.539 Y139.239 E285.09639
G0 F6000 X81.539 Y140.46
G0 X84.337 Y140.388
G0 X84.409 Y139.191
G0 X83.188 Y139.191
G1 F1200 X72.71 Y128.713 E287.58037
G0 F6000 X71.491 Y128.713
G0 X71.491 Y127.016
G0 X72.71 Y127.016
G1 F1200 X83.188 Y137.494 E290.06435
G0 F6000 X84.409 Y137.494
G0 X84.409 Y135.797
G0 X83.188 Y135.797
G1 F1200 X72.71 Y125.319 E292.54833
G0 F6000 X71.491 Y125.319
G0 X71.491 Y123.622
G0 X72.71 Y123.622
G1 F1200 X83.188 Y134.1 E295.0323
G0 F6000 X84.409 Y134.1
G0 X84.409 Y132.403
G0 X83.188 Y132.403
G1 F1200 X72.71 Y121.925 E297.51628
G0 F6000 X71.491 Y121.925
G0 X71.491 Y120.227
G0 X72.71 Y120.227
G1 F1200 X83.188 Y130.706 E300.00038
G0 F6000 X84.409 Y130.706
G0 X84.409 Y129.009
G0 X83.188 Y129.009
G1 F1200 X72.71 Y118.53 E302.48448
G0 F6000 X71.491 Y118.53
G0 X71.491 Y116.833
G0 X72.71 Y116.833
G1 F1200 X83.188 Y127.312 E304.96858
G0 F6000 X84.409 Y127.312
G0 X84.409 Y125.615
G0 X83.188 Y125.615
G1 F1200 X72.71 Y115.136 E307.45267
G0 F6000 X71.491 Y115.136
G0 X71.491 Y113.439
G0 X72.71 Y113.439
G1 F1200 X83.188 Y123.918 E309.93677
G0 F6000 X84.409 Y123.918
G0 X84.409 Y122.221
G0 X83.188 Y122.221
G1 F1200 X72.71 Y111.742 E312.42087
G0 F6000 X71.491 Y111.742
G0 X71.491 Y110.045
G0 X72.71 Y110.045
G1 F1200 X83.188 Y120.524 E314.90497
G0 F6000 X84.409 Y120.524
G0 X84.409 Y118.827
G0 X83.188 Y118.827
G1 F1200 X72.71 Y108.348 E317.38906
G0 F6000 X71.491 Y108.348
G0 X71.491 Y106.651
G0 X72.71 Y106.651
G1 F1200 X83.188 Y117.13 E319.87316
G0 F6000 X84.409 Y117.13
G0 X84.409 Y115.433
G0 X83.188 Y115.433
G1 F1200 X72.71 Y104.954 E322.35726
G0 F6000 X71.491 Y104.954
G0 X71.491 Y103.257
G0 X72.71 Y103.257
G1 F1200 X83.188 Y113.736 E324.84136
G0 F6000 X84.409 Y113.736
G0 X84.409 Y112.038
G0 X83.188 Y112.038
G1 F1200 X72.71 Y101.56 E327.32534
G0 F6000 X71.491 Y101.56
G0 X71.491 Y99.863
G0 X72.71 Y99.863
G1 F1200 X83.188 Y110.341 E329.80932
G0 F6000 X84.409 Y110.341
G0 X84.409 Y108.644
G0 X83.188 Y108.644
G1 F1200 X72.71 Y98.166 E332.29329
G0 F6000 X71.491 Y98.166
G0 X71.491 Y96.469
G0 X72.71 Y96.469
G1 F1200 X83.188 Y106.947 E334.77727
G0 F6000 X84.409 Y106.947
G0 X84.409 Y105.25
G0 X83.188 Y105.25
G1 F1200 X72.71 Y94.772 E337.26125
G0 F6000 X71.491 Y94.772
G0 X71.491 Y93.075
G0 X72.71 Y93.075
G1 F1200 X83.188 Y103.553 E339.74523
G0 F6000 X84.409 Y103.553
G0 X84.409 Y101.856
G0 X83.188 Y101.856
G1 F1200 X72.71 Y91.377 E342.22933
G0 F6000 X71.491 Y91.377
G0 X71.491 Y89.68
G0 X72.71 Y89.68
G1 F1200 X83.188 Y100.159 E344.71343
G0 F6000 X84.409 Y100.159
G0 X84.409 Y98.462
G0 X83.188 Y98.462
G1 F1200 X72.71 Y87.983 E347.19753
G0 F6000 X71.491 Y87.983
G0 X71.491 Y86.286
G0 X72.71 Y86.286
G1 F1200 X83.188 Y96.765 E349.68162
G0 F6000 X84.409 Y96.765
G0 X84.409 Y95.068
G0 X83.188 Y95.068
G1 F1200 X72.71 Y84.589 E352.16572
G0 F6000 X71.491 Y84.589
G0 X71.491 Y82.892
G0 X72.71 Y82.892
G1 F1200 X83.188 Y93.371 E354.64982
G0 F6000 X84.409 Y93.371
G0 X84.409 Y91.674
G0 X83.188 Y91.674
G1 F1200 X72.71 Y81.195 E357.13392
G0 F6000 X71.491 Y81.195
G0 X71.345 Y79.634
G0 X72.518 Y79.306
G1 F1200 X83.231 Y90.019 E359.67361
G0 F6000 X84.44 Y90.173
G0 X84.7 Y89.219
G0 X83.601 Y88.692
G1 F1200 X69.247 Y74.338 E363.07645
G0 F6000 X68.9 Y73.169
G0 X67.615 Y73.552
G0 X67.974 Y74.763
G1 F1200 X69.323 Y76.111 E363.39614
G0 F6000 X69.038 Y77.298
G0 X64.141 Y78.052
G0 X64.132 Y74.659
G0 X70.208 Y72.78
G0 X70.555 Y73.949
G1 F1200 X84.239 Y87.633 E366.64015
G0 F6000 X85.195 Y88.411
G0 X85.804 Y87.821
G0 X85.115 Y86.812
G1 F1200 X71.863 Y73.561 E369.78163
G0 F6000 X71.516 Y72.391
G0 X72.825 Y72.002
G0 X73.172 Y73.172
G1 F1200 X86.219 Y86.219 E372.87463
G0 F6000 X86.66 Y87.357
G0 X87.709 Y87.124
G0 X87.604 Y85.907
G1 F1200 X74.479 Y72.782 E375.98613
G0 F6000 X74.132 Y71.613
G0 X75.44 Y71.224
G0 X75.787 Y72.393
G1 F1200 X89.296 Y85.902 E379.18865
G0 F6000 X89.296 Y87.12
G0 X90.994 Y87.12
G0 X90.994 Y85.902
G1 F1200 X77.095 Y72.004 E382.48352
G0 F6000 X76.748 Y70.835
G0 X78.056 Y70.446
G0 X78.403 Y71.615
G1 F1200 X92.691 Y85.902 E385.8706
G0 F6000 X92.691 Y87.12
G0 X94.388 Y87.12
G0 X94.388 Y85.902
G1 F1200 X79.711 Y71.226 E389.3499
G0 F6000 X79.364 Y70.056
G0 X80.672 Y69.667
G0 X81.019 Y70.837
G1 F1200 X96.085 Y85.902 E392.92142
G0 F6000 X96.085 Y87.12
G0 X97.781 Y87.12
G0 X97.781 Y85.902
G1 F1200 X82.327 Y70.448 E396.58504
G0 F6000 X81.98 Y69.278
G0 X83.288 Y68.889
G0 X83.635 Y70.059
G1 F1200 X99.478 Y85.902 E400.34088
G0 F6000 X99.478 Y87.12
G0 X101.175 Y87.12
G0 X101.175 Y85.902
G1 F1200 X84.943 Y69.669 E404.18906
G0 F6000 X84.596 Y68.5
G0 X85.904 Y68.111
G0 X86.251 Y69.28
G1 F1200 X102.872 Y85.902 E408.12945
G0 F6000 X102.872 Y87.12
G0 X104.569 Y87.12
G0 X104.569 Y85.902
G1 F1200 X87.559 Y68.891 E412.16207
G0 F6000 X87.212 Y67.722
G0 X88.52 Y67.333
G0 X88.867 Y68.503
G1 F1200 X106.266 Y85.902 E416.28678
G0 F6000 X106.266 Y87.12
G0 X107.963 Y87.12
G0 X107.963 Y85.901
G1 F1200 X90.175 Y68.113 E420.50371
G0 F6000 X89.828 Y66.944
G0 X91.136 Y66.554
G0 X91.483 Y67.724
G1 F1200 X109.66 Y85.901 E424.81286
G0 F6000 X109.66 Y87.12
G0 X111.357 Y87.12
G0 X111.357 Y85.901
G1 F1200 X92.791 Y67.335 E429.21423
G0 F6000 X92.444 Y66.165
G0 X93.752 Y65.776
G0 X94.099 Y66.946
G1 F1200 X113.054 Y85.901 E433.70782
G0 F6000 X113.054 Y87.12
G0 X114.751 Y87.12
G0 X114.751 Y85.901
G1 F1200 X95.407 Y66.557 E438.29363
G0 F6000 X95.06 Y65.387
G0 X96.368 Y64.998
G0 X96.715 Y66.168
G1 F1200 X116.448 Y85.901 E442.97166
G0 F6000 X116.448 Y87.12
G0 X118.144 Y87.12
G0 X118.144 Y85.9
G1 F1200 X98.023 Y65.779 E447.74166
G0 F6000 X97.676 Y64.609
G0 X98.984 Y64.22
G0 X99.331 Y65.39
G1 F1200 X119.841 Y85.9 E452.60389
G0 F6000 X119.841 Y87.12
G0 X121.538 Y87.12
G0 X121.538 Y85.9
G1 F1200 X100.638 Y65 E457.55857
G0 F6000 X100.291 Y63.831
G0 X101.6 Y63.442
G0 X101.947 Y64.611
G1 F1200 X123.235 Y85.9 E462.60536
G0 F6000 X123.235 Y87.12
G0 X124.933 Y87.12
G0 X124.933 Y85.9
G1 F1200 X103.255 Y64.222 E467.74448
G0 F6000 X102.908 Y63.052
G0 X104.216 Y62.663
G0 X104.563 Y63.834
G1 F1200 X126.629 Y85.9 E472.97558
G0 F6000 X126.629 Y87.12
G0 X128.326 Y87.12
G0 X128.326 Y85.9
G1 F1200 X105.87 Y63.444 E478.29914
G0 F6000 X105.523 Y62.274
G0 X106.832 Y61.885
G0 X107.179 Y63.055
G1 F1200 X130.023 Y85.9 E483.71479
G0 F6000 X130.023 Y87.12
G0 X131.72 Y87.12
G0 X131.72 Y85.9
G1 F1200 X108.487 Y62.666 E489.22267
G0 F6000 X108.14 Y61.496
G0 X109.448 Y61.107
G0 X109.795 Y62.277
G1 F1200 X133.417 Y85.9 E494.82276
G0 F6000 X133.417 Y87.12
G0 X135.114 Y87.12
G0 X135.114 Y85.9
G1 F1200 X111.102 Y61.888 E500.5152
G0 F6000 X110.755 Y60.718
G0 X112.063 Y60.329
G0 X112.41 Y61.499
G1 F1200 X136.811 Y85.899 E506.29973
G0 F6000 X136.811 Y87.12
G0 X138.508 Y87.12
G0 X138.508 Y85.899
G1 F1200 X113.719 Y61.11 E512.17636
G0 F6000 X113.372 Y59.94
G0 X114.68 Y59.55
G0 X115.027 Y60.721
G1 F1200 X140.205 Y85.899 E518.14521
G0 F6000 X140.205 Y87.12
G0 X141.902 Y87.12
G0 X141.902 Y85.899
G1 F1200 X116.334 Y60.331 E524.20652
G0 F6000 X115.987 Y59.162
G0 X117.295 Y58.772
G0 X117.642 Y59.942
G1 F1200 X143.599 Y85.899 E530.36005
G0 F6000 X143.599 Y87.12
G0 X145.296 Y87.12
G0 X145.296 Y85.899
G1 F1200 X118.95 Y59.553 E536.60579
G0 F6000 X118.603 Y58.383
G0 X119.912 Y57.994
G0 X120.259 Y59.165
G1 F1200 X145.844 Y84.75 E542.67113
G0 F6000 X147.064 Y84.751
G0 X147.064 Y83.054
G0 X145.844 Y83.053
G1 F1200 X121.566 Y58.775 E548.42662
G0 F6000 X121.219 Y57.605
G0 X122.527 Y57.216
G0 X122.874 Y58.386
G1 F1200 X145.844 Y81.356 E553.87203
G0 F6000 X147.064 Y81.357
G0 X147.064 Y79.66
G0 X145.844 Y79.659
G1 F1200 X124.182 Y57.997 E559.00736
G0 F6000 X123.835 Y56.827
G0 X125.143 Y56.438
G0 X125.49 Y57.608
G1 F1200 X145.844 Y77.962 E563.8326
G0 F6000 X147.064 Y77.963
G0 X147.064 Y76.266
G0 X145.844 Y76.265
G1 F1200 X126.798 Y57.219 E568.34776
G0 F6000 X126.451 Y56.049
G0 X127.759 Y55.66
G0 X128.106 Y56.83
G1 F1200 X145.844 Y74.567 E572.55272
G0 F6000 X147.064 Y74.568
G0 X147.064 Y72.872
G0 X145.845 Y72.871
G1 F1200 X129.414 Y56.441 E576.44784
G0 F6000 X129.067 Y55.27
G0 X130.375 Y54.881
G0 X130.722 Y56.052
G1 F1200 X145.845 Y71.174 E580.03287
G0 F6000 X147.064 Y71.175
G0 X147.064 Y69.478
G0 X145.845 Y69.477
G1 F1200 X132.03 Y55.662 E583.30794
G0 F6000 X131.683 Y54.492
G0 X132.991 Y54.103
G0 X133.338 Y55.273
G1 F1200 X145.845 Y67.78 E586.27293
G0 F6000 X147.064 Y67.781
G0 X147.064 Y66.084
G0 X145.845 Y66.083
G1 F1200 X134.646 Y54.884 E588.92783
G0 F6000 X134.299 Y53.714
G0 X135.607 Y53.325
G0 X135.954 Y54.496
G1 F1200 X145.845 Y64.386 E591.27253
G0 F6000 X147.064 Y64.387
G0 X147.064 Y62.69
G0 X145.845 Y62.689
G1 F1200 X137.262 Y54.106 E593.30727
G0 F6000 X136.915 Y52.936
G0 X138.223 Y52.547
G0 X138.57 Y53.717
G1 F1200 X145.845 Y60.992 E595.03193
G0 F6000 X147.064 Y60.993
G0 X147.064 Y59.296
G0 X145.845 Y59.295
G1 F1200 X139.878 Y53.328 E596.4465
G0 F6000 X139.531 Y52.158
G0 X140.839 Y51.768
G0 X141.186 Y52.939
G1 F1200 X145.845 Y57.598 E597.55099
G0 F6000 X147.064 Y57.599
G0 X147.064 Y55.902
G0 X145.845 Y55.901
G1 F1200 X142.494 Y52.55 E598.3454
G0 F6000 X142.147 Y51.379
G0 X143.455 Y50.99
G0 X143.802 Y52.161
G1 F1200 X145.845 Y54.204 E598.82973
G0 F6000 X147.064 Y54.205
G0 X147.064 Y52.508
G0 X145.845 Y52.507
G1 F1200 X145.11 Y51.772 E599.00397
G1 F2100 E591.50397
G0 F6000 X144.764 Y50.601
G0 X153.289 Y45.95
